pavlakrotka/NCC_FreqModels/simulations/results/results_setting_1_alpha.csv
num_arms,n_arm,d1,d2,d3,d4,d5,d6,d7,d8,d9,d10,period_blocks,mu0,sigma,theta1,theta2,theta3,theta4,theta5,theta6,theta7,theta8,theta9,theta10,lambda0,lambda1,lambda2,lambda3,lambda4,lambda5,lambda6,lambda7,lambda8,lambda9,lambda10,trend,unit_size,alpha,trend_mean,trend_var,ncc,study_arm,model,reject_h0,bias,MSE,failed,nsim
10,250,0,0,0,0,0,0,0,0,0,0,2,0,1,0,0,0,0,0,0,0,0,0,0,-0.5,-0.5,-0.5,-0.5,-0.5,-0.5,-0.5,-0.5,-0.5,-0.5,-0.5,linear,100,0.025,0,0.5,TRUE,2,fixmodel,0.0203,-0.0020918613139840653,0.007825504922630476,0,10000
10,250,0,0,0,0,0,0,0,0,0,0,2,0,1,0,0,0,0,0,0,0,0,0,0,-0.5,-0.5,-0.5,-0.5,-0.5,-0.5,-0.5,-0.5,-0.5,-0.5,-0.5,linear,100,0.025,0,0.5,TRUE,2,poolmodel,0.0208,-0.0020918613139833727,0.007825504922630894,0,10000
10,250,0,0,0,0,0,0,0,0,0,0,2,0,1,0,0,0,0,0,0,0,0,0,0,-0.5,-0.5,-0.5,-0.5,-0.5,-0.5,-0.5,-0.5,-0.5,-0.5,-0.5,linear,100,0.025,0,0.5,TRUE,2,sepmodel,0.0208,-0.0020918613139833727,0.007825504922630894,0,10000
10,250,0,0,0,0,0,0,0,0,0,0,2,0,1,0,0,0,0,0,0,0,0,0,0,-0.5,-0.5,-0.5,-0.5,-0.5,-0.5,-0.5,-0.5,-0.5,-0.5,-0.5,linear,100,0.025,0,0.5,TRUE,3,fixmodel,0.0231,-0.0018151594228907164,0.007922738960450681,0,10000
10,250,0,0,0,0,0,0,0,0,0,0,2,0,1,0,0,0,0,0,0,0,0,0,0,-0.5,-0.5,-0.5,-0.5,-0.5,-0.5,-0.5,-0.5,-0.5,-0.5,-0.5,linear,100,0.025,0,0.5,TRUE,3,poolmodel,0.0225,-0.0018151594228899284,0.007922738960450702,0,10000
10,250,0,0,0,0,0,0,0,0,0,0,2,0,1,0,0,0,0,0,0,0,0,0,0,-0.5,-0.5,-0.5,-0.5,-0.5,-0.5,-0.5,-0.5,-0.5,-0.5,-0.5,linear,100,0.025,0,0.5,TRUE,3,sepmodel,0.0225,-0.0018151594228899284,0.007922738960450702,0,10000
10,250,0,0,0,0,0,0,0,0,0,0,2,0,1,0,0,0,0,0,0,0,0,0,0,-0.5,-0.5,-0.5,-0.5,-0.5,-0.5,-0.5,-0.5,-0.5,-0.5,-0.5,linear,100,0.025,0,0.5,TRUE,4,fixmodel,0.0225,-3.063102249220531e-4,0.007929419796912527,0,10000
10,250,0,0,0,0,0,0,0,0,0,0,2,0,1,0,0,0,0,0,0,0,0,0,0,-0.5,-0.5,-0.5,-0.5,-0.5,-0.5,-0.5,-0.5,-0.5,-0.5,-0.5,linear,100,0.025,0,0.5,TRUE,4,poolmodel,0.0217,-3.063102249213034e-4,0.007929419796912612,0,10000
10,250,0,0,0,0,0,0,0,0,0,0,2,0,1,0,0,0,0,0,0,0,0,0,0,-0.5,-0.5,-0.5,-0.5,-0.5,-0.5,-0.5,-0.5,-0.5,-0.5,-0.5,linear,100,0.025,0,0.5,TRUE,4,sepmodel,0.0217,-3.063102249213034e-4,0.007929419796912612,0,10000
10,250,0,0,0,0,0,0,0,0,0,0,2,0,1,0,0,0,0,0,0,0,0,0,0,-0.5,-0.5,-0.5,-0.5,-0.5,-0.5,-0.5,-0.5,-0.5,-0.5,-0.5,linear,100,0.025,0,0.5,TRUE,5,fixmodel,0.0254,1.5462857936446504e-5,0.007838511084701164,0,10000
10,250,0,0,0,0,0,0,0,0,0,0,2,0,1,0,0,0,0,0,0,0,0,0,0,-0.5,-0.5,-0.5,-0.5,-0.5,-0.5,-0.5,-0.5,-0.5,-0.5,-0.5,linear,100,0.025,0,0.5,TRUE,5,poolmodel,0.025,1.546285793721725e-5,0.007838511084701183,0,10000
10,250,0,0,0,0,0,0,0,0,0,0,2,0,1,0,0,0,0,0,0,0,0,0,0,-0.5,-0.5,-0.5,-0.5,-0.5,-0.5,-0.5,-0.5,-0.5,-0.5,-0.5,linear,100,0.025,0,0.5,TRUE,5,sepmodel,0.025,1.546285793721725e-5,0.007838511084701183,0,10000
10,250,0,0,0,0,0,0,0,0,0,0,2,0,1,0,0,0,0,0,0,0,0,0,0,-0.5,-0.5,-0.5,-0.5,-0.5,-0.5,-0.5,-0.5,-0.5,-0.5,-0.5,linear,100,0.025,0,0.5,TRUE,6,fixmodel,0.0233,-0.0015722488147302332,0.007925274707893764,0,10000
10,250,0,0,0,0,0,0,0,0,0,0,2,0,1,0,0,0,0,0,0,0,0,0,0,-0.5,-0.5,-0.5,-0.5,-0.5,-0.5,-0.5,-0.5,-0.5,-0.5,-0.5,linear,100,0.025,0,0.5,TRUE,6,poolmodel,0.0231,-0.0015722488147294751,0.007925274707893816,0,10000
10,250,0,0,0,0,0,0,0,0,0,0,2,0,1,0,0,0,0,0,0,0,0,0,0,-0.5,-0.5,-0.5,-0.5,-0.5,-0.5,-0.5,-0.5,-0.5,-0.5,-0.5,linear,100,0.025,0,0.5,TRUE,6,sepmodel,0.0231,-0.0015722488147294751,0.007925274707893816,0,10000
10,250,0,0,0,0,0,0,0,0,0,0,2,0,1,0,0,0,0,0,0,0,0,0,0,-0.5,-0.5,-0.5,-0.5,-0.5,-0.5,-0.5,-0.5,-0.5,-0.5,-0.5,linear,100,0.025,0,0.5,TRUE,7,fixmodel,0.0235,-5.72948959345584e-4,0.008068642109985527,0,10000
10,250,0,0,0,0,0,0,0,0,0,0,2,0,1,0,0,0,0,0,0,0,0,0,0,-0.5,-0.5,-0.5,-0.5,-0.5,-0.5,-0.5,-0.5,-0.5,-0.5,-0.5,linear,100,0.025,0,0.5,TRUE,7,poolmodel,0.0237,-5.729489593448248e-4,0.008068642109985556,0,10000
10,250,0,0,0,0,0,0,0,0,0,0,2,0,1,0,0,0,0,0,0,0,0,0,0,-0.5,-0.5,-0.5,-0.5,-0.5,-0.5,-0.5,-0.5,-0.5,-0.5,-0.5,linear,100,0.025,0,0.5,TRUE,7,sepmodel,0.0237,-5.729489593448248e-4,0.008068642109985556,0,10000
10,250,0,0,0,0,0,0,0,0,0,0,2,0,1,0,0,0,0,0,0,0,0,0,0,-0.5,-0.5,-0.5,-0.5,-0.5,-0.5,-0.5,-0.5,-0.5,-0.5,-0.5,linear,100,0.025,0,0.5,TRUE,8,fixmodel,0.0228,-9.405737732101817e-4,0.007886467597071683,0,10000
10,250,0,0,0,0,0,0,0,0,0,0,2,0,1,0,0,0,0,0,0,0,0,0,0,-0.5,-0.5,-0.5,-0.5,-0.5,-0.5,-0.5,-0.5,-0.5,-0.5,-0.5,linear,100,0.025,0,0.5,TRUE,8,poolmodel,0.0232,-9.40573773209414e-4,0.007886467597071692,0,10000
10,250,0,0,0,0,0,0,0,0,0,0,2,0,1,0,0,0,0,0,0,0,0,0,0,-0.5,-0.5,-0.5,-0.5,-0.5,-0.5,-0.5,-0.5,-0.5,-0.5,-0.5,linear,100,0.025,0,0.5,TRUE,8,sepmodel,0.0232,-9.40573773209414e-4,0.007886467597071692,0,10000
10,250,0,0,0,0,0,0,0,0,0,0,2,0,1,0,0,0,0,0,0,0,0,0,0,-0.5,-0.5,-0.5,-0.5,-0.5,-0.5,-0.5,-0.5,-0.5,-0.5,-0.5,linear,100,0.025,0,0.5,TRUE,9,fixmodel,0.0253,-0.001032954097732949,0.008075212959790853,0,10000
10,250,0,0,0,0,0,0,0,0,0,0,2,0,1,0,0,0,0,0,0,0,0,0,0,-0.5,-0.5,-0.5,-0.5,-0.5,-0.5,-0.5,-0.5,-0.5,-0.5,-0.5,linear,100,0.025,0,0.5,TRUE,9,poolmodel,0.024,-0.0010329540977321678,0.00807521295979089,0,10000
10,250,0,0,0,0,0,0,0,0,0,0,2,0,1,0,0,0,0,0,0,0,0,0,0,-0.5,-0.5,-0.5,-0.5,-0.5,-0.5,-0.5,-0.5,-0.5,-0.5,-0.5,linear,100,0.025,0,0.5,TRUE,9,sepmodel,0.024,-0.0010329540977321678,0.00807521295979089,0,10000
10,250,0,0,0,0,0,0,0,0,0,0,2,0,1,0,0,0,0,0,0,0,0,0,0,-0.5,-0.5,-0.5,-0.5,-0.5,-0.5,-0.5,-0.5,-0.5,-0.5,-0.5,linear,100,0.025,0,0.5,TRUE,10,fixmodel,0.0216,-0.0018622457020701288,0.007957706521077705,0,10000
10,250,0,0,0,0,0,0,0,0,0,0,2,0,1,0,0,0,0,0,0,0,0,0,0,-0.5,-0.5,-0.5,-0.5,-0.5,-0.5,-0.5,-0.5,-0.5,-0.5,-0.5,linear,100,0.025,0,0.5,TRUE,10,poolmodel,0.0223,-0.0018622457020693662,0.007957706521077735,0,10000
10,250,0,0,0,0,0,0,0,0,0,0,2,0,1,0,0,0,0,0,0,0,0,0,0,-0.5,-0.5,-0.5,-0.5,-0.5,-0.5,-0.5,-0.5,-0.5,-0.5,-0.5,linear,100,0.025,0,0.5,TRUE,10,sepmodel,0.0223,-0.0018622457020693662,0.007957706521077735,0,10000
10,250,0,25,50,75,100,125,150,175,200,225,2,0,1,0,0,0,0,0,0,0,0,0,0,-0.5,-0.5,-0.5,-0.5,-0.5,-0.5,-0.5,-0.5,-0.5,-0.5,-0.5,linear,100,0.025,0,0.5,TRUE,2,fixmodel,0.0253,3.900132123048835e-4,0.007844828760023218,0,10000
10,250,0,25,50,75,100,125,150,175,200,225,2,0,1,0,0,0,0,0,0,0,0,0,0,-0.5,-0.5,-0.5,-0.5,-0.5,-0.5,-0.5,-0.5,-0.5,-0.5,-0.5,linear,100,0.025,0,0.5,TRUE,2,poolmodel,0.017,-0.010140429489528244,0.007867758149155784,0,10000
10,250,0,25,50,75,100,125,150,175,200,225,2,0,1,0,0,0,0,0,0,0,0,0,0,-0.5,-0.5,-0.5,-0.5,-0.5,-0.5,-0.5,-0.5,-0.5,-0.5,-0.5,linear,100,0.025,0,0.5,TRUE,2,sepmodel,0.0246,3.416356270744767e-4,0.007979178188179302,0,10000
10,250,0,25,50,75,100,125,150,175,200,225,2,0,1,0,0,0,0,0,0,0,0,0,0,-0.5,-0.5,-0.5,-0.5,-0.5,-0.5,-0.5,-0.5,-0.5,-0.5,-0.5,linear,100,0.025,0,0.5,TRUE,3,fixmodel,0.0227,-3.977205278241694e-5,0.00782550600366815,0,10000
10,250,0,25,50,75,100,125,150,175,200,225,2,0,1,0,0,0,0,0,0,0,0,0,0,-0.5,-0.5,-0.5,-0.5,-0.5,-0.5,-0.5,-0.5,-0.5,-0.5,-0.5,linear,100,0.025,0,0.5,TRUE,3,poolmodel,0.0128,-0.017571886125599206,0.008030154864517912,0,10000
10,250,0,25,50,75,100,125,150,175,200,225,2,0,1,0,0,0,0,0,0,0,0,0,0,-0.5,-0.5,-0.5,-0.5,-0.5,-0.5,-0.5,-0.5,-0.5,-0.5,-0.5,linear,100,0.025,0,0.5,TRUE,3,sepmodel,0.0228,-2.3008875173391655e-4,0.008025602262844921,0,10000
10,250,0,25,50,75,100,125,150,175,200,225,2,0,1,0,0,0,0,0,0,0,0,0,0,-0.5,-0.5,-0.5,-0.5,-0.5,-0.5,-0.5,-0.5,-0.5,-0.5,-0.5,linear,100,0.025,0,0.5,TRUE,4,fixmodel,0.0245,-2.4019205015675027e-4,0.007730245354884878,0,10000
10,250,0,25,50,75,100,125,150,175,200,225,2,0,1,0,0,0,0,0,0,0,0,0,0,-0.5,-0.5,-0.5,-0.5,-0.5,-0.5,-0.5,-0.5,-0.5,-0.5,-0.5,linear,100,0.025,0,0.5,TRUE,4,poolmodel,0.0102,-0.02422650651192509,0.008180685658733285,0,10000
10,250,0,25,50,75,100,125,150,175,200,225,2,0,1,0,0,0,0,0,0,0,0,0,0,-0.5,-0.5,-0.5,-0.5,-0.5,-0.5,-0.5,-0.5,-0.5,-0.5,-0.5,linear,100,0.025,0,0.5,TRUE,4,sepmodel,0.0246,-4.351259692337279e-4,0.008027602349768388,0,10000
10,250,0,25,50,75,100,125,150,175,200,225,2,0,1,0,0,0,0,0,0,0,0,0,0,-0.5,-0.5,-0.5,-0.5,-0.5,-0.5,-0.5,-0.5,-0.5,-0.5,-0.5,linear,100,0.025,0,0.5,TRUE,5,fixmodel,0.0234,0.0014423207840626416,0.007607136294801975,0,10000
10,250,0,25,50,75,100,125,150,175,200,225,2,0,1,0,0,0,0,0,0,0,0,0,0,-0.5,-0.5,-0.5,-0.5,-0.5,-0.5,-0.5,-0.5,-0.5,-0.5,-0.5,linear,100,0.025,0,0.5,TRUE,5,poolmodel,0.0091,-0.027263169206079924,0.008211852901792872,0,10000
10,250,0,25,50,75,100,125,150,175,200,225,2,0,1,0,0,0,0,0,0,0,0,0,0,-0.5,-0.5,-0.5,-0.5,-0.5,-0.5,-0.5,-0.5,-0.5,-0.5,-0.5,linear,100,0.025,0,0.5,TRUE,5,sepmodel,0.0237,0.001181583500633196,0.007930794326189924,0,10000
10,250,0,25,50,75,100,125,150,175,200,225,2,0,1,0,0,0,0,0,0,0,0,0,0,-0.5,-0.5,-0.5,-0.5,-0.5,-0.5,-0.5,-0.5,-0.5,-0.5,-0.5,linear,100,0.025,0,0.5,TRUE,6,fixmodel,0.0241,0.0017862752913685978,0.007637922467782245,0,10000
10,250,0,25,50,75,100,125,150,175,200,225,2,0,1,0,0,0,0,0,0,0,0,0,0,-0.5,-0.5,-0.5,-0.5,-0.5,-0.5,-0.5,-0.5,-0.5,-0.5,-0.5,linear,100,0.025,0,0.5,TRUE,6,poolmodel,0.0094,-0.030741102839562415,0.0084318400014729,0,10000
10,250,0,25,50,75,100,125,150,175,200,225,2,0,1,0,0,0,0,0,0,0,0,0,0,-0.5,-0.5,-0.5,-0.5,-0.5,-0.5,-0.5,-0.5,-0.5,-0.5,-0.5,linear,100,0.025,0,0.5,TRUE,6,sepmodel,0.0232,0.0016554541875010694,0.007947965447188243,0,10000
10,250,0,25,50,75,100,125,150,175,200,225,2,0,1,0,0,0,0,0,0,0,0,0,0,-0.5,-0.5,-0.5,-0.5,-0.5,-0.5,-0.5,-0.5,-0.5,-0.5,-0.5,linear,100,0.025,0,0.5,TRUE,7,fixmodel,0.0252,6.292266707500383e-4,0.007690530124383298,0,10000
10,250,0,25,50,75,100,125,150,175,200,225,2,0,1,0,0,0,0,0,0,0,0,0,0,-0.5,-0.5,-0.5,-0.5,-0.5,-0.5,-0.5,-0.5,-0.5,-0.5,-0.5,linear,100,0.025,0,0.5,TRUE,7,poolmodel,0.0089,-0.035759403719429934,0.008814219333566175,0,10000
10,250,0,25,50,75,100,125,150,175,200,225,2,0,1,0,0,0,0,0,0,0,0,0,0,-0.5,-0.5,-0.5,-0.5,-0.5,-0.5,-0.5,-0.5,-0.5,-0.5,-0.5,linear,100,0.025,0,0.5,TRUE,7,sepmodel,0.0254,5.541282239587078e-4,0.008083235011188319,0,10000
10,250,0,25,50,75,100,125,150,175,200,225,2,0,1,0,0,0,0,0,0,0,0,0,0,-0.5,-0.5,-0.5,-0.5,-0.5,-0.5,-0.5,-0.5,-0.5,-0.5,-0.5,linear,100,0.025,0,0.5,TRUE,8,fixmodel,0.0273,0.001449903641018882,0.007551204453474329,0,10000
10,250,0,25,50,75,100,125,150,175,200,225,2,0,1,0,0,0,0,0,0,0,0,0,0,-0.5,-0.5,-0.5,-0.5,-0.5,-0.5,-0.5,-0.5,-0.5,-0.5,-0.5,linear,100,0.025,0,0.5,TRUE,8,poolmodel,0.0087,-0.03787372230633766,0.008833603845589412,0,10000
10,250,0,25,50,75,100,125,150,175,200,225,2,0,1,0,0,0,0,0,0,0,0,0,0,-0.5,-0.5,-0.5,-0.5,-0.5,-0.5,-0.5,-0.5,-0.5,-0.5,-0.5,linear,100,0.025,0,0.5,TRUE,8,sepmodel,0.0265,0.0014042470498713269,0.008014801388376028,0,10000
10,250,0,25,50,75,100,125,150,175,200,225,2,0,1,0,0,0,0,0,0,0,0,0,0,-0.5,-0.5,-0.5,-0.5,-0.5,-0.5,-0.5,-0.5,-0.5,-0.5,-0.5,linear,100,0.025,0,0.5,TRUE,9,fixmodel,0.0245,1.3727878578358721e-4,0.007523155062633718,0,10000
10,250,0,25,50,75,100,125,150,175,200,225,2,0,1,0,0,0,0,0,0,0,0,0,0,-0.5,-0.5,-0.5,-0.5,-0.5,-0.5,-0.5,-0.5,-0.5,-0.5,-0.5,linear,100,0.025,0,0.5,TRUE,9,poolmodel,0.0065,-0.042102526737820486,0.00911525553963754,0,10000
10,250,0,25,50,75,100,125,150,175,200,225,2,0,1,0,0,0,0,0,0,0,0,0,0,-0.5,-0.5,-0.5,-0.5,-0.5,-0.5,-0.5,-0.5,-0.5,-0.5,-0.5,linear,100,0.025,0,0.5,TRUE,9,sepmodel,0.0243,5.584942911610039e-5,0.007940659237281582,0,10000
10,250,0,25,50,75,100,125,150,175,200,225,2,0,1,0,0,0,0,0,0,0,0,0,0,-0.5,-0.5,-0.5,-0.5,-0.5,-0.5,-0.5,-0.5,-0.5,-0.5,-0.5,linear,100,0.025,0,0.5,TRUE,10,fixmodel,0.0253,6.89576540080119e-5,0.007649524663289496,0,10000
10,250,0,25,50,75,100,125,150,175,200,225,2,0,1,0,0,0,0,0,0,0,0,0,0,-0.5,-0.5,-0.5,-0.5,-0.5,-0.5,-0.5,-0.5,-0.5,-0.5,-0.5,linear,100,0.025,0,0.5,TRUE,10,poolmodel,0.0072,-0.044141617913403194,0.009412847544813292,0,10000
10,250,0,25,50,75,100,125,150,175,200,225,2,0,1,0,0,0,0,0,0,0,0,0,0,-0.5,-0.5,-0.5,-0.5,-0.5,-0.5,-0.5,-0.5,-0.5,-0.5,-0.5,linear,100,0.025,0,0.5,TRUE,10,sepmodel,0.0268,1.0695913728224944e-5,0.008083830479880804,0,10000
10,250,0,50,100,150,200,250,300,350,400,450,2,0,1,0,0,0,0,0,0,0,0,0,0,-0.5,-0.5,-0.5,-0.5,-0.5,-0.5,-0.5,-0.5,-0.5,-0.5,-0.5,linear,100,0.025,0,0.5,TRUE,2,fixmodel,0.0248,-8.681466576484464e-4,0.007695032720515756,0,10000
10,250,0,50,100,150,200,250,300,350,400,450,2,0,1,0,0,0,0,0,0,0,0,0,0,-0.5,-0.5,-0.5,-0.5,-0.5,-0.5,-0.5,-0.5,-0.5,-0.5,-0.5,linear,100,0.025,0,0.5,TRUE,2,poolmodel,0.0152,-0.017635478406496548,0.007808082396991188,0,10000
10,250,0,50,100,150,200,250,300,350,400,450,2,0,1,0,0,0,0,0,0,0,0,0,0,-0.5,-0.5,-0.5,-0.5,-0.5,-0.5,-0.5,-0.5,-0.5,-0.5,-0.5,linear,100,0.025,0,0.5,TRUE,2,sepmodel,0.0234,-7.488986667374069e-4,0.007835797002636705,0,10000
10,250,0,50,100,150,200,250,300,350,400,450,2,0,1,0,0,0,0,0,0,0,0,0,0,-0.5,-0.5,-0.5,-0.5,-0.5,-0.5,-0.5,-0.5,-0.5,-0.5,-0.5,linear,100,0.025,0,0.5,TRUE,3,fixmodel,0.0254,-9.812193405835628e-4,0.007599123124948295,0,10000
10,250,0,50,100,150,200,250,300,350,400,450,2,0,1,0,0,0,0,0,0,0,0,0,0,-0.5,-0.5,-0.5,-0.5,-0.5,-0.5,-0.5,-0.5,-0.5,-0.5,-0.5,linear,100,0.025,0,0.5,TRUE,3,poolmodel,0.01,-0.031123988936647883,0.008315664431318037,0,10000
10,250,0,50,100,150,200,250,300,350,400,450,2,0,1,0,0,0,0,0,0,0,0,0,0,-0.5,-0.5,-0.5,-0.5,-0.5,-0.5,-0.5,-0.5,-0.5,-0.5,-0.5,linear,100,0.025,0,0.5,TRUE,3,sepmodel,0.0228,-7.792499722586931e-4,0.007936639754149707,0,10000
10,250,0,50,100,150,200,250,300,350,400,450,2,0,1,0,0,0,0,0,0,0,0,0,0,-0.5,-0.5,-0.5,-0.5,-0.5,-0.5,-0.5,-0.5,-0.5,-0.5,-0.5,linear,100,0.025,0,0.5,TRUE,4,fixmodel,0.0237,-3.780430726167333e-4,0.007479529913692771,0,10000
10,250,0,50,100,150,200,250,300,350,400,450,2,0,1,0,0,0,0,0,0,0,0,0,0,-0.5,-0.5,-0.5,-0.5,-0.5,-0.5,-0.5,-0.5,-0.5,-0.5,-0.5,linear,100,0.025,0,0.5,TRUE,4,poolmodel,0.0069,-0.04146731122908601,0.008920900161815395,0,10000
10,250,0,50,100,150,200,250,300,350,400,450,2,0,1,0,0,0,0,0,0,0,0,0,0,-0.5,-0.5,-0.5,-0.5,-0.5,-0.5,-0.5,-0.5,-0.5,-0.5,-0.5,linear,100,0.025,0,0.5,TRUE,4,sepmodel,0.0227,8.900551170000175e-5,0.007894104241861408,0,10000
10,250,0,50,100,150,200,250,300,350,400,450,2,0,1,0,0,0,0,0,0,0,0,0,0,-0.5,-0.5,-0.5,-0.5,-0.5,-0.5,-0.5,-0.5,-0.5,-0.5,-0.5,linear,100,0.025,0,0.5,TRUE,5,fixmodel,0.0255,-3.9192858741614366e-4,0.0075860788159538,0,10000
10,250,0,50,100,150,200,250,300,350,400,450,2,0,1,0,0,0,0,0,0,0,0,0,0,-0.5,-0.5,-0.5,-0.5,-0.5,-0.5,-0.5,-0.5,-0.5,-0.5,-0.5,linear,100,0.025,0,0.5,TRUE,5,poolmodel,0.0056,-0.050420761409225634,0.009817748564022151,0,10000
10,250,0,50,100,150,200,250,300,350,400,450,2,0,1,0,0,0,0,0,0,0,0,0,0,-0.5,-0.5,-0.5,-0.5,-0.5,-0.5,-0.5,-0.5,-0.5,-0.5,-0.5,linear,100,0.025,0,0.5,TRUE,5,sepmodel,0.0246,2.317069183998493e-4,0.008099550899627633,0,10000
10,250,0,50,100,150,200,250,300,350,400,450,2,0,1,0,0,0,0,0,0,0,0,0,0,-0.5,-0.5,-0.5,-0.5,-0.5,-0.5,-0.5,-0.5,-0.5,-0.5,-0.5,linear,100,0.025,0,0.5,TRUE,6,fixmodel,0.0285,-6.708688019532643e-4,0.007592895981069612,0,10000
10,250,0,50,100,150,200,250,300,350,400,450,2,0,1,0,0,0,0,0,0,0,0,0,0,-0.5,-0.5,-0.5,-0.5,-0.5,-0.5,-0.5,-0.5,-0.5,-0.5,-0.5,linear,100,0.025,0,0.5,TRUE,6,poolmodel,0.0043,-0.05801754570541447,0.010670603259599391,0,10000
10,250,0,50,100,150,200,250,300,350,400,450,2,0,1,0,0,0,0,0,0,0,0,0,0,-0.5,-0.5,-0.5,-0.5,-0.5,-0.5,-0.5,-0.5,-0.5,-0.5,-0.5,linear,100,0.025,0,0.5,TRUE,6,sepmodel,0.0265,-7.430777846278671e-5,0.008065859976466904,0,10000
10,250,0,50,100,150,200,250,300,350,400,450,2,0,1,0,0,0,0,0,0,0,0,0,0,-0.5,-0.5,-0.5,-0.5,-0.5,-0.5,-0.5,-0.5,-0.5,-0.5,-0.5,linear,100,0.025,0,0.5,TRUE,7,fixmodel,0.0277,-9.942377333311301e-5,0.00737166675025609,0,10000
10,250,0,50,100,150,200,250,300,350,400,450,2,0,1,0,0,0,0,0,0,0,0,0,0,-0.5,-0.5,-0.5,-0.5,-0.5,-0.5,-0.5,-0.5,-0.5,-0.5,-0.5,linear,100,0.025,0,0.5,TRUE,7,poolmodel,0.0035,-0.06392162261504371,0.011125040551329953,0,10000
10,250,0,50,100,150,200,250,300,350,400,450,2,0,1,0,0,0,0,0,0,0,0,0,0,-0.5,-0.5,-0.5,-0.5,-0.5,-0.5,-0.5,-0.5,-0.5,-0.5,-0.5,linear,100,0.025,0,0.5,TRUE,7,sepmodel,0.0262,6.138715620313543e-4,0.007973707259350834,0,10000
10,250,0,50,100,150,200,250,300,350,400,450,2,0,1,0,0,0,0,0,0,0,0,0,0,-0.5,-0.5,-0.5,-0.5,-0.5,-0.5,-0.5,-0.5,-0.5,-0.5,-0.5,linear,100,0.025,0,0.5,TRUE,8,fixmodel,0.0224,-2.0546388597111849e-4,0.007089586512322187,0,10000
10,250,0,50,100,150,200,250,300,350,400,450,2,0,1,0,0,0,0,0,0,0,0,0,0,-0.5,-0.5,-0.5,-0.5,-0.5,-0.5,-0.5,-0.5,-0.5,-0.5,-0.5,linear,100,0.025,0,0.5,TRUE,8,poolmodel,0.0021,-0.07056053895929289,0.011762721318855793,0,10000
10,250,0,50,100,150,200,250,300,350,400,450,2,0,1,0,0,0,0,0,0,0,0,0,0,-0.5,-0.5,-0.5,-0.5,-0.5,-0.5,-0.5,-0.5,-0.5,-0.5,-0.5,linear,100,0.025,0,0.5,TRUE,8,sepmodel,0.0217,5.226103000759163e-4,0.0077220363390701156,0,10000
10,250,0,50,100,150,200,250,300,350,400,450,2,0,1,0,0,0,0,0,0,0,0,0,0,-0.5,-0.5,-0.5,-0.5,-0.5,-0.5,-0.5,-0.5,-0.5,-0.5,-0.5,linear,100,0.025,0,0.5,TRUE,9,fixmodel,0.025,-0.0016190486162594505,0.007300031438593769,0,10000
10,250,0,50,100,150,200,250,300,350,400,450,2,0,1,0,0,0,0,0,0,0,0,0,0,-0.5,-0.5,-0.5,-0.5,-0.5,-0.5,-0.5,-0.5,-0.5,-0.5,-0.5,linear,100,0.025,0,0.5,TRUE,9,poolmodel,0.0023,-0.07660144949759955,0.012885827515111564,0,10000
10,250,0,50,100,150,200,250,300,350,400,450,2,0,1,0,0,0,0,0,0,0,0,0,0,-0.5,-0.5,-0.5,-0.5,-0.5,-0.5,-0.5,-0.5,-0.5,-0.5,-0.5,linear,100,0.025,0,0.5,TRUE,9,sepmodel,0.0259,-9.451989501818685e-4,0.00804337651692882,0,10000
10,250,0,50,100,150,200,250,300,350,400,450,2,0,1,0,0,0,0,0,0,0,0,0,0,-0.5,-0.5,-0.5,-0.5,-0.5,-0.5,-0.5,-0.5,-0.5,-0.5,-0.5,linear,100,0.025,0,0.5,TRUE,10,fixmodel,0.0239,-6.545135242138481e-4,0.0071586108694410506,0,10000
10,250,0,50,100,150,200,250,300,350,400,450,2,0,1,0,0,0,0,0,0,0,0,0,0,-0.5,-0.5,-0.5,-0.5,-0.5,-0.5,-0.5,-0.5,-0.5,-0.5,-0.5,linear,100,0.025,0,0.5,TRUE,10,poolmodel,0.0019,-0.08028370439690635,0.013349448441752313,0,10000
10,250,0,50,100,150,200,250,300,350,400,450,2,0,1,0,0,0,0,0,0,0,0,0,0,-0.5,-0.5,-0.5,-0.5,-0.5,-0.5,-0.5,-0.5,-0.5,-0.5,-0.5,linear,100,0.025,0,0.5,TRUE,10,sepmodel,0.0248,-1.1979071909409215e-4,0.007963950586149746,0,10000
10,250,0,75,150,225,300,375,450,525,600,675,2,0,1,0,0,0,0,0,0,0,0,0,0,-0.5,-0.5,-0.5,-0.5,-0.5,-0.5,-0.5,-0.5,-0.5,-0.5,-0.5,linear,100,0.025,0,0.5,TRUE,2,fixmodel,0.0236,-7.111181093110779e-4,0.007621960910769769,0,10000
10,250,0,75,150,225,300,375,450,525,600,675,2,0,1,0,0,0,0,0,0,0,0,0,0,-0.5,-0.5,-0.5,-0.5,-0.5,-0.5,-0.5,-0.5,-0.5,-0.5,-0.5,linear,100,0.025,0,0.5,TRUE,2,poolmodel,0.0107,-0.0218121347933754,0.007810479590233523,0,10000
10,250,0,75,150,225,300,375,450,525,600,675,2,0,1,0,0,0,0,0,0,0,0,0,0,-0.5,-0.5,-0.5,-0.5,-0.5,-0.5,-0.5,-0.5,-0.5,-0.5,-0.5,linear,100,0.025,0,0.5,TRUE,2,sepmodel,0.0217,-8.060034496872021e-4,0.007897067056504243,0,10000
10,250,0,75,150,225,300,375,450,525,600,675,2,0,1,0,0,0,0,0,0,0,0,0,0,-0.5,-0.5,-0.5,-0.5,-0.5,-0.5,-0.5,-0.5,-0.5,-0.5,-0.5,linear,100,0.025,0,0.5,TRUE,3,fixmodel,0.0259,9.415258536614656e-4,0.007527079742946072,0,10000
10,250,0,75,150,225,300,375,450,525,600,675,2,0,1,0,0,0,0,0,0,0,0,0,0,-0.5,-0.5,-0.5,-0.5,-0.5,-0.5,-0.5,-0.5,-0.5,-0.5,-0.5,linear,100,0.025,0,0.5,TRUE,3,poolmodel,0.0063,-0.03802978706896669,0.008627471573739526,0,10000
10,250,0,75,150,225,300,375,450,525,600,675,2,0,1,0,0,0,0,0,0,0,0,0,0,-0.5,-0.5,-0.5,-0.5,-0.5,-0.5,-0.5,-0.5,-0.5,-0.5,-0.5,linear,100,0.025,0,0.5,TRUE,3,sepmodel,0.0233,7.788233442153193e-4,0.00793363785519347,0,10000
10,250,0,75,150,225,300,375,450,525,600,675,2,0,1,0,0,0,0,0,0,0,0,0,0,-0.5,-0.5,-0.5,-0.5,-0.5,-0.5,-0.5,-0.5,-0.5,-0.5,-0.5,linear,100,0.025,0,0.5,TRUE,4,fixmodel,0.0251,2.3422380679106788e-4,0.007371339928692128,0,10000
10,250,0,75,150,225,300,375,450,525,600,675,2,0,1,0,0,0,0,0,0,0,0,0,0,-0.5,-0.5,-0.5,-0.5,-0.5,-0.5,-0.5,-0.5,-0.5,-0.5,-0.5,linear,100,0.025,0,0.5,TRUE,4,poolmodel,0.0036,-0.053968824985961616,0.009920024631896077,0,10000
10,250,0,75,150,225,300,375,450,525,600,675,2,0,1,0,0,0,0,0,0,0,0,0,0,-0.5,-0.5,-0.5,-0.5,-0.5,-0.5,-0.5,-0.5,-0.5,-0.5,-0.5,linear,100,0.025,0,0.5,TRUE,4,sepmodel,0.0249,3.66387665569611e-4,0.007954351316990313,0,10000
10,250,0,75,150,225,300,375,450,525,600,675,2,0,1,0,0,0,0,0,0,0,0,0,0,-0.5,-0.5,-0.5,-0.5,-0.5,-0.5,-0.5,-0.5,-0.5,-0.5,-0.5,linear,100,0.025,0,0.5,TRUE,5,fixmodel,0.0266,2.334546769404835e-4,0.00736052527370975,0,10000
10,250,0,75,150,225,300,375,450,525,600,675,2,0,1,0,0,0,0,0,0,0,0,0,0,-0.5,-0.5,-0.5,-0.5,-0.5,-0.5,-0.5,-0.5,-0.5,-0.5,-0.5,linear,100,0.025,0,0.5,TRUE,5,poolmodel,0.0021,-0.066746538779669,0.011438196157170517,0,10000
10,250,0,75,150,225,300,375,450,525,600,675,2,0,1,0,0,0,0,0,0,0,0,0,0,-0.5,-0.5,-0.5,-0.5,-0.5,-0.5,-0.5,-0.5,-0.5,-0.5,-0.5,linear,100,0.025,0,0.5,TRUE,5,sepmodel,0.025,5.067783624400989e-4,0.008181171333652386,0,10000
10,250,0,75,150,225,300,375,450,525,600,675,2,0,1,0,0,0,0,0,0,0,0,0,0,-0.5,-0.5,-0.5,-0.5,-0.5,-0.5,-0.5,-0.5,-0.5,-0.5,-0.5,linear,100,0.025,0,0.5,TRUE,6,fixmodel,0.0231,6.77290643679093e-5,0.007248580329475582,0,10000
10,250,0,75,150,225,300,375,450,525,600,675,2,0,1,0,0,0,0,0,0,0,0,0,0,-0.5,-0.5,-0.5,-0.5,-0.5,-0.5,-0.5,-0.5,-0.5,-0.5,-0.5,linear,100,0.025,0,0.5,TRUE,6,poolmodel,0.0015,-0.07831046636069619,0.012974618055885484,0,10000
10,250,0,75,150,225,300,375,450,525,600,675,2,0,1,0,0,0,0,0,0,0,0,0,0,-0.5,-0.5,-0.5,-0.5,-0.5,-0.5,-0.5,-0.5,-0.5,-0.5,-0.5,linear,100,0.025,0,0.5,TRUE,6,sepmodel,0.0244,3.513367068991143e-4,0.007977810034762474,0,10000
10,250,0,75,150,225,300,375,450,525,600,675,2,0,1,0,0,0,0,0,0,0,0,0,0,-0.5,-0.5,-0.5,-0.5,-0.5,-0.5,-0.5,-0.5,-0.5,-0.5,-0.5,linear,100,0.025,0,0.5,TRUE,7,fixmodel,0.0235,1.0073410413231486e-4,0.007195839136375737,0,10000
10,250,0,75,150,225,300,375,450,525,600,675,2,0,1,0,0,0,0,0,0,0,0,0,0,-0.5,-0.5,-0.5,-0.5,-0.5,-0.5,-0.5,-0.5,-0.5,-0.5,-0.5,linear,100,0.025,0,0.5,TRUE,7,poolmodel,0.0011,-0.08717327172563082,0.014350632542999939,0,10000
10,250,0,75,150,225,300,375,450,525,600,675,2,0,1,0,0,0,0,0,0,0,0,0,0,-0.5,-0.5,-0.5,-0.5,-0.5,-0.5,-0.5,-0.5,-0.5,-0.5,-0.5,linear,100,0.025,0,0.5,TRUE,7,sepmodel,0.0236,2.4457158464835497e-4,0.008077298464306156,0,10000
10,250,0,75,150,225,300,375,450,525,600,675,2,0,1,0,0,0,0,0,0,0,0,0,0,-0.5,-0.5,-0.5,-0.5,-0.5,-0.5,-0.5,-0.5,-0.5,-0.5,-0.5,linear,100,0.025,0,0.5,TRUE,8,fixmodel,0.0228,-6.104314513295209e-4,0.006889511383071704,0,10000
10,250,0,75,150,225,300,375,450,525,600,675,2,0,1,0,0,0,0,0,0,0,0,0,0,-0.5,-0.5,-0.5,-0.5,-0.5,-0.5,-0.5,-0.5,-0.5,-0.5,-0.5,linear,100,0.025,0,0.5,TRUE,8,poolmodel,9e-4,-0.09669880897933372,0.01587490902793736,0,10000
10,250,0,75,150,225,300,375,450,525,600,675,2,0,1,0,0,0,0,0,0,0,0,0,0,-0.5,-0.5,-0.5,-0.5,-0.5,-0.5,-0.5,-0.5,-0.5,-0.5,-0.5,linear,100,0.025,0,0.5,TRUE,8,sepmodel,0.024,-5.459563294429891e-4,0.007819588255587984,0,10000
10,250,0,75,150,225,300,375,450,525,600,675,2,0,1,0,0,0,0,0,0,0,0,0,0,-0.5,-0.5,-0.5,-0.5,-0.5,-0.5,-0.5,-0.5,-0.5,-0.5,-0.5,linear,100,0.025,0,0.5,TRUE,9,fixmodel,0.0253,-1.7186624045763434e-4,0.00708864509604877,0,10000
10,250,0,75,150,225,300,375,450,525,600,675,2,0,1,0,0,0,0,0,0,0,0,0,0,-0.5,-0.5,-0.5,-0.5,-0.5,-0.5,-0.5,-0.5,-0.5,-0.5,-0.5,linear,100,0.025,0,0.5,TRUE,9,poolmodel,8e-4,-0.10322648333193592,0.01735091422344924,0,10000
10,250,0,75,150,225,300,375,450,525,600,675,2,0,1,0,0,0,0,0,0,0,0,0,0,-0.5,-0.5,-0.5,-0.5,-0.5,-0.5,-0.5,-0.5,-0.5,-0.5,-0.5,linear,100,0.025,0,0.5,TRUE,9,sepmodel,0.0254,-7.592980973424894e-5,0.008081022319676136,0,10000
10,250,0,75,150,225,300,375,450,525,600,675,2,0,1,0,0,0,0,0,0,0,0,0,0,-0.5,-0.5,-0.5,-0.5,-0.5,-0.5,-0.5,-0.5,-0.5,-0.5,-0.5,linear,100,0.025,0,0.5,TRUE,10,fixmodel,0.0256,-0.0014141482278990033,0.00710199868291791,0,10000
10,250,0,75,150,225,300,375,450,525,600,675,2,0,1,0,0,0,0,0,0,0,0,0,0,-0.5,-0.5,-0.5,-0.5,-0.5,-0.5,-0.5,-0.5,-0.5,-0.5,-0.5,linear,100,0.025,0,0.5,TRUE,10,poolmodel,4e-4,-0.11126492051892514,0.019084885911012303,0,10000
10,250,0,75,150,225,300,375,450,525,600,675,2,0,1,0,0,0,0,0,0,0,0,0,0,-0.5,-0.5,-0.5,-0.5,-0.5,-0.5,-0.5,-0.5,-0.5,-0.5,-0.5,linear,100,0.025,0,0.5,TRUE,10,sepmodel,0.0232,-0.0012180287941699719,0.008137732871650332,0,10000
10,250,0,100,200,300,400,500,600,700,800,900,2,0,1,0,0,0,0,0,0,0,0,0,0,-0.5,-0.5,-0.5,-0.5,-0.5,-0.5,-0.5,-0.5,-0.5,-0.5,-0.5,linear,100,0.025,0,0.5,TRUE,2,fixmodel,0.0225,5.005057263906006e-4,0.007663767118336007,0,10000
10,250,0,100,200,300,400,500,600,700,800,900,2,0,1,0,0,0,0,0,0,0,0,0,0,-0.5,-0.5,-0.5,-0.5,-0.5,-0.5,-0.5,-0.5,-0.5,-0.5,-0.5,linear,100,0.025,0,0.5,TRUE,2,poolmodel,0.012,-0.022207251500770697,0.0078338571714431891,0,10000
10,250,0,100,200,300,400,500,600,700,800,900,2,0,1,0,0,0,0,0,0,0,0,0,0,-0.5,-0.5,-0.5,-0.5,-0.5,-0.5,-0.5,-0.5,-0.5,-0.5,-0.5,linear,100,0.025,0,0.5,TRUE,2,sepmodel,0.0229,4.6491692685128014e-4,0.007992413383427478,0,10000
10,250,0,100,200,300,400,500,600,700,800,900,2,0,1,0,0,0,0,0,0,0,0,0,0,-0.5,-0.5,-0.5,-0.5,-0.5,-0.5,-0.5,-0.5,-0.5,-0.5,-0.5,linear,100,0.025,0,0.5,TRUE,3,fixmodel,0.024,-6.039425520440057e-4,0.007354451605427656,0,10000
10,250,0,100,200,300,400,500,600,700,800,900,2,0,1,0,0,0,0,0,0,0,0,0,0,-0.5,-0.5,-0.5,-0.5,-0.5,-0.5,-0.5,-0.5,-0.5,-0.5,-0.5,linear,100,0.025,0,0.5,TRUE,3,poolmodel,0.0053,-0.0449683622534639,0.008909756906320038,0,10000
10,250,0,100,200,300,400,500,600,700,800,900,2,0,1,0,0,0,0,0,0,0,0,0,0,-0.5,-0.5,-0.5,-0.5,-0.5,-0.5,-0.5,-0.5,-0.5,-0.5,-0.5,linear,100,0.025,0,0.5,TRUE,3,sepmodel,0.0241,-5.448160766195604e-4,0.007946521255148335,0,10000
10,250,0,100,200,300,400,500,600,700,800,900,2,0,1,0,0,0,0,0,0,0,0,0,0,-0.5,-0.5,-0.5,-0.5,-0.5,-0.5,-0.5,-0.5,-0.5,-0.5,-0.5,linear,100,0.025,0,0.5,TRUE,4,fixmodel,0.0236,-0.0012988111515226265,0.007171097854382433,0,10000
10,250,0,100,200,300,400,500,600,700,800,900,2,0,1,0,0,0,0,0,0,0,0,0,0,-0.5,-0.5,-0.5,-0.5,-0.5,-0.5,-0.5,-0.5,-0.5,-0.5,-0.5,linear,100,0.025,0,0.5,TRUE,4,poolmodel,0.0029,-0.06411763876066529,0.010816588484590987,0,10000
10,250,0,100,200,300,400,500,600,700,800,900,2,0,1,0,0,0,0,0,0,0,0,0,0,-0.5,-0.5,-0.5,-0.5,-0.5,-0.5,-0.5,-0.5,-0.5,-0.5,-0.5,linear,100,0.025,0,0.5,TRUE,4,sepmodel,0.0223,-0.0016153651766951053,0.007874123323002424,0,10000
10,250,0,100,200,300,400,500,600,700,800,900,2,0,1,0,0,0,0,0,0,0,0,0,0,-0.5,-0.5,-0.5,-0.5,-0.5,-0.5,-0.5,-0.5,-0.5,-0.5,-0.5,linear,100,0.025,0,0.5,TRUE,5,fixmodel,0.024,-0.0015633498478151125,0.00713038527961668,0,10000
10,250,0,100,200,300,400,500,600,700,800,900,2,0,1,0,0,0,0,0,0,0,0,0,0,-0.5,-0.5,-0.5,-0.5,-0.5,-0.5,-0.5,-0.5,-0.5,-0.5,-0.5,linear,100,0.025,0,0.5,TRUE,5,poolmodel,0.0013,-0.08042319869006954,0.013164405312976536,0,10000
10,250,0,100,200,300,400,500,600,700,800,900,2,0,1,0,0,0,0,0,0,0,0,0,0,-0.5,-0.5,-0.5,-0.5,-0.5,-0.5,-0.5,-0.5,-0.5,-0.5,-0.5,linear,100,0.025,0,0.5,TRUE,5,sepmodel,0.0223,-0.001972883105966109,0.008006822315701524,0,10000
10,250,0,100,200,300,400,500,600,700,800,900,2,0,1,0,0,0,0,0,0,0,0,0,0,-0.5,-0.5,-0.5,-0.5,-0.5,-0.5,-0.5,-0.5,-0.5,-0.5,-0.5,linear,100,0.025,0,0.5,TRUE,6,fixmodel,0.022,-4.210373649659148e-4,0.006903903283530023,0,10000
10,250,0,100,200,300,400,500,600,700,800,900,2,0,1,0,0,0,0,0,0,0,0,0,0,-0.5,-0.5,-0.5,-0.5,-0.5,-0.5,-0.5,-0.5,-0.5,-0.5,-0.5,linear,100,0.025,0,0.5,TRUE,6,poolmodel,0.001,-0.09350141253761368,0.015171771695976067,0,10000
10,250,0,100,200,300,400,500,600,700,800,900,2,0,1,0,0,0,0,0,0,0,0,0,0,-0.5,-0.5,-0.5,-0.5,-0.5,-0.5,-0.5,-0.5,-0.5,-0.5,-0.5,linear,100,0.025,0,0.5,TRUE,6,sepmodel,0.0225,-8.692454291329538e-4,0.007892515175965455,0,10000
10,250,0,100,200,300,400,500,600,700,800,900,2,0,1,0,0,0,0,0,0,0,0,0,0,-0.5,-0.5,-0.5,-0.5,-0.5,-0.5,-0.5,-0.5,-0.5,-0.5,-0.5,linear,100,0.025,0,0.5,TRUE,7,fixmodel,0.0229,-5.256319440488964e-4,0.0067938489481553415,0,10000
10,250,0,100,200,300,400,500,600,700,800,900,2,0,1,0,0,0,0,0,0,0,0,0,0,-0.5,-0.5,-0.5,-0.5,-0.5,-0.5,-0.5,-0.5,-0.5,-0.5,-0.5,linear,100,0.025,0,0.5,TRUE,7,poolmodel,6e-4,-0.10527929592547636,0.01736350217329788,0,10000
10,250,0,100,200,300,400,500,600,700,800,900,2,0,1,0,0,0,0,0,0,0,0,0,0,-0.5,-0.5,-0.5,-0.5,-0.5,-0.5,-0.5,-0.5,-0.5,-0.5,-0.5,linear,100,0.025,0,0.5,TRUE,7,sepmodel,0.022,-9.313334975638019e-4,0.007840425877505308,0,10000
10,250,0,100,200,300,400,500,600,700,800,900,2,0,1,0,0,0,0,0,0,0,0,0,0,-0.5,-0.5,-0.5,-0.5,-0.5,-0.5,-0.5,-0.5,-0.5,-0.5,-0.5,linear,100,0.025,0,0.5,TRUE,8,fixmodel,0.0211,-0.0013140737579772832,0.00671886808259374,0,10000
10,250,0,100,200,300,400,500,600,700,800,900,2,0,1,0,0,0,0,0,0,0,0,0,0,-0.5,-0.5,-0.5,-0.5,-0.5,-0.5,-0.5,-0.5,-0.5,-0.5,-0.5,linear,100,0.025,0,0.5,TRUE,8,poolmodel,2e-4,-0.11696133867474864,0.019883801234898624,0,10000
10,250,0,100,200,300,400,500,600,700,800,900,2,0,1,0,0,0,0,0,0,0,0,0,0,-0.5,-0.5,-0.5,-0.5,-0.5,-0.5,-0.5,-0.5,-0.5,-0.5,-0.5,linear,100,0.025,0,0.5,TRUE,8,sepmodel,0.0215,-0.0016063142924413317,0.0077941542797342386,0,10000
10,250,0,100,200,300,400,500,600,700,800,900,2,0,1,0,0,0,0,0,0,0,0,0,0,-0.5,-0.5,-0.5,-0.5,-0.5,-0.5,-0.5,-0.5,-0.5,-0.5,-0.5,linear,100,0.025,0,0.5,TRUE,9,fixmodel,0.0232,-3.2661886186153774e-4,0.006728850929971059,0,10000
10,250,0,100,200,300,400,500,600,700,800,900,2,0,1,0,0,0,0,0,0,0,0,0,0,-0.5,-0.5,-0.5,-0.5,-0.5,-0.5,-0.5,-0.5,-0.5,-0.5,-0.5,linear,100,0.025,0,0.5,TRUE,9,poolmodel,2e-4,-0.12490945492815235,0.021791329173273664,0,10000
10,250,0,100,200,300,400,500,600,700,800,900,2,0,1,0,0,0,0,0,0,0,0,0,0,-0.5,-0.5,-0.5,-0.5,-0.5,-0.5,-0.5,-0.5,-0.5,-0.5,-0.5,linear,100,0.025,0,0.5,TRUE,9,sepmodel,0.0214,-6.873947996034413e-4,0.007869071563436863,0,10000
10,250,0,100,200,300,400,500,600,700,800,900,2,0,1,0,0,0,0,0,0,0,0,0,0,-0.5,-0.5,-0.5,-0.5,-0.5,-0.5,-0.5,-0.5,-0.5,-0.5,-0.5,linear,100,0.025,0,0.5,TRUE,10,fixmodel,0.0244,-4.550055800943071e-4,0.0067723932565498385,0,10000
10,250,0,100,200,300,400,500,600,700,800,900,2,0,1,0,0,0,0,0,0,0,0,0,0,-0.5,-0.5,-0.5,-0.5,-0.5,-0.5,-0.5,-0.5,-0.5,-0.5,-0.5,linear,100,0.025,0,0.5,TRUE,10,poolmodel,1e-4,-0.13292695467040586,0.023864627475374822,0,10000
10,250,0,100,200,300,400,500,600,700,800,900,2,0,1,0,0,0,0,0,0,0,0,0,0,-0.5,-0.5,-0.5,-0.5,-0.5,-0.5,-0.5,-0.5,-0.5,-0.5,-0.5,linear,100,0.025,0,0.5,TRUE,10,sepmodel,0.0221,-7.957217293784663e-4,0.00788583708834074,0,10000
10,250,0,125,250,375,500,625,750,875,1000,1125,2,0,1,0,0,0,0,0,0,0,0,0,0,-0.5,-0.5,-0.5,-0.5,-0.5,-0.5,-0.5,-0.5,-0.5,-0.5,-0.5,linear,100,0.025,0,0.5,TRUE,2,fixmodel,0.0245,-8.819324125167872e-4,0.007468639411191234,0,10000
10,250,0,125,250,375,500,625,750,875,1000,1125,2,0,1,0,0,0,0,0,0,0,0,0,0,-0.5,-0.5,-0.5,-0.5,-0.5,-0.5,-0.5,-0.5,-0.5,-0.5,-0.5,linear,100,0.025,0,0.5,TRUE,2,poolmodel,0.0134,-0.02506233776044771,0.007780962595680267,0,10000
10,250,0,125,250,375,500,625,750,875,1000,1125,2,0,1,0,0,0,0,0,0,0,0,0,0,-0.5,-0.5,-0.5,-0.5,-0.5,-0.5,-0.5,-0.5,-0.5,-0.5,-0.5,linear,100,0.025,0,0.5,TRUE,2,sepmodel,0.023,-9.118424479776803e-4,0.007782164278290483,0,10000
10,250,0,125,250,375,500,625,750,875,1000,1125,2,0,1,0,0,0,0,0,0,0,0,0,0,-0.5,-0.5,-0.5,-0.5,-0.5,-0.5,-0.5,-0.5,-0.5,-0.5,-0.5,linear,100,0.025,0,0.5,TRUE,3,fixmodel,0.0251,-0.0011209761357580006,0.007500729735689938,0,10000
10,250,0,125,250,375,500,625,750,875,1000,1125,2,0,1,0,0,0,0,0,0,0,0,0,0,-0.5,-0.5,-0.5,-0.5,-0.5,-0.5,-0.5,-0.5,-0.5,-0.5,-0.5,linear,100,0.025,0,0.5,TRUE,3,poolmodel,0.0057,-0.0496531795060941,0.009405671621235016,0,10000
10,250,0,125,250,375,500,625,750,875,1000,1125,2,0,1,0,0,0,0,0,0,0,0,0,0,-0.5,-0.5,-0.5,-0.5,-0.5,-0.5,-0.5,-0.5,-0.5,-0.5,-0.5,linear,100,0.025,0,0.5,TRUE,3,sepmodel,0.0244,-0.0012138888687824598,0.00815328828042558,0,10000
10,250,0,125,250,375,500,625,750,875,1000,1125,2,0,1,0,0,0,0,0,0,0,0,0,0,-0.5,-0.5,-0.5,-0.5,-0.5,-0.5,-0.5,-0.5,-0.5,-0.5,-0.5,linear,100,0.025,0,0.5,TRUE,4,fixmodel,0.0231,-0.002377404541705969,0.0071395815552134515,0,10000
10,250,0,125,250,375,500,625,750,875,1000,1125,2,0,1,0,0,0,0,0,0,0,0,0,0,-0.5,-0.5,-0.5,-0.5,-0.5,-0.5,-0.5,-0.5,-0.5,-0.5,-0.5,linear,100,0.025,0,0.5,TRUE,4,poolmodel,0.0021,-0.07241182365931996,0.011784168633862339,0,10000
10,250,0,125,250,375,500,625,750,875,1000,1125,2,0,1,0,0,0,0,0,0,0,0,0,0,-0.5,-0.5,-0.5,-0.5,-0.5,-0.5,-0.5,-0.5,-0.5,-0.5,-0.5,linear,100,0.025,0,0.5,TRUE,4,sepmodel,0.0238,-0.0026157076259412894,0.007987632221247369,0,10000
10,250,0,125,250,375,500,625,750,875,1000,1125,2,0,1,0,0,0,0,0,0,0,0,0,0,-0.5,-0.5,-0.5,-0.5,-0.5,-0.5,-0.5,-0.5,-0.5,-0.5,-0.5,linear,100,0.025,0,0.5,TRUE,5,fixmodel,0.0233,-0.001632168418866514,0.007042182196376665,0,10000
10,250,0,125,250,375,500,625,750,875,1000,1125,2,0,1,0,0,0,0,0,0,0,0,0,0,-0.5,-0.5,-0.5,-0.5,-0.5,-0.5,-0.5,-0.5,-0.5,-0.5,-0.5,linear,100,0.025,0,0.5,TRUE,5,poolmodel,0.0013,-0.09056747795464343,0.014670525071315546,0,10000
10,250,0,125,250,375,500,625,750,875,1000,1125,2,0,1,0,0,0,0,0,0,0,0,0,0,-0.5,-0.5,-0.5,-0.5,-0.5,-0.5,-0.5,-0.5,-0.5,-0.5,-0.5,linear,100,0.025,0,0.5,TRUE,5,sepmodel,0.0226,-0.0019489255169805892,0.007988875055728109,0,10000
10,250,0,125,250,375,500,625,750,875,1000,1125,2,0,1,0,0,0,0,0,0,0,0,0,0,-0.5,-0.5,-0.5,-0.5,-0.5,-0.5,-0.5,-0.5,-0.5,-0.5,-0.5,linear,100,0.025,0,0.5,TRUE,6,fixmodel,0.023,-0.0017623967031467143,0.007019506439023492,0,10000
10,250,0,125,250,375,500,625,750,875,1000,1125,2,0,1,0,0,0,0,0,0,0,0,0,0,-0.5,-0.5,-0.5,-0.5,-0.5,-0.5,-0.5,-0.5,-0.5,-0.5,-0.5,linear,100,0.025,0,0.5,TRUE,6,poolmodel,3e-4,-0.10714414483229483,0.017823711260904485,0,10000
10,250,0,125,250,375,500,625,750,875,1000,1125,2,0,1,0,0,0,0,0,0,0,0,0,0,-0.5,-0.5,-0.5,-0.5,-0.5,-0.5,-0.5,-0.5,-0.5,-0.5,-0.5,linear,100,0.025,0,0.5,TRUE,6,sepmodel,0.0234,-0.002231292675537611,0.008035320894638272,0,10000
10,250,0,125,250,375,500,625,750,875,1000,1125,2,0,1,0,0,0,0,0,0,0,0,0,0,-0.5,-0.5,-0.5,-0.5,-0.5,-0.5,-0.5,-0.5,-0.5,-0.5,-0.5,linear,100,0.025,0,0.5,TRUE,7,fixmodel,0.0231,-0.0012012731607209952,0.006835975722991402,0,10000
10,250,0,125,250,375,500,625,750,875,1000,1125,2,0,1,0,0,0,0,0,0,0,0,0,0,-0.5,-0.5,-0.5,-0.5,-0.5,-0.5,-0.5,-0.5,-0.5,-0.5,-0.5,linear,100,0.025,0,0.5,TRUE,7,poolmodel,2e-4,-0.12074515502082142,0.020760505550910927,0,10000
10,250,0,125,250,375,500,625,750,875,1000,1125,2,0,1,0,0,0,0,0,0,0,0,0,0,-0.5,-0.5,-0.5,-0.5,-0.5,-0.5,-0.5,-0.5,-0.5,-0.5,-0.5,linear,100,0.025,0,0.5,TRUE,7,sepmodel,0.0227,-0.0015061523899872495,0.007947620475558904,0,10000
10,250,0,125,250,375,500,625,750,875,1000,1125,2,0,1,0,0,0,0,0,0,0,0,0,0,-0.5,-0.5,-0.5,-0.5,-0.5,-0.5,-0.5,-0.5,-0.5,-0.5,-0.5,linear,100,0.025,0,0.5,TRUE,8,fixmodel,0.0241,-0.0020865256191097492,0.006834220721669171,0,10000
10,250,0,125,250,375,500,625,750,875,1000,1125,2,0,1,0,0,0,0,0,0,0,0,0,0,-0.5,-0.5,-0.5,-0.5,-0.5,-0.5,-0.5,-0.5,-0.5,-0.5,-0.5,linear,100,0.025,0,0.5,TRUE,8,poolmodel,1e-4,-0.13394614040017847,0.024075898466964712,0,10000
10,250,0,125,250,375,500,625,750,875,1000,1125,2,0,1,0,0,0,0,0,0,0,0,0,0,-0.5,-0.5,-0.5,-0.5,-0.5,-0.5,-0.5,-0.5,-0.5,-0.5,-0.5,linear,100,0.025,0,0.5,TRUE,8,sepmodel,0.0245,-0.0024579473480680486,0.008068333801557007,0,10000
10,250,0,125,250,375,500,625,750,875,1000,1125,2,0,1,0,0,0,0,0,0,0,0,0,0,-0.5,-0.5,-0.5,-0.5,-0.5,-0.5,-0.5,-0.5,-0.5,-0.5,-0.5,linear,100,0.025,0,0.5,TRUE,9,fixmodel,0.0239,-5.886559659829241e-4,0.00677501277775873,0,10000
10,250,0,125,250,375,500,625,750,875,1000,1125,2,0,1,0,0,0,0,0,0,0,0,0,0,-0.5,-0.5,-0.5,-0.5,-0.5,-0.5,-0.5,-0.5,-0.5,-0.5,-0.5,linear,100,0.025,0,0.5,TRUE,9,poolmodel,0,-0.14282269072845694,0.026451330862776342,0,10000
10,250,0,125,250,375,500,625,750,875,1000,1125,2,0,1,0,0,0,0,0,0,0,0,0,0,-0.5,-0.5,-0.5,-0.5,-0.5,-0.5,-0.5,-0.5,-0.5,-0.5,-0.5,linear,100,0.025,0,0.5,TRUE,9,sepmodel,0.0234,-0.001105739724800999,0.007917317241175371,0,10000
10,250,0,125,250,375,500,625,750,875,1000,1125,2,0,1,0,0,0,0,0,0,0,0,0,0,-0.5,-0.5,-0.5,-0.5,-0.5,-0.5,-0.5,-0.5,-0.5,-0.5,-0.5,linear,100,0.025,0,0.5,TRUE,10,fixmodel,0.0221,-0.0011377511764375054,0.006750389113464067,0,10000
10,250,0,125,250,375,500,625,750,875,1000,1125,2,0,1,0,0,0,0,0,0,0,0,0,0,-0.5,-0.5,-0.5,-0.5,-0.5,-0.5,-0.5,-0.5,-0.5,-0.5,-0.5,linear,100,0.025,0,0.5,TRUE,10,poolmodel,1e-4,-0.15184901610860962,0.029057723978132912,0,10000
10,250,0,125,250,375,500,625,750,875,1000,1125,2,0,1,0,0,0,0,0,0,0,0,0,0,-0.5,-0.5,-0.5,-0.5,-0.5,-0.5,-0.5,-0.5,-0.5,-0.5,-0.5,linear,100,0.025,0,0.5,TRUE,10,sepmodel,0.0244,-0.001542771976824482,0.00811660024552182,0,10000
10,250,0,150,300,450,600,750,900,1050,1200,1350,2,0,1,0,0,0,0,0,0,0,0,0,0,-0.5,-0.5,-0.5,-0.5,-0.5,-0.5,-0.5,-0.5,-0.5,-0.5,-0.5,linear,100,0.025,0,0.5,TRUE,2,fixmodel,0.0295,6.236861194511287e-4,0.007719506641503771,0,10000
10,250,0,150,300,450,600,750,900,1050,1200,1350,2,0,1,0,0,0,0,0,0,0,0,0,0,-0.5,-0.5,-0.5,-0.5,-0.5,-0.5,-0.5,-0.5,-0.5,-0.5,-0.5,linear,100,0.025,0,0.5,TRUE,2,poolmodel,0.0121,-0.024339447683524564,0.007791730477831715,0,10000
10,250,0,150,300,450,600,750,900,1050,1200,1350,2,0,1,0,0,0,0,0,0,0,0,0,0,-0.5,-0.5,-0.5,-0.5,-0.5,-0.5,-0.5,-0.5,-0.5,-0.5,-0.5,linear,100,0.025,0,0.5,TRUE,2,sepmodel,0.027,4.151574189001556e-4,0.008115164856909938,0,10000
10,250,0,150,300,450,600,750,900,1050,1200,1350,2,0,1,0,0,0,0,0,0,0,0,0,0,-0.5,-0.5,-0.5,-0.5,-0.5,-0.5,-0.5,-0.5,-0.5,-0.5,-0.5,linear,100,0.025,0,0.5,TRUE,3,fixmodel,0.0242,4.941597218804315e-4,0.00728413264426926,0,10000
10,250,0,150,300,450,600,750,900,1050,1200,1350,2,0,1,0,0,0,0,0,0,0,0,0,0,-0.5,-0.5,-0.5,-0.5,-0.5,-0.5,-0.5,-0.5,-0.5,-0.5,-0.5,linear,100,0.025,0,0.5,TRUE,3,poolmodel,0.0034,-0.05050080085666745,0.009188814042998109,0,10000
10,250,0,150,300,450,600,750,900,1050,1200,1350,2,0,1,0,0,0,0,0,0,0,0,0,0,-0.5,-0.5,-0.5,-0.5,-0.5,-0.5,-0.5,-0.5,-0.5,-0.5,-0.5,linear,100,0.025,0,0.5,TRUE,3,sepmodel,0.0235,4.405762383252397e-4,0.007981213246436483,0,10000
10,250,0,150,300,450,600,750,900,1050,1200,1350,2,0,1,0,0,0,0,0,0,0,0,0,0,-0.5,-0.5,-0.5,-0.5,-0.5,-0.5,-0.5,-0.5,-0.5,-0.5,-0.5,linear,100,0.025,0,0.5,TRUE,4,fixmodel,0.027,0.0011260294420177687,0.007081339556387871,0,10000
10,250,0,150,300,450,600,750,900,1050,1200,1350,2,0,1,0,0,0,0,0,0,0,0,0,0,-0.5,-0.5,-0.5,-0.5,-0.5,-0.5,-0.5,-0.5,-0.5,-0.5,-0.5,linear,100,0.025,0,0.5,TRUE,4,poolmodel,0.002,-0.07404087117749236,0.011740260669336642,0,10000
10,250,0,150,300,450,600,750,900,1050,1200,1350,2,0,1,0,0,0,0,0,0,0,0,0,0,-0.5,-0.5,-0.5,-0.5,-0.5,-0.5,-0.5,-0.5,-0.5,-0.5,-0.5,linear,100,0.025,0,0.5,TRUE,4,sepmodel,0.0254,8.966399828147195e-4,0.007903679598736025,0,10000
10,250,0,150,300,450,600,750,900,1050,1200,1350,2,0,1,0,0,0,0,0,0,0,0,0,0,-0.5,-0.5,-0.5,-0.5,-0.5,-0.5,-0.5,-0.5,-0.5,-0.5,-0.5,linear,100,0.025,0,0.5,TRUE,5,fixmodel,0.0258,4.0888055398062155e-4,0.0069563250819030175,0,10000
10,250,0,150,300,450,600,750,900,1050,1200,1350,2,0,1,0,0,0,0,0,0,0,0,0,0,-0.5,-0.5,-0.5,-0.5,-0.5,-0.5,-0.5,-0.5,-0.5,-0.5,-0.5,linear,100,0.025,0,0.5,TRUE,5,poolmodel,9e-4,-0.09587769728389552,0.015341150921852158,0,10000
10,250,0,150,300,450,600,750,900,1050,1200,1350,2,0,1,0,0,0,0,0,0,0,0,0,0,-0.5,-0.5,-0.5,-0.5,-0.5,-0.5,-0.5,-0.5,-0.5,-0.5,-0.5,linear,100,0.025,0,0.5,TRUE,5,sepmodel,0.0268,4.860134827888471e-4,0.007972783404946351,0,10000
10,250,0,150,300,450,600,750,900,1050,1200,1350,2,0,1,0,0,0,0,0,0,0,0,0,0,-0.5,-0.5,-0.5,-0.5,-0.5,-0.5,-0.5,-0.5,-0.5,-0.5,-0.5,linear,100,0.025,0,0.5,TRUE,6,fixmodel,0.0243,4.999448855651699e-4,0.007048068696099726,0,10000
10,250,0,150,300,450,600,750,900,1050,1200,1350,2,0,1,0,0,0,0,0,0,0,0,0,0,-0.5,-0.5,-0.5,-0.5,-0.5,-0.5,-0.5,-0.5,-0.5,-0.5,-0.5,linear,100,0.025,0,0.5,TRUE,6,poolmodel,2e-4,-0.11406627236625982,0.019148461647727152,0,10000
10,250,0,150,300,450,600,750,900,1050,1200,1350,2,0,1,0,0,0,0,0,0,0,0,0,0,-0.5,-0.5,-0.5,-0.5,-0.5,-0.5,-0.5,-0.5,-0.5,-0.5,-0.5,linear,100,0.025,0,0.5,TRUE,6,sepmodel,0.0231,6.206616598840448e-4,0.008007491977549245,0,10000
10,250,0,150,300,450,600,750,900,1050,1200,1350,2,0,1,0,0,0,0,0,0,0,0,0,0,-0.5,-0.5,-0.5,-0.5,-0.5,-0.5,-0.5,-0.5,-0.5,-0.5,-0.5,linear,100,0.025,0,0.5,TRUE,7,fixmodel,0.0258,5.274653155363278e-4,0.0069404907284151655,0,10000
10,250,0,150,300,450,600,750,900,1050,1200,1350,2,0,1,0,0,0,0,0,0,0,0,0,0,-0.5,-0.5,-0.5,-0.5,-0.5,-0.5,-0.5,-0.5,-0.5,-0.5,-0.5,linear,100,0.025,0,0.5,TRUE,7,poolmodel,0,-0.13015796151727024,0.023008418234967506,0,10000
10,250,0,150,300,450,600,750,900,1050,1200,1350,2,0,1,0,0,0,0,0,0,0,0,0,0,-0.5,-0.5,-0.5,-0.5,-0.5,-0.5,-0.5,-0.5,-0.5,-0.5,-0.5,linear,100,0.025,0,0.5,TRUE,7,sepmodel,0.0243,6.328004382861023e-4,0.008013931614069677,0,10000
10,250,0,150,300,450,600,750,900,1050,1200,1350,2,0,1,0,0,0,0,0,0,0,0,0,0,-0.5,-0.5,-0.5,-0.5,-0.5,-0.5,-0.5,-0.5,-0.5,-0.5,-0.5,linear,100,0.025,0,0.5,TRUE,8,fixmodel,0.0232,4.3910425559786834e-4,0.0068806093110063285,0,10000
10,250,0,150,300,450,600,750,900,1050,1200,1350,2,0,1,0,0,0,0,0,0,0,0,0,0,-0.5,-0.5,-0.5,-0.5,-0.5,-0.5,-0.5,-0.5,-0.5,-0.5,-0.5,linear,100,0.025,0,0.5,TRUE,8,poolmodel,0,-0.1443593124159295,0.02677613558885225,0,10000
10,250,0,150,300,450,600,750,900,1050,1200,1350,2,0,1,0,0,0,0,0,0,0,0,0,0,-0.5,-0.5,-0.5,-0.5,-0.5,-0.5,-0.5,-0.5,-0.5,-0.5,-0.5,linear,100,0.025,0,0.5,TRUE,8,sepmodel,0.0246,6.520298448104373e-4,0.007960503560015311,0,10000
10,250,0,150,300,450,600,750,900,1050,1200,1350,2,0,1,0,0,0,0,0,0,0,0,0,0,-0.5,-0.5,-0.5,-0.5,-0.5,-0.5,-0.5,-0.5,-0.5,-0.5,-0.5,linear,100,0.025,0,0.5,TRUE,9,fixmodel,0.03,3.850497621833162e-4,0.006960289077099199,0,10000
10,250,0,150,300,450,600,750,900,1050,1200,1350,2,0,1,0,0,0,0,0,0,0,0,0,0,-0.5,-0.5,-0.5,-0.5,-0.5,-0.5,-0.5,-0.5,-0.5,-0.5,-0.5,linear,100,0.025,0,0.5,TRUE,9,poolmodel,0,-0.1567063725566472,0.030590393249364075,0,10000
10,250,0,150,300,450,600,750,900,1050,1200,1350,2,0,1,0,0,0,0,0,0,0,0,0,0,-0.5,-0.5,-0.5,-0.5,-0.5,-0.5,-0.5,-0.5,-0.5,-0.5,-0.5,linear,100,0.025,0,0.5,TRUE,9,sepmodel,0.0253,6.201463516829853e-4,0.00810561963664478,0,10000
10,250,0,150,300,450,600,750,900,1050,1200,1350,2,0,1,0,0,0,0,0,0,0,0,0,0,-0.5,-0.5,-0.5,-0.5,-0.5,-0.5,-0.5,-0.5,-0.5,-0.5,-0.5,linear,100,0.025,0,0.5,TRUE,10,fixmodel,0.0279,0.0016262923587160286,0.006866009345151595,0,10000
10,250,0,150,300,450,600,750,900,1050,1200,1350,2,0,1,0,0,0,0,0,0,0,0,0,0,-0.5,-0.5,-0.5,-0.5,-0.5,-0.5,-0.5,-0.5,-0.5,-0.5,-0.5,linear,100,0.025,0,0.5,TRUE,10,poolmodel,0,-0.16626980215204198,0.03357230807511891,0,10000
10,250,0,150,300,450,600,750,900,1050,1200,1350,2,0,1,0,0,0,0,0,0,0,0,0,0,-0.5,-0.5,-0.5,-0.5,-0.5,-0.5,-0.5,-0.5,-0.5,-0.5,-0.5,linear,100,0.025,0,0.5,TRUE,10,sepmodel,0.027,0.001965354971893257,0.008125835472348877,0,10000
10,250,0,175,350,525,700,875,1050,1225,1400,1575,2,0,1,0,0,0,0,0,0,0,0,0,0,-0.5,-0.5,-0.5,-0.5,-0.5,-0.5,-0.5,-0.5,-0.5,-0.5,-0.5,linear,100,0.025,0,0.5,TRUE,2,fixmodel,0.026,1.482578513603933e-4,0.007545503947989163,0,10000
10,250,0,175,350,525,700,875,1050,1225,1400,1575,2,0,1,0,0,0,0,0,0,0,0,0,0,-0.5,-0.5,-0.5,-0.5,-0.5,-0.5,-0.5,-0.5,-0.5,-0.5,-0.5,linear,100,0.025,0,0.5,TRUE,2,poolmodel,0.0107,-0.02560450868780979,0.0076129476278493525,0,10000
10,250,0,175,350,525,700,875,1050,1225,1400,1575,2,0,1,0,0,0,0,0,0,0,0,0,0,-0.5,-0.5,-0.5,-0.5,-0.5,-0.5,-0.5,-0.5,-0.5,-0.5,-0.5,linear,100,0.025,0,0.5,TRUE,2,sepmodel,0.0275,3.728655795466291e-4,0.008023560100129765,0,10000
10,250,0,175,350,525,700,875,1050,1225,1400,1575,2,0,1,0,0,0,0,0,0,0,0,0,0,-0.5,-0.5,-0.5,-0.5,-0.5,-0.5,-0.5,-0.5,-0.5,-0.5,-0.5,linear,100,0.025,0,0.5,TRUE,3,fixmodel,0.025,-0.0012964584245907982,0.007186566419391882,0,10000
10,250,0,175,350,525,700,875,1050,1225,1400,1575,2,0,1,0,0,0,0,0,0,0,0,0,0,-0.5,-0.5,-0.5,-0.5,-0.5,-0.5,-0.5,-0.5,-0.5,-0.5,-0.5,linear,100,0.025,0,0.5,TRUE,3,poolmodel,0.0043,-0.05379552806393504,0.00937904260773289,0,10000
10,250,0,175,350,525,700,875,1050,1225,1400,1575,2,0,1,0,0,0,0,0,0,0,0,0,0,-0.5,-0.5,-0.5,-0.5,-0.5,-0.5,-0.5,-0.5,-0.5,-0.5,-0.5,linear,100,0.025,0,0.5,TRUE,3,sepmodel,0.0235,-0.0015834445479565166,0.007898360968041508,0,10000
10,250,0,175,350,525,700,875,1050,1225,1400,1575,2,0,1,0,0,0,0,0,0,0,0,0,0,-0.5,-0.5,-0.5,-0.5,-0.5,-0.5,-0.5,-0.5,-0.5,-0.5,-0.5,linear,100,0.025,0,0.5,TRUE,4,fixmodel,0.0234,2.2812059979810173e-4,0.006977724086061376,0,10000
10,250,0,175,350,525,700,875,1050,1225,1400,1575,2,0,1,0,0,0,0,0,0,0,0,0,0,-0.5,-0.5,-0.5,-0.5,-0.5,-0.5,-0.5,-0.5,-0.5,-0.5,-0.5,linear,100,0.025,0,0.5,TRUE,4,poolmodel,0.0018,-0.07761656464354519,0.012159542973308471,0,10000
10,250,0,175,350,525,700,875,1050,1225,1400,1575,2,0,1,0,0,0,0,0,0,0,0,0,0,-0.5,-0.5,-0.5,-0.5,-0.5,-0.5,-0.5,-0.5,-0.5,-0.5,-0.5,linear,100,0.025,0,0.5,TRUE,4,sepmodel,0.024,2.617891463032153e-4,0.007797193200286309,0,10000
10,250,0,175,350,525,700,875,1050,1225,1400,1575,2,0,1,0,0,0,0,0,0,0,0,0,0,-0.5,-0.5,-0.5,-0.5,-0.5,-0.5,-0.5,-0.5,-0.5,-0.5,-0.5,linear,100,0.025,0,0.5,TRUE,5,fixmodel,0.0256,0.0011032211871842082,0.006952337386840694,0,10000
10,250,0,175,350,525,700,875,1050,1225,1400,1575,2,0,1,0,0,0,0,0,0,0,0,0,0,-0.5,-0.5,-0.5,-0.5,-0.5,-0.5,-0.5,-0.5,-0.5,-0.5,-0.5,linear,100,0.025,0,0.5,TRUE,5,poolmodel,5e-4,-0.09938882109928956,0.015911550958132292,0,10000
10,250,0,175,350,525,700,875,1050,1225,1400,1575,2,0,1,0,0,0,0,0,0,0,0,0,0,-0.5,-0.5,-0.5,-0.5,-0.5,-0.5,-0.5,-0.5,-0.5,-0.5,-0.5,linear,100,0.025,0,0.5,TRUE,5,sepmodel,0.0238,0.0012399359818409284,0.007910110989423621,0,10000
10,250,0,175,350,525,700,875,1050,1225,1400,1575,2,0,1,0,0,0,0,0,0,0,0,0,0,-0.5,-0.5,-0.5,-0.5,-0.5,-0.5,-0.5,-0.5,-0.5,-0.5,-0.5,linear,100,0.025,0,0.5,TRUE,6,fixmodel,0.0265,4.879090540090667e-4,0.007029383225710745,0,10000
10,250,0,175,350,525,700,875,1050,1225,1400,1575,2,0,1,0,0,0,0,0,0,0,0,0,0,-0.5,-0.5,-0.5,-0.5,-0.5,-0.5,-0.5,-0.5,-0.5,-0.5,-0.5,linear,100,0.025,0,0.5,TRUE,6,poolmodel,2e-4,-0.1199645154827152,0.020405581130838634,0,10000
10,250,0,175,350,525,700,875,1050,1225,1400,1575,2,0,1,0,0,0,0,0,0,0,0,0,0,-0.5,-0.5,-0.5,-0.5,-0.5,-0.5,-0.5,-0.5,-0.5,-0.5,-0.5,linear,100,0.025,0,0.5,TRUE,6,sepmodel,0.0261,8.662989504873968e-4,0.008049844901210242,0,10000
10,250,0,175,350,525,700,875,1050,1225,1400,1575,2,0,1,0,0,0,0,0,0,0,0,0,0,-0.5,-0.5,-0.5,-0.5,-0.5,-0.5,-0.5,-0.5,-0.5,-0.5,-0.5,linear,100,0.025,0,0.5,TRUE,7,fixmodel,0.0261,1.577536534083972e-4,0.00688090539292851,0,10000
10,250,0,175,350,525,700,875,1050,1225,1400,1575,2,0,1,0,0,0,0,0,0,0,0,0,0,-0.5,-0.5,-0.5,-0.5,-0.5,-0.5,-0.5,-0.5,-0.5,-0.5,-0.5,linear,100,0.025,0,0.5,TRUE,7,poolmodel,0,-0.13966523176535303,0.02533007860422238,0,10000
10,250,0,175,350,525,700,875,1050,1225,1400,1575,2,0,1,0,0,0,0,0,0,0,0,0,0,-0.5,-0.5,-0.5,-0.5,-0.5,-0.5,-0.5,-0.5,-0.5,-0.5,-0.5,linear,100,0.025,0,0.5,TRUE,7,sepmodel,0.025,2.9654131660806463e-4,0.008066821901766955,0,10000
10,250,0,175,350,525,700,875,1050,1225,1400,1575,2,0,1,0,0,0,0,0,0,0,0,0,0,-0.5,-0.5,-0.5,-0.5,-0.5,-0.5,-0.5,-0.5,-0.5,-0.5,-0.5,linear,100,0.025,0,0.5,TRUE,8,fixmodel,0.0235,-2.881696250883887e-4,0.006519784994521708,0,10000
10,250,0,175,350,525,700,875,1050,1225,1400,1575,2,0,1,0,0,0,0,0,0,0,0,0,0,-0.5,-0.5,-0.5,-0.5,-0.5,-0.5,-0.5,-0.5,-0.5,-0.5,-0.5,linear,100,0.025,0,0.5,TRUE,8,poolmodel,0,-0.15651676213665056,0.03010117065376012,0,10000
10,250,0,175,350,525,700,875,1050,1225,1400,1575,2,0,1,0,0,0,0,0,0,0,0,0,0,-0.5,-0.5,-0.5,-0.5,-0.5,-0.5,-0.5,-0.5,-0.5,-0.5,-0.5,linear,100,0.025,0,0.5,TRUE,8,sepmodel,0.0245,-2.6251336382229095e-4,0.0077548402399790686,0,10000
10,250,0,175,350,525,700,875,1050,1225,1400,1575,2,0,1,0,0,0,0,0,0,0,0,0,0,-0.5,-0.5,-0.5,-0.5,-0.5,-0.5,-0.5,-0.5,-0.5,-0.5,-0.5,linear,100,0.025,0,0.5,TRUE,9,fixmodel,0.0248,4.0864434444502334e-4,0.00661643549162891,0,10000
10,250,0,175,350,525,700,875,1050,1225,1400,1575,2,0,1,0,0,0,0,0,0,0,0,0,0,-0.5,-0.5,-0.5,-0.5,-0.5,-0.5,-0.5,-0.5,-0.5,-0.5,-0.5,linear,100,0.025,0,0.5,TRUE,9,poolmodel,0,-0.16916362087752876,0.034252551897674816,0,10000
10,250,0,175,350,525,700,875,1050,1225,1400,1575,2,0,1,0,0,0,0,0,0,0,0,0,0,-0.5,-0.5,-0.5,-0.5,-0.5,-0.5,-0.5,-0.5,-0.5,-0.5,-0.5,linear,100,0.025,0,0.5,TRUE,9,sepmodel,0.0261,1.7583835058646935e-4,0.00791939236835827,0,10000
10,250,0,175,350,525,700,875,1050,1225,1400,1575,2,0,1,0,0,0,0,0,0,0,0,0,0,-0.5,-0.5,-0.5,-0.5,-0.5,-0.5,-0.5,-0.5,-0.5,-0.5,-0.5,linear,100,0.025,0,0.5,TRUE,10,fixmodel,0.0258,0.0011659286875999025,0.006738450569799881,0,10000
10,250,0,175,350,525,700,875,1050,1225,1400,1575,2,0,1,0,0,0,0,0,0,0,0,0,0,-0.5,-0.5,-0.5,-0.5,-0.5,-0.5,-0.5,-0.5,-0.5,-0.5,-0.5,linear,100,0.025,0,0.5,TRUE,10,poolmodel,0,-0.18011804006394433,0.038074340499274544,0,10000
10,250,0,175,350,525,700,875,1050,1225,1400,1575,2,0,1,0,0,0,0,0,0,0,0,0,0,-0.5,-0.5,-0.5,-0.5,-0.5,-0.5,-0.5,-0.5,-0.5,-0.5,-0.5,linear,100,0.025,0,0.5,TRUE,10,sepmodel,0.0239,0.0013063099760269254,0.007916415131740165,0,10000
10,250,0,200,400,600,800,1000,1200,1400,1600,1800,2,0,1,0,0,0,0,0,0,0,0,0,0,-0.5,-0.5,-0.5,-0.5,-0.5,-0.5,-0.5,-0.5,-0.5,-0.5,-0.5,linear,100,0.025,0,0.5,TRUE,2,fixmodel,0.024,-6.0868017479175395e-5,0.007601554273771991,0,10000
10,250,0,200,400,600,800,1000,1200,1400,1600,1800,2,0,1,0,0,0,0,0,0,0,0,0,0,-0.5,-0.5,-0.5,-0.5,-0.5,-0.5,-0.5,-0.5,-0.5,-0.5,-0.5,linear,100,0.025,0,0.5,TRUE,2,poolmodel,0.0105,-0.02628138937858369,0.0075955133333144905,0,10000
10,250,0,200,400,600,800,1000,1200,1400,1600,1800,2,0,1,0,0,0,0,0,0,0,0,0,0,-0.5,-0.5,-0.5,-0.5,-0.5,-0.5,-0.5,-0.5,-0.5,-0.5,-0.5,linear,100,0.025,0,0.5,TRUE,2,sepmodel,0.0252,-4.1619711088043286e-4,0.008097985049701778,0,10000
10,250,0,200,400,600,800,1000,1200,1400,1600,1800,2,0,1,0,0,0,0,0,0,0,0,0,0,-0.5,-0.5,-0.5,-0.5,-0.5,-0.5,-0.5,-0.5,-0.5,-0.5,-0.5,linear,100,0.025,0,0.5,TRUE,3,fixmodel,0.0229,-9.089022819313674e-4,0.007273006488629599,0,10000
10,250,0,200,400,600,800,1000,1200,1400,1600,1800,2,0,1,0,0,0,0,0,0,0,0,0,0,-0.5,-0.5,-0.5,-0.5,-0.5,-0.5,-0.5,-0.5,-0.5,-0.5,-0.5,linear,100,0.025,0,0.5,TRUE,3,poolmodel,0.0043,-0.05394365914504943,0.00937764244225648,0,10000
10,250,0,200,400,600,800,1000,1200,1400,1600,1800,2,0,1,0,0,0,0,0,0,0,0,0,0,-0.5,-0.5,-0.5,-0.5,-0.5,-0.5,-0.5,-0.5,-0.5,-0.5,-0.5,linear,100,0.025,0,0.5,TRUE,3,sepmodel,0.0228,-0.0012302590117456026,0.007910010806108583,0,10000
10,250,0,200,400,600,800,1000,1200,1400,1600,1800,2,0,1,0,0,0,0,0,0,0,0,0,0,-0.5,-0.5,-0.5,-0.5,-0.5,-0.5,-0.5,-0.5,-0.5,-0.5,-0.5,linear,100,0.025,0,0.5,TRUE,4,fixmodel,0.0235,6.084991536642157e-4,0.007210786191728825,0,10000
10,250,0,200,400,600,800,1000,1200,1400,1600,1800,2,0,1,0,0,0,0,0,0,0,0,0,0,-0.5,-0.5,-0.5,-0.5,-0.5,-0.5,-0.5,-0.5,-0.5,-0.5,-0.5,linear,100,0.025,0,0.5,TRUE,4,poolmodel,0.0012,-0.07781246969010824,0.012267348790743956,0,10000
10,250,0,200,400,600,800,1000,1200,1400,1600,1800,2,0,1,0,0,0,0,0,0,0,0,0,0,-0.5,-0.5,-0.5,-0.5,-0.5,-0.5,-0.5,-0.5,-0.5,-0.5,-0.5,linear,100,0.025,0,0.5,TRUE,4,sepmodel,0.0249,3.4588138693615096e-4,0.008053615525452851,0,10000
10,250,0,200,400,600,800,1000,1200,1400,1600,1800,2,0,1,0,0,0,0,0,0,0,0,0,0,-0.5,-0.5,-0.5,-0.5,-0.5,-0.5,-0.5,-0.5,-0.5,-0.5,-0.5,linear,100,0.025,0,0.5,TRUE,5,fixmodel,0.0265,8.942800295949339e-4,0.007264030074946071,0,10000
10,250,0,200,400,600,800,1000,1200,1400,1600,1800,2,0,1,0,0,0,0,0,0,0,0,0,0,-0.5,-0.5,-0.5,-0.5,-0.5,-0.5,-0.5,-0.5,-0.5,-0.5,-0.5,linear,100,0.025,0,0.5,TRUE,5,poolmodel,2e-4,-0.10165527340167378,0.016437705757741,0,10000
10,250,0,200,400,600,800,1000,1200,1400,1600,1800,2,0,1,0,0,0,0,0,0,0,0,0,0,-0.5,-0.5,-0.5,-0.5,-0.5,-0.5,-0.5,-0.5,-0.5,-0.5,-0.5,linear,100,0.025,0,0.5,TRUE,5,sepmodel,0.0248,0.0011203529087252023,0.008234354399115004,0,10000
10,250,0,200,400,600,800,1000,1200,1400,1600,1800,2,0,1,0,0,0,0,0,0,0,0,0,0,-0.5,-0.5,-0.5,-0.5,-0.5,-0.5,-0.5,-0.5,-0.5,-0.5,-0.5,linear,100,0.025,0,0.5,TRUE,6,fixmodel,0.025,0.0014747438945901807,0.0068482803891044015,0,10000
10,250,0,200,400,600,800,1000,1200,1400,1600,1800,2,0,1,0,0,0,0,0,0,0,0,0,0,-0.5,-0.5,-0.5,-0.5,-0.5,-0.5,-0.5,-0.5,-0.5,-0.5,-0.5,linear,100,0.025,0,0.5,TRUE,6,poolmodel,1e-4,-0.12539474823326013,0.02143031866884159,0,10000
10,250,0,200,400,600,800,1000,1200,1400,1600,1800,2,0,1,0,0,0,0,0,0,0,0,0,0,-0.5,-0.5,-0.5,-0.5,-0.5,-0.5,-0.5,-0.5,-0.5,-0.5,-0.5,linear,100,0.025,0,0.5,TRUE,6,sepmodel,0.0223,0.0017194700634301672,0.007884824607352138,0,10000
10,250,0,200,400,600,800,1000,1200,1400,1600,1800,2,0,1,0,0,0,0,0,0,0,0,0,0,-0.5,-0.5,-0.5,-0.5,-0.5,-0.5,-0.5,-0.5,-0.5,-0.5,-0.5,linear,100,0.025,0,0.5,TRUE,7,fixmodel,0.026,0.001033998004933305,0.006976523848917767,0,10000
10,250,0,200,400,600,800,1000,1200,1400,1600,1800,2,0,1,0,0,0,0,0,0,0,0,0,0,-0.5,-0.5,-0.5,-0.5,-0.5,-0.5,-0.5,-0.5,-0.5,-0.5,-0.5,linear,100,0.025,0,0.5,TRUE,7,poolmodel,1e-4,-0.14612797451476411,0.027177964618749852,0,10000
10,250,0,200,400,600,800,1000,1200,1400,1600,1800,2,0,1,0,0,0,0,0,0,0,0,0,0,-0.5,-0.5,-0.5,-0.5,-0.5,-0.5,-0.5,-0.5,-0.5,-0.5,-0.5,linear,100,0.025,0,0.5,TRUE,7,sepmodel,0.0248,0.0011510699041608612,0.008033705642089294,0,10000
10,250,0,200,400,600,800,1000,1200,1400,1600,1800,2,0,1,0,0,0,0,0,0,0,0,0,0,-0.5,-0.5,-0.5,-0.5,-0.5,-0.5,-0.5,-0.5,-0.5,-0.5,-0.5,linear,100,0.025,0,0.5,TRUE,8,fixmodel,0.0259,4.314804880436716e-5,0.006693453677210615,0,10000
10,250,0,200,400,600,800,1000,1200,1400,1600,1800,2,0,1,0,0,0,0,0,0,0,0,0,0,-0.5,-0.5,-0.5,-0.5,-0.5,-0.5,-0.5,-0.5,-0.5,-0.5,-0.5,linear,100,0.025,0,0.5,TRUE,8,poolmodel,0,-0.16535478704361814,0.032880226852712593,0,10000
10,250,0,200,400,600,800,1000,1200,1400,1600,1800,2,0,1,0,0,0,0,0,0,0,0,0,0,-0.5,-0.5,-0.5,-0.5,-0.5,-0.5,-0.5,-0.5,-0.5,-0.5,-0.5,linear,100,0.025,0,0.5,TRUE,8,sepmodel,0.0244,1.531412283702636e-4,0.007765424217129593,0,10000
10,250,0,200,400,600,800,1000,1200,1400,1600,1800,2,0,1,0,0,0,0,0,0,0,0,0,0,-0.5,-0.5,-0.5,-0.5,-0.5,-0.5,-0.5,-0.5,-0.5,-0.5,-0.5,linear,100,0.025,0,0.5,TRUE,9,fixmodel,0.0278,2.3660266391960412e-4,0.0069881480227336435,0,10000
10,250,0,200,400,600,800,1000,1200,1400,1600,1800,2,0,1,0,0,0,0,0,0,0,0,0,0,-0.5,-0.5,-0.5,-0.5,-0.5,-0.5,-0.5,-0.5,-0.5,-0.5,-0.5,linear,100,0.025,0,0.5,TRUE,9,poolmodel,0,-0.1804453705749689,0.038280805802103454,0,10000
10,250,0,200,400,600,800,1000,1200,1400,1600,1800,2,0,1,0,0,0,0,0,0,0,0,0,0,-0.5,-0.5,-0.5,-0.5,-0.5,-0.5,-0.5,-0.5,-0.5,-0.5,-0.5,linear,100,0.025,0,0.5,TRUE,9,sepmodel,0.0244,3.013785371686175e-4,0.008128808555843983,0,10000
10,250,0,200,400,600,800,1000,1200,1400,1600,1800,2,0,1,0,0,0,0,0,0,0,0,0,0,-0.5,-0.5,-0.5,-0.5,-0.5,-0.5,-0.5,-0.5,-0.5,-0.5,-0.5,linear,100,0.025,0,0.5,TRUE,10,fixmodel,0.0231,0.001025426467291474,0.006654156107651534,0,10000
10,250,0,200,400,600,800,1000,1200,1400,1600,1800,2,0,1,0,0,0,0,0,0,0,0,0,0,-0.5,-0.5,-0.5,-0.5,-0.5,-0.5,-0.5,-0.5,-0.5,-0.5,-0.5,linear,100,0.025,0,0.5,TRUE,10,poolmodel,0,-0.19188446546373658,0.04224681812803407,0,10000
10,250,0,200,400,600,800,1000,1200,1400,1600,1800,2,0,1,0,0,0,0,0,0,0,0,0,0,-0.5,-0.5,-0.5,-0.5,-0.5,-0.5,-0.5,-0.5,-0.5,-0.5,-0.5,linear,100,0.025,0,0.5,TRUE,10,sepmodel,0.0232,0.0010648365625204694,0.007900484300529188,0,10000
10,250,0,225,450,675,900,1125,1350,1575,1800,2025,2,0,1,0,0,0,0,0,0,0,0,0,0,-0.5,-0.5,-0.5,-0.5,-0.5,-0.5,-0.5,-0.5,-0.5,-0.5,-0.5,linear,100,0.025,0,0.5,TRUE,2,fixmodel,0.0262,-1.0745563896311885e-4,0.007537004187939587,0,10000
10,250,0,225,450,675,900,1125,1350,1575,1800,2025,2,0,1,0,0,0,0,0,0,0,0,0,0,-0.5,-0.5,-0.5,-0.5,-0.5,-0.5,-0.5,-0.5,-0.5,-0.5,-0.5,linear,100,0.025,0,0.5,TRUE,2,poolmodel,0.0107,-0.02713622261935565,0.007492201220462917,0,10000
10,250,0,225,450,675,900,1125,1350,1575,1800,2025,2,0,1,0,0,0,0,0,0,0,0,0,0,-0.5,-0.5,-0.5,-0.5,-0.5,-0.5,-0.5,-0.5,-0.5,-0.5,-0.5,linear,100,0.025,0,0.5,TRUE,2,sepmodel,0.0257,1.3752782995571638e-4,0.008044048587796856,0,10000
10,250,0,225,450,675,900,1125,1350,1575,1800,2025,2,0,1,0,0,0,0,0,0,0,0,0,0,-0.5,-0.5,-0.5,-0.5,-0.5,-0.5,-0.5,-0.5,-0.5,-0.5,-0.5,linear,100,0.025,0,0.5,TRUE,3,fixmodel,0.0236,-5.310019370573047e-4,0.007219614237098089,0,10000
10,250,0,225,450,675,900,1125,1350,1575,1800,2025,2,0,1,0,0,0,0,0,0,0,0,0,0,-0.5,-0.5,-0.5,-0.5,-0.5,-0.5,-0.5,-0.5,-0.5,-0.5,-0.5,linear,100,0.025,0,0.5,TRUE,3,poolmodel,0.0036,-0.054405767057422526,0.009147574209905475,0,10000
10,250,0,225,450,675,900,1125,1350,1575,1800,2025,2,0,1,0,0,0,0,0,0,0,0,0,0,-0.5,-0.5,-0.5,-0.5,-0.5,-0.5,-0.5,-0.5,-0.5,-0.5,-0.5,linear,100,0.025,0,0.5,TRUE,3,sepmodel,0.0234,-4.0417174101348884e-4,0.007886820186320219,0,10000
10,250,0,225,450,675,900,1125,1350,1575,1800,2025,2,0,1,0,0,0,0,0,0,0,0,0,0,-0.5,-0.5,-0.5,-0.5,-0.5,-0.5,-0.5,-0.5,-0.5,-0.5,-0.5,linear,100,0.025,0,0.5,TRUE,4,fixmodel,0.0227,-4.891511161272385e-5,0.007032014119549857,0,10000
10,250,0,225,450,675,900,1125,1350,1575,1800,2025,2,0,1,0,0,0,0,0,0,0,0,0,0,-0.5,-0.5,-0.5,-0.5,-0.5,-0.5,-0.5,-0.5,-0.5,-0.5,-0.5,linear,100,0.025,0,0.5,TRUE,4,poolmodel,0.0011,-0.07791864758403562,0.011881041265767308,0,10000
10,250,0,225,450,675,900,1125,1350,1575,1800,2025,2,0,1,0,0,0,0,0,0,0,0,0,0,-0.5,-0.5,-0.5,-0.5,-0.5,-0.5,-0.5,-0.5,-0.5,-0.5,-0.5,linear,100,0.025,0,0.5,TRUE,4,sepmodel,0.0231,1.7522308695734864e-4,0.007771089860218822,0,10000
10,250,0,225,450,675,900,1125,1350,1575,1800,2025,2,0,1,0,0,0,0,0,0,0,0,0,0,-0.5,-0.5,-0.5,-0.5,-0.5,-0.5,-0.5,-0.5,-0.5,-0.5,-0.5,linear,100,0.025,0,0.5,TRUE,5,fixmodel,0.0248,0.0010783932277240247,0.006857688489464185,0,10000
10,250,0,225,450,675,900,1125,1350,1575,1800,2025,2,0,1,0,0,0,0,0,0,0,0,0,0,-0.5,-0.5,-0.5,-0.5,-0.5,-0.5,-0.5,-0.5,-0.5,-0.5,-0.5,linear,100,0.025,0,0.5,TRUE,5,poolmodel,4e-4,-0.10416491130933946,0.016407302097473275,0,10000
10,250,0,225,450,675,900,1125,1350,1575,1800,2025,2,0,1,0,0,0,0,0,0,0,0,0,0,-0.5,-0.5,-0.5,-0.5,-0.5,-0.5,-0.5,-0.5,-0.5,-0.5,-0.5,linear,100,0.025,0,0.5,TRUE,5,sepmodel,0.0245,0.0012897553560828551,0.007797177880559663,0,10000
10,250,0,225,450,675,900,1125,1350,1575,1800,2025,2,0,1,0,0,0,0,0,0,0,0,0,0,-0.5,-0.5,-0.5,-0.5,-0.5,-0.5,-0.5,-0.5,-0.5,-0.5,-0.5,linear,100,0.025,0,0.5,TRUE,6,fixmodel,0.0267,0.0010437928632322311,0.007076643292838939,0,10000
10,250,0,225,450,675,900,1125,1350,1575,1800,2025,2,0,1,0,0,0,0,0,0,0,0,0,0,-0.5,-0.5,-0.5,-0.5,-0.5,-0.5,-0.5,-0.5,-0.5,-0.5,-0.5,linear,100,0.025,0,0.5,TRUE,6,poolmodel,3e-4,-0.12867632490974662,0.02230649358137988,0,10000
10,250,0,225,450,675,900,1125,1350,1575,1800,2025,2,0,1,0,0,0,0,0,0,0,0,0,0,-0.5,-0.5,-0.5,-0.5,-0.5,-0.5,-0.5,-0.5,-0.5,-0.5,-0.5,linear,100,0.025,0,0.5,TRUE,6,sepmodel,0.0261,0.0012134241468676706,0.008034961031153438,0,10000
10,250,0,225,450,675,900,1125,1350,1575,1800,2025,2,0,1,0,0,0,0,0,0,0,0,0,0,-0.5,-0.5,-0.5,-0.5,-0.5,-0.5,-0.5,-0.5,-0.5,-0.5,-0.5,linear,100,0.025,0,0.5,TRUE,7,fixmodel,0.023,0.0012916906842758936,0.0069885714705579804,0,10000
10,250,0,225,450,675,900,1125,1350,1575,1800,2025,2,0,1,0,0,0,0,0,0,0,0,0,0,-0.5,-0.5,-0.5,-0.5,-0.5,-0.5,-0.5,-0.5,-0.5,-0.5,-0.5,linear,100,0.025,0,0.5,TRUE,7,poolmodel,1e-4,-0.1507240825731321,0.028362937844202855,0,10000
10,250,0,225,450,675,900,1125,1350,1575,1800,2025,2,0,1,0,0,0,0,0,0,0,0,0,0,-0.5,-0.5,-0.5,-0.5,-0.5,-0.5,-0.5,-0.5,-0.5,-0.5,-0.5,linear,100,0.025,0,0.5,TRUE,7,sepmodel,0.0254,0.0013050125348926136,0.008046222873226259,0,10000
10,250,0,225,450,675,900,1125,1350,1575,1800,2025,2,0,1,0,0,0,0,0,0,0,0,0,0,-0.5,-0.5,-0.5,-0.5,-0.5,-0.5,-0.5,-0.5,-0.5,-0.5,-0.5,linear,100,0.025,0,0.5,TRUE,8,fixmodel,0.0253,1.9260514769589234e-4,0.006991954439088566,0,10000
10,250,0,225,450,675,900,1125,1350,1575,1800,2025,2,0,1,0,0,0,0,0,0,0,0,0,0,-0.5,-0.5,-0.5,-0.5,-0.5,-0.5,-0.5,-0.5,-0.5,-0.5,-0.5,linear,100,0.025,0,0.5,TRUE,8,poolmodel,0,-0.171968845887946,0.035130108855280714,0,10000
10,250,0,225,450,675,900,1125,1350,1575,1800,2025,2,0,1,0,0,0,0,0,0,0,0,0,0,-0.5,-0.5,-0.5,-0.5,-0.5,-0.5,-0.5,-0.5,-0.5,-0.5,-0.5,linear,100,0.025,0,0.5,TRUE,8,sepmodel,0.0234,7.63377006630726e-5,0.008035557850838463,0,10000
10,250,0,225,450,675,900,1125,1350,1575,1800,2025,2,0,1,0,0,0,0,0,0,0,0,0,0,-0.5,-0.5,-0.5,-0.5,-0.5,-0.5,-0.5,-0.5,-0.5,-0.5,-0.5,linear,100,0.025,0,0.5,TRUE,9,fixmodel,0.0273,-1.0050436057887809e-4,0.0068693242002260645,0,10000
10,250,0,225,450,675,900,1125,1350,1575,1800,2025,2,0,1,0,0,0,0,0,0,0,0,0,0,-0.5,-0.5,-0.5,-0.5,-0.5,-0.5,-0.5,-0.5,-0.5,-0.5,-0.5,linear,100,0.025,0,0.5,TRUE,9,poolmodel,0,-0.18923732423820425,0.04121649036891647,0,10000
10,250,0,225,450,675,900,1125,1350,1575,1800,2025,2,0,1,0,0,0,0,0,0,0,0,0,0,-0.5,-0.5,-0.5,-0.5,-0.5,-0.5,-0.5,-0.5,-0.5,-0.5,-0.5,linear,100,0.025,0,0.5,TRUE,9,sepmodel,0.0271,-3.7431192179532106e-4,0.008022099016593247,0,10000
10,250,0,225,450,675,900,1125,1350,1575,1800,2025,2,0,1,0,0,0,0,0,0,0,0,0,0,-0.5,-0.5,-0.5,-0.5,-0.5,-0.5,-0.5,-0.5,-0.5,-0.5,-0.5,linear,100,0.025,0,0.5,TRUE,10,fixmodel,0.0257,-3.382615329612385e-4,0.006885302339355906,0,10000
10,250,0,225,450,675,900,1125,1350,1575,1800,2025,2,0,1,0,0,0,0,0,0,0,0,0,0,-0.5,-0.5,-0.5,-0.5,-0.5,-0.5,-0.5,-0.5,-0.5,-0.5,-0.5,linear,100,0.025,0,0.5,TRUE,10,poolmodel,0,-0.20246114509771965,0.04637474873219079,0,10000
10,250,0,225,450,675,900,1125,1350,1575,1800,2025,2,0,1,0,0,0,0,0,0,0,0,0,0,-0.5,-0.5,-0.5,-0.5,-0.5,-0.5,-0.5,-0.5,-0.5,-0.5,-0.5,linear,100,0.025,0,0.5,TRUE,10,sepmodel,0.0253,-6.320484865691933e-4,0.008129697044609656,0,10000
10,250,0,250,500,750,1000,1250,1500,1750,2000,2250,2,0,1,0,0,0,0,0,0,0,0,0,0,-0.5,-0.5,-0.5,-0.5,-0.5,-0.5,-0.5,-0.5,-0.5,-0.5,-0.5,linear,100,0.025,0,0.5,TRUE,2,fixmodel,0.0249,-9.187727885588e-4,0.007404636802749325,0,10000
10,250,0,250,500,750,1000,1250,1500,1750,2000,2250,2,0,1,0,0,0,0,0,0,0,0,0,0,-0.5,-0.5,-0.5,-0.5,-0.5,-0.5,-0.5,-0.5,-0.5,-0.5,-0.5,linear,100,0.025,0,0.5,TRUE,2,poolmodel,0.01,-0.02831017991530152,0.007427320772521783,0,10000
10,250,0,250,500,750,1000,1250,1500,1750,2000,2250,2,0,1,0,0,0,0,0,0,0,0,0,0,-0.5,-0.5,-0.5,-0.5,-0.5,-0.5,-0.5,-0.5,-0.5,-0.5,-0.5,linear,100,0.025,0,0.5,TRUE,2,sepmodel,0.0242,-9.908325150465233e-4,0.0079296909363685,0,10000
10,250,0,250,500,750,1000,1250,1500,1750,2000,2250,2,0,1,0,0,0,0,0,0,0,0,0,0,-0.5,-0.5,-0.5,-0.5,-0.5,-0.5,-0.5,-0.5,-0.5,-0.5,-0.5,linear,100,0.025,0,0.5,TRUE,3,fixmodel,0.0265,2.81642081502589e-4,0.007319840017507597,0,10000
10,250,0,250,500,750,1000,1250,1500,1750,2000,2250,2,0,1,0,0,0,0,0,0,0,0,0,0,-0.5,-0.5,-0.5,-0.5,-0.5,-0.5,-0.5,-0.5,-0.5,-0.5,-0.5,linear,100,0.025,0,0.5,TRUE,3,poolmodel,0.0046,-0.05324852649480118,0.00903527136519984,0,10000
10,250,0,250,500,750,1000,1250,1500,1750,2000,2250,2,0,1,0,0,0,0,0,0,0,0,0,0,-0.5,-0.5,-0.5,-0.5,-0.5,-0.5,-0.5,-0.5,-0.5,-0.5,-0.5,linear,100,0.025,0,0.5,TRUE,3,sepmodel,0.0261,1.1467410718611573e-4,0.00804338393682502,0,10000
10,250,0,250,500,750,1000,1250,1500,1750,2000,2250,2,0,1,0,0,0,0,0,0,0,0,0,0,-0.5,-0.5,-0.5,-0.5,-0.5,-0.5,-0.5,-0.5,-0.5,-0.5,-0.5,linear,100,0.025,0,0.5,TRUE,4,fixmodel,0.0279,-4.948112804969731e-4,0.0073656402579902035,0,10000
10,250,0,250,500,750,1000,1250,1500,1750,2000,2250,2,0,1,0,0,0,0,0,0,0,0,0,0,-0.5,-0.5,-0.5,-0.5,-0.5,-0.5,-0.5,-0.5,-0.5,-0.5,-0.5,linear,100,0.025,0,0.5,TRUE,4,poolmodel,0.0021,-0.07901411396892666,0.012292819529778514,0,10000
10,250,0,250,500,750,1000,1250,1500,1750,2000,2250,2,0,1,0,0,0,0,0,0,0,0,0,0,-0.5,-0.5,-0.5,-0.5,-0.5,-0.5,-0.5,-0.5,-0.5,-0.5,-0.5,linear,100,0.025,0,0.5,TRUE,4,sepmodel,0.0239,-7.459960339739618e-4,0.008102887428468451,0,10000
10,250,0,250,500,750,1000,1250,1500,1750,2000,2250,2,0,1,0,0,0,0,0,0,0,0,0,0,-0.5,-0.5,-0.5,-0.5,-0.5,-0.5,-0.5,-0.5,-0.5,-0.5,-0.5,linear,100,0.025,0,0.5,TRUE,5,fixmodel,0.0264,0.0011460899406848816,0.007262333121492148,0,10000
10,250,0,250,500,750,1000,1250,1500,1750,2000,2250,2,0,1,0,0,0,0,0,0,0,0,0,0,-0.5,-0.5,-0.5,-0.5,-0.5,-0.5,-0.5,-0.5,-0.5,-0.5,-0.5,linear,100,0.025,0,0.5,TRUE,5,poolmodel,5e-4,-0.10400889535895523,0.016607457132113652,0,10000
10,250,0,250,500,750,1000,1250,1500,1750,2000,2250,2,0,1,0,0,0,0,0,0,0,0,0,0,-0.5,-0.5,-0.5,-0.5,-0.5,-0.5,-0.5,-0.5,-0.5,-0.5,-0.5,linear,100,0.025,0,0.5,TRUE,5,sepmodel,0.0272,8.802018870110022e-4,0.008145976553745387,0,10000
10,250,0,250,500,750,1000,1250,1500,1750,2000,2250,2,0,1,0,0,0,0,0,0,0,0,0,0,-0.5,-0.5,-0.5,-0.5,-0.5,-0.5,-0.5,-0.5,-0.5,-0.5,-0.5,linear,100,0.025,0,0.5,TRUE,6,fixmodel,0.0253,0.001051275994089482,0.007066643684835177,0,10000
10,250,0,250,500,750,1000,1250,1500,1750,2000,2250,2,0,1,0,0,0,0,0,0,0,0,0,0,-0.5,-0.5,-0.5,-0.5,-0.5,-0.5,-0.5,-0.5,-0.5,-0.5,-0.5,linear,100,0.025,0,0.5,TRUE,6,poolmodel,0,-0.12900456417300823,0.022182449960865987,0,10000
10,250,0,250,500,750,1000,1250,1500,1750,2000,2250,2,0,1,0,0,0,0,0,0,0,0,0,0,-0.5,-0.5,-0.5,-0.5,-0.5,-0.5,-0.5,-0.5,-0.5,-0.5,-0.5,linear,100,0.025,0,0.5,TRUE,6,sepmodel,0.0249,9.370972313284821e-4,0.007981899546264378,0,10000
10,250,0,250,500,750,1000,1250,1500,1750,2000,2250,2,0,1,0,0,0,0,0,0,0,0,0,0,-0.5,-0.5,-0.5,-0.5,-0.5,-0.5,-0.5,-0.5,-0.5,-0.5,-0.5,linear,100,0.025,0,0.5,TRUE,7,fixmodel,0.0248,-9.356031486183471e-4,0.007071301223800544,0,10000
10,250,0,250,500,750,1000,1250,1500,1750,2000,2250,2,0,1,0,0,0,0,0,0,0,0,0,0,-0.5,-0.5,-0.5,-0.5,-0.5,-0.5,-0.5,-0.5,-0.5,-0.5,-0.5,linear,100,0.025,0,0.5,TRUE,7,poolmodel,0,-0.15491496688439552,0.029524467906697747,0,10000
10,250,0,250,500,750,1000,1250,1500,1750,2000,2250,2,0,1,0,0,0,0,0,0,0,0,0,0,-0.5,-0.5,-0.5,-0.5,-0.5,-0.5,-0.5,-0.5,-0.5,-0.5,-0.5,linear,100,0.025,0,0.5,TRUE,7,sepmodel,0.0236,-9.238489653825875e-4,0.008046355748182748,0,10000
10,250,0,250,500,750,1000,1250,1500,1750,2000,2250,2,0,1,0,0,0,0,0,0,0,0,0,0,-0.5,-0.5,-0.5,-0.5,-0.5,-0.5,-0.5,-0.5,-0.5,-0.5,-0.5,linear,100,0.025,0,0.5,TRUE,8,fixmodel,0.0274,-1.3832543432662148e-4,0.006986846482121136,0,10000
10,250,0,250,500,750,1000,1250,1500,1750,2000,2250,2,0,1,0,0,0,0,0,0,0,0,0,0,-0.5,-0.5,-0.5,-0.5,-0.5,-0.5,-0.5,-0.5,-0.5,-0.5,-0.5,linear,100,0.025,0,0.5,TRUE,8,poolmodel,0,-0.17616766491567343,0.03638590905776243,0,10000
10,250,0,250,500,750,1000,1250,1500,1750,2000,2250,2,0,1,0,0,0,0,0,0,0,0,0,0,-0.5,-0.5,-0.5,-0.5,-0.5,-0.5,-0.5,-0.5,-0.5,-0.5,-0.5,linear,100,0.025,0,0.5,TRUE,8,sepmodel,0.0257,-4.845796675543559e-4,0.008014387961574047,0,10000
10,250,0,250,500,750,1000,1250,1500,1750,2000,2250,2,0,1,0,0,0,0,0,0,0,0,0,0,-0.5,-0.5,-0.5,-0.5,-0.5,-0.5,-0.5,-0.5,-0.5,-0.5,-0.5,linear,100,0.025,0,0.5,TRUE,9,fixmodel,0.0279,4.8337159955963644e-4,0.00695668220088279,0,10000
10,250,0,250,500,750,1000,1250,1500,1750,2000,2250,2,0,1,0,0,0,0,0,0,0,0,0,0,-0.5,-0.5,-0.5,-0.5,-0.5,-0.5,-0.5,-0.5,-0.5,-0.5,-0.5,linear,100,0.025,0,0.5,TRUE,9,poolmodel,0,-0.19379178747216685,0.04285976103165387,0,10000
10,250,0,250,500,750,1000,1250,1500,1750,2000,2250,2,0,1,0,0,0,0,0,0,0,0,0,0,-0.5,-0.5,-0.5,-0.5,-0.5,-0.5,-0.5,-0.5,-0.5,-0.5,-0.5,linear,100,0.025,0,0.5,TRUE,9,sepmodel,0.0263,-1.2170341727991816e-4,0.008041767784352508,0,10000
10,250,0,250,500,750,1000,1250,1500,1750,2000,2250,2,0,1,0,0,0,0,0,0,0,0,0,0,-0.5,-0.5,-0.5,-0.5,-0.5,-0.5,-0.5,-0.5,-0.5,-0.5,-0.5,linear,100,0.025,0,0.5,TRUE,10,fixmodel,0.0257,-2.654796474760958e-4,0.0069954237855610855,0,10000
10,250,0,250,500,750,1000,1250,1500,1750,2000,2250,2,0,1,0,0,0,0,0,0,0,0,0,0,-0.5,-0.5,-0.5,-0.5,-0.5,-0.5,-0.5,-0.5,-0.5,-0.5,-0.5,linear,100,0.025,0,0.5,TRUE,10,poolmodel,0,-0.209333060229234,0.04909775188816702,0,10000
10,250,0,250,500,750,1000,1250,1500,1750,2000,2250,2,0,1,0,0,0,0,0,0,0,0,0,0,-0.5,-0.5,-0.5,-0.5,-0.5,-0.5,-0.5,-0.5,-0.5,-0.5,-0.5,linear,100,0.025,0,0.5,TRUE,10,sepmodel,0.0251,-0.0010652491705494926,0.008041056213647571,0,10000
10,250,0,275,550,825,1100,1375,1650,1925,2200,2475,2,0,1,0,0,0,0,0,0,0,0,0,0,-0.5,-0.5,-0.5,-0.5,-0.5,-0.5,-0.5,-0.5,-0.5,-0.5,-0.5,linear,100,0.025,0,0.5,TRUE,2,fixmodel,0.0231,-4.851159812640555e-5,0.007457601910053146,0,10000
10,250,0,275,550,825,1100,1375,1650,1925,2200,2475,2,0,1,0,0,0,0,0,0,0,0,0,0,-0.5,-0.5,-0.5,-0.5,-0.5,-0.5,-0.5,-0.5,-0.5,-0.5,-0.5,linear,100,0.025,0,0.5,TRUE,2,poolmodel,0.0083,-0.0283935353097398,0.007416979101924932,0,10000
10,250,0,275,550,825,1100,1375,1650,1925,2200,2475,2,0,1,0,0,0,0,0,0,0,0,0,0,-0.5,-0.5,-0.5,-0.5,-0.5,-0.5,-0.5,-0.5,-0.5,-0.5,-0.5,linear,100,0.025,0,0.5,TRUE,2,sepmodel,0.0244,-2.844029373859192e-4,0.008034162396356117,0,10000
10,250,0,275,550,825,1100,1375,1650,1925,2200,2475,2,0,1,0,0,0,0,0,0,0,0,0,0,-0.5,-0.5,-0.5,-0.5,-0.5,-0.5,-0.5,-0.5,-0.5,-0.5,-0.5,linear,100,0.025,0,0.5,TRUE,3,fixmodel,0.0239,-4.655166783862301e-4,0.007433913559237088,0,10000
10,250,0,275,550,825,1100,1375,1650,1925,2200,2475,2,0,1,0,0,0,0,0,0,0,0,0,0,-0.5,-0.5,-0.5,-0.5,-0.5,-0.5,-0.5,-0.5,-0.5,-0.5,-0.5,linear,100,0.025,0,0.5,TRUE,3,poolmodel,0.0043,-0.053826842419714326,0.009062281971250054,0,10000
10,250,0,275,550,825,1100,1375,1650,1925,2200,2475,2,0,1,0,0,0,0,0,0,0,0,0,0,-0.5,-0.5,-0.5,-0.5,-0.5,-0.5,-0.5,-0.5,-0.5,-0.5,-0.5,linear,100,0.025,0,0.5,TRUE,3,sepmodel,0.0239,-6.590866721442817e-4,0.00807639883166838,0,10000
10,250,0,275,550,825,1100,1375,1650,1925,2200,2475,2,0,1,0,0,0,0,0,0,0,0,0,0,-0.5,-0.5,-0.5,-0.5,-0.5,-0.5,-0.5,-0.5,-0.5,-0.5,-0.5,linear,100,0.025,0,0.5,TRUE,4,fixmodel,0.0249,5.016269048406846e-4,0.007160831522294509,0,10000
10,250,0,275,550,825,1100,1375,1650,1925,2200,2475,2,0,1,0,0,0,0,0,0,0,0,0,0,-0.5,-0.5,-0.5,-0.5,-0.5,-0.5,-0.5,-0.5,-0.5,-0.5,-0.5,linear,100,0.025,0,0.5,TRUE,4,poolmodel,0.0012,-0.07956035537364331,0.012099757753398643,0,10000
10,250,0,275,550,825,1100,1375,1650,1925,2200,2475,2,0,1,0,0,0,0,0,0,0,0,0,0,-0.5,-0.5,-0.5,-0.5,-0.5,-0.5,-0.5,-0.5,-0.5,-0.5,-0.5,linear,100,0.025,0,0.5,TRUE,4,sepmodel,0.0259,1.6717795478655544e-4,0.007941481684351947,0,10000
10,250,0,275,550,825,1100,1375,1650,1925,2200,2475,2,0,1,0,0,0,0,0,0,0,0,0,0,-0.5,-0.5,-0.5,-0.5,-0.5,-0.5,-0.5,-0.5,-0.5,-0.5,-0.5,linear,100,0.025,0,0.5,TRUE,5,fixmodel,0.0252,3.028932355341111e-4,0.007330179704062731,0,10000
10,250,0,275,550,825,1100,1375,1650,1925,2200,2475,2,0,1,0,0,0,0,0,0,0,0,0,0,-0.5,-0.5,-0.5,-0.5,-0.5,-0.5,-0.5,-0.5,-0.5,-0.5,-0.5,linear,100,0.025,0,0.5,TRUE,5,poolmodel,6e-4,-0.10428188679839762,0.016506770947128192,0,10000
10,250,0,275,550,825,1100,1375,1650,1925,2200,2475,2,0,1,0,0,0,0,0,0,0,0,0,0,-0.5,-0.5,-0.5,-0.5,-0.5,-0.5,-0.5,-0.5,-0.5,-0.5,-0.5,linear,100,0.025,0,0.5,TRUE,5,sepmodel,0.0253,-1.1662380833490425e-4,0.008093998546147618,0,10000
10,250,0,275,550,825,1100,1375,1650,1925,2200,2475,2,0,1,0,0,0,0,0,0,0,0,0,0,-0.5,-0.5,-0.5,-0.5,-0.5,-0.5,-0.5,-0.5,-0.5,-0.5,-0.5,linear,100,0.025,0,0.5,TRUE,6,fixmodel,0.0224,6.545475293658198e-4,0.007044200976379285,0,10000
10,250,0,275,550,825,1100,1375,1650,1925,2200,2475,2,0,1,0,0,0,0,0,0,0,0,0,0,-0.5,-0.5,-0.5,-0.5,-0.5,-0.5,-0.5,-0.5,-0.5,-0.5,-0.5,linear,100,0.025,0,0.5,TRUE,6,poolmodel,1e-4,-0.12968436895662264,0.022239911287963866,0,10000
10,250,0,275,550,825,1100,1375,1650,1925,2200,2475,2,0,1,0,0,0,0,0,0,0,0,0,0,-0.5,-0.5,-0.5,-0.5,-0.5,-0.5,-0.5,-0.5,-0.5,-0.5,-0.5,linear,100,0.025,0,0.5,TRUE,6,sepmodel,0.0236,2.5742187354031265e-4,0.007908626229434541,0,10000
10,250,0,275,550,825,1100,1375,1650,1925,2200,2475,2,0,1,0,0,0,0,0,0,0,0,0,0,-0.5,-0.5,-0.5,-0.5,-0.5,-0.5,-0.5,-0.5,-0.5,-0.5,-0.5,linear,100,0.025,0,0.5,TRUE,7,fixmodel,0.0268,9.168819447234959e-4,0.00703893336442635,0,10000
10,250,0,275,550,825,1100,1375,1650,1925,2200,2475,2,0,1,0,0,0,0,0,0,0,0,0,0,-0.5,-0.5,-0.5,-0.5,-0.5,-0.5,-0.5,-0.5,-0.5,-0.5,-0.5,linear,100,0.025,0,0.5,TRUE,7,poolmodel,0,-0.15496522085335868,0.029177241362245355,0,10000
10,250,0,275,550,825,1100,1375,1650,1925,2200,2475,2,0,1,0,0,0,0,0,0,0,0,0,0,-0.5,-0.5,-0.5,-0.5,-0.5,-0.5,-0.5,-0.5,-0.5,-0.5,-0.5,linear,100,0.025,0,0.5,TRUE,7,sepmodel,0.0261,6.99930601459559e-4,0.00799446811917413,0,10000
10,250,0,275,550,825,1100,1375,1650,1925,2200,2475,2,0,1,0,0,0,0,0,0,0,0,0,0,-0.5,-0.5,-0.5,-0.5,-0.5,-0.5,-0.5,-0.5,-0.5,-0.5,-0.5,linear,100,0.025,0,0.5,TRUE,8,fixmodel,0.025,8.080449159459053e-4,0.006928564906061116,0,10000
10,250,0,275,550,825,1100,1375,1650,1925,2200,2475,2,0,1,0,0,0,0,0,0,0,0,0,0,-0.5,-0.5,-0.5,-0.5,-0.5,-0.5,-0.5,-0.5,-0.5,-0.5,-0.5,linear,100,0.025,0,0.5,TRUE,8,poolmodel,0,-0.17790985830823694,0.03681528030709898,0,10000
10,250,0,275,550,825,1100,1375,1650,1925,2200,2475,2,0,1,0,0,0,0,0,0,0,0,0,0,-0.5,-0.5,-0.5,-0.5,-0.5,-0.5,-0.5,-0.5,-0.5,-0.5,-0.5,linear,100,0.025,0,0.5,TRUE,8,sepmodel,0.0249,5.253382334945825e-4,0.007970647731989819,0,10000
10,250,0,275,550,825,1100,1375,1650,1925,2200,2475,2,0,1,0,0,0,0,0,0,0,0,0,0,-0.5,-0.5,-0.5,-0.5,-0.5,-0.5,-0.5,-0.5,-0.5,-0.5,-0.5,linear,100,0.025,0,0.5,TRUE,9,fixmodel,0.0255,6.659596826865714e-4,0.00710493058154231,0,10000
10,250,0,275,550,825,1100,1375,1650,1925,2200,2475,2,0,1,0,0,0,0,0,0,0,0,0,0,-0.5,-0.5,-0.5,-0.5,-0.5,-0.5,-0.5,-0.5,-0.5,-0.5,-0.5,linear,100,0.025,0,0.5,TRUE,9,poolmodel,0,-0.19824563065028264,0.04441772404790996,0,10000
10,250,0,275,550,825,1100,1375,1650,1925,2200,2475,2,0,1,0,0,0,0,0,0,0,0,0,0,-0.5,-0.5,-0.5,-0.5,-0.5,-0.5,-0.5,-0.5,-0.5,-0.5,-0.5,linear,100,0.025,0,0.5,TRUE,9,sepmodel,0.0234,6.68970869684808e-4,0.008060633429250012,0,10000
10,250,0,275,550,825,1100,1375,1650,1925,2200,2475,2,0,1,0,0,0,0,0,0,0,0,0,0,-0.5,-0.5,-0.5,-0.5,-0.5,-0.5,-0.5,-0.5,-0.5,-0.5,-0.5,linear,100,0.025,0,0.5,TRUE,10,fixmodel,0.0262,5.747172010931213e-4,0.007020182500233357,0,10000
10,250,0,275,550,825,1100,1375,1650,1925,2200,2475,2,0,1,0,0,0,0,0,0,0,0,0,0,-0.5,-0.5,-0.5,-0.5,-0.5,-0.5,-0.5,-0.5,-0.5,-0.5,-0.5,linear,100,0.025,0,0.5,TRUE,10,poolmodel,0,-0.2145987835935018,0.051127723474330145,0,10000
10,250,0,275,550,825,1100,1375,1650,1925,2200,2475,2,0,1,0,0,0,0,0,0,0,0,0,0,-0.5,-0.5,-0.5,-0.5,-0.5,-0.5,-0.5,-0.5,-0.5,-0.5,-0.5,linear,100,0.025,0,0.5,TRUE,10,sepmodel,0.0268,6.782394781034831e-4,0.008065509685071267,0,10000
10,250,0,300,600,900,1200,1500,1800,2100,2400,2700,2,0,1,0,0,0,0,0,0,0,0,0,0,-0.5,-0.5,-0.5,-0.5,-0.5,-0.5,-0.5,-0.5,-0.5,-0.5,-0.5,linear,100,0.025,0,0.5,TRUE,2,fixmodel,0.0229,-8.246440417575205e-4,0.007329299902896148,0,10000
10,250,0,300,600,900,1200,1500,1800,2100,2400,2700,2,0,1,0,0,0,0,0,0,0,0,0,0,-0.5,-0.5,-0.5,-0.5,-0.5,-0.5,-0.5,-0.5,-0.5,-0.5,-0.5,linear,100,0.025,0,0.5,TRUE,2,poolmodel,0.0106,-0.02892855322226135,0.007314176310370037,0,10000
10,250,0,300,600,900,1200,1500,1800,2100,2400,2700,2,0,1,0,0,0,0,0,0,0,0,0,0,-0.5,-0.5,-0.5,-0.5,-0.5,-0.5,-0.5,-0.5,-0.5,-0.5,-0.5,linear,100,0.025,0,0.5,TRUE,2,sepmodel,0.0233,-9.723551673680353e-4,0.00788456318357739,0,10000
10,250,0,300,600,900,1200,1500,1800,2100,2400,2700,2,0,1,0,0,0,0,0,0,0,0,0,0,-0.5,-0.5,-0.5,-0.5,-0.5,-0.5,-0.5,-0.5,-0.5,-0.5,-0.5,linear,100,0.025,0,0.5,TRUE,3,fixmodel,0.0217,9.291940222519179e-4,0.0072945422501894406,0,10000
10,250,0,300,600,900,1200,1500,1800,2100,2400,2700,2,0,1,0,0,0,0,0,0,0,0,0,0,-0.5,-0.5,-0.5,-0.5,-0.5,-0.5,-0.5,-0.5,-0.5,-0.5,-0.5,linear,100,0.025,0,0.5,TRUE,3,poolmodel,0.0036,-0.05128466889968388,0.008535055156363726,0,10000
10,250,0,300,600,900,1200,1500,1800,2100,2400,2700,2,0,1,0,0,0,0,0,0,0,0,0,0,-0.5,-0.5,-0.5,-0.5,-0.5,-0.5,-0.5,-0.5,-0.5,-0.5,-0.5,linear,100,0.025,0,0.5,TRUE,3,sepmodel,0.0216,8.411847127856756e-4,0.007830346430767774,0,10000
10,250,0,300,600,900,1200,1500,1800,2100,2400,2700,2,0,1,0,0,0,0,0,0,0,0,0,0,-0.5,-0.5,-0.5,-0.5,-0.5,-0.5,-0.5,-0.5,-0.5,-0.5,-0.5,linear,100,0.025,0,0.5,TRUE,4,fixmodel,0.0266,5.308710002632466e-4,0.007370361074605899,0,10000
10,250,0,300,600,900,1200,1500,1800,2100,2400,2700,2,0,1,0,0,0,0,0,0,0,0,0,0,-0.5,-0.5,-0.5,-0.5,-0.5,-0.5,-0.5,-0.5,-0.5,-0.5,-0.5,linear,100,0.025,0,0.5,TRUE,4,poolmodel,9e-4,-0.07887668924358393,0.011987494959221722,0,10000
10,250,0,300,600,900,1200,1500,1800,2100,2400,2700,2,0,1,0,0,0,0,0,0,0,0,0,0,-0.5,-0.5,-0.5,-0.5,-0.5,-0.5,-0.5,-0.5,-0.5,-0.5,-0.5,linear,100,0.025,0,0.5,TRUE,4,sepmodel,0.0273,7.470921672762332e-4,0.00813154315712968,0,10000
10,250,0,300,600,900,1200,1500,1800,2100,2400,2700,2,0,1,0,0,0,0,0,0,0,0,0,0,-0.5,-0.5,-0.5,-0.5,-0.5,-0.5,-0.5,-0.5,-0.5,-0.5,-0.5,linear,100,0.025,0,0.5,TRUE,5,fixmodel,0.0239,8.998712444448683e-4,0.0070907271130434026,0,10000
10,250,0,300,600,900,1200,1500,1800,2100,2400,2700,2,0,1,0,0,0,0,0,0,0,0,0,0,-0.5,-0.5,-0.5,-0.5,-0.5,-0.5,-0.5,-0.5,-0.5,-0.5,-0.5,linear,100,0.025,0,0.5,TRUE,5,poolmodel,1e-4,-0.10366515300243899,0.016054125288889585,0,10000
10,250,0,300,600,900,1200,1500,1800,2100,2400,2700,2,0,1,0,0,0,0,0,0,0,0,0,0,-0.5,-0.5,-0.5,-0.5,-0.5,-0.5,-0.5,-0.5,-0.5,-0.5,-0.5,linear,100,0.025,0,0.5,TRUE,5,sepmodel,0.0231,4.998153796308722e-4,0.007936111173608594,0,10000
10,250,0,300,600,900,1200,1500,1800,2100,2400,2700,2,0,1,0,0,0,0,0,0,0,0,0,0,-0.5,-0.5,-0.5,-0.5,-0.5,-0.5,-0.5,-0.5,-0.5,-0.5,-0.5,linear,100,0.025,0,0.5,TRUE,6,fixmodel,0.0275,-4.262159102998132e-4,0.007329440317632385,0,10000
10,250,0,300,600,900,1200,1500,1800,2100,2400,2700,2,0,1,0,0,0,0,0,0,0,0,0,0,-0.5,-0.5,-0.5,-0.5,-0.5,-0.5,-0.5,-0.5,-0.5,-0.5,-0.5,linear,100,0.025,0,0.5,TRUE,6,poolmodel,2e-4,-0.12969528990876625,0.022225989188748078,0,10000
10,250,0,300,600,900,1200,1500,1800,2100,2400,2700,2,0,1,0,0,0,0,0,0,0,0,0,0,-0.5,-0.5,-0.5,-0.5,-0.5,-0.5,-0.5,-0.5,-0.5,-0.5,-0.5,linear,100,0.025,0,0.5,TRUE,6,sepmodel,0.0253,-5.30110416166233e-4,0.008144539038905014,0,10000
10,250,0,300,600,900,1200,1500,1800,2100,2400,2700,2,0,1,0,0,0,0,0,0,0,0,0,0,-0.5,-0.5,-0.5,-0.5,-0.5,-0.5,-0.5,-0.5,-0.5,-0.5,-0.5,linear,100,0.025,0,0.5,TRUE,7,fixmodel,0.0246,3.580102823107759e-4,0.007239788869467186,0,10000
10,250,0,300,600,900,1200,1500,1800,2100,2400,2700,2,0,1,0,0,0,0,0,0,0,0,0,0,-0.5,-0.5,-0.5,-0.5,-0.5,-0.5,-0.5,-0.5,-0.5,-0.5,-0.5,linear,100,0.025,0,0.5,TRUE,7,poolmodel,0,-0.154568396547321,0.029164274455793036,0,10000
10,250,0,300,600,900,1200,1500,1800,2100,2400,2700,2,0,1,0,0,0,0,0,0,0,0,0,0,-0.5,-0.5,-0.5,-0.5,-0.5,-0.5,-0.5,-0.5,-0.5,-0.5,-0.5,linear,100,0.025,0,0.5,TRUE,7,sepmodel,0.0251,3.022269461412646e-4,0.008087606268776302,0,10000
10,250,0,300,600,900,1200,1500,1800,2100,2400,2700,2,0,1,0,0,0,0,0,0,0,0,0,0,-0.5,-0.5,-0.5,-0.5,-0.5,-0.5,-0.5,-0.5,-0.5,-0.5,-0.5,linear,100,0.025,0,0.5,TRUE,8,fixmodel,0.0252,-6.23446754096517e-4,0.007132118046962605,0,10000
10,250,0,300,600,900,1200,1500,1800,2100,2400,2700,2,0,1,0,0,0,0,0,0,0,0,0,0,-0.5,-0.5,-0.5,-0.5,-0.5,-0.5,-0.5,-0.5,-0.5,-0.5,-0.5,linear,100,0.025,0,0.5,TRUE,8,poolmodel,0,-0.1799608154496603,0.037532949953678854,0,10000
10,250,0,300,600,900,1200,1500,1800,2100,2400,2700,2,0,1,0,0,0,0,0,0,0,0,0,0,-0.5,-0.5,-0.5,-0.5,-0.5,-0.5,-0.5,-0.5,-0.5,-0.5,-0.5,linear,100,0.025,0,0.5,TRUE,8,sepmodel,0.0224,-3.6433801280958176e-4,0.007983488157580206,0,10000
10,250,0,300,600,900,1200,1500,1800,2100,2400,2700,2,0,1,0,0,0,0,0,0,0,0,0,0,-0.5,-0.5,-0.5,-0.5,-0.5,-0.5,-0.5,-0.5,-0.5,-0.5,-0.5,linear,100,0.025,0,0.5,TRUE,9,fixmodel,0.0267,-1.643942024599523e-4,0.007133626683168783,0,10000
10,250,0,300,600,900,1200,1500,1800,2100,2400,2700,2,0,1,0,0,0,0,0,0,0,0,0,0,-0.5,-0.5,-0.5,-0.5,-0.5,-0.5,-0.5,-0.5,-0.5,-0.5,-0.5,linear,100,0.025,0,0.5,TRUE,9,poolmodel,0,-0.20059118504089526,0.045306136658750246,0,10000
10,250,0,300,600,900,1200,1500,1800,2100,2400,2700,2,0,1,0,0,0,0,0,0,0,0,0,0,-0.5,-0.5,-0.5,-0.5,-0.5,-0.5,-0.5,-0.5,-0.5,-0.5,-0.5,linear,100,0.025,0,0.5,TRUE,9,sepmodel,0.0279,-3.2455026205044584e-5,0.008053736479886449,0,10000
10,250,0,300,600,900,1200,1500,1800,2100,2400,2700,2,0,1,0,0,0,0,0,0,0,0,0,0,-0.5,-0.5,-0.5,-0.5,-0.5,-0.5,-0.5,-0.5,-0.5,-0.5,-0.5,linear,100,0.025,0,0.5,TRUE,10,fixmodel,0.0247,-3.245537001761876e-4,0.0069389837041647995,0,10000
10,250,0,300,600,900,1200,1500,1800,2100,2400,2700,2,0,1,0,0,0,0,0,0,0,0,0,0,-0.5,-0.5,-0.5,-0.5,-0.5,-0.5,-0.5,-0.5,-0.5,-0.5,-0.5,linear,100,0.025,0,0.5,TRUE,10,poolmodel,0,-0.21766616584138906,0.05223247104777274,0,10000
10,250,0,300,600,900,1200,1500,1800,2100,2400,2700,2,0,1,0,0,0,0,0,0,0,0,0,0,-0.5,-0.5,-0.5,-0.5,-0.5,-0.5,-0.5,-0.5,-0.5,-0.5,-0.5,linear,100,0.025,0,0.5,TRUE,10,sepmodel,0.0252,-3.2146459526637383e-4,0.007943404694933496,0,10000
10,250,0,325,650,975,1300,1625,1950,2275,2600,2925,2,0,1,0,0,0,0,0,0,0,0,0,0,-0.5,-0.5,-0.5,-0.5,-0.5,-0.5,-0.5,-0.5,-0.5,-0.5,-0.5,linear,100,0.025,0,0.5,TRUE,2,fixmodel,0.0278,0.0015615979174556929,0.007670531596012951,0,10000
10,250,0,325,650,975,1300,1625,1950,2275,2600,2925,2,0,1,0,0,0,0,0,0,0,0,0,0,-0.5,-0.5,-0.5,-0.5,-0.5,-0.5,-0.5,-0.5,-0.5,-0.5,-0.5,linear,100,0.025,0,0.5,TRUE,2,poolmodel,0.0114,-0.026740137238996545,0.00725386795102309,0,10000
10,250,0,325,650,975,1300,1625,1950,2275,2600,2925,2,0,1,0,0,0,0,0,0,0,0,0,0,-0.5,-0.5,-0.5,-0.5,-0.5,-0.5,-0.5,-0.5,-0.5,-0.5,-0.5,linear,100,0.025,0,0.5,TRUE,2,sepmodel,0.0281,0.0016887760669263068,0.008189133492661805,0,10000
10,250,0,325,650,975,1300,1625,1950,2275,2600,2925,2,0,1,0,0,0,0,0,0,0,0,0,0,-0.5,-0.5,-0.5,-0.5,-0.5,-0.5,-0.5,-0.5,-0.5,-0.5,-0.5,linear,100,0.025,0,0.5,TRUE,3,fixmodel,0.0265,0.0014808689900981365,0.007426935864875711,0,10000
10,250,0,325,650,975,1300,1625,1950,2275,2600,2925,2,0,1,0,0,0,0,0,0,0,0,0,0,-0.5,-0.5,-0.5,-0.5,-0.5,-0.5,-0.5,-0.5,-0.5,-0.5,-0.5,linear,100,0.025,0,0.5,TRUE,3,poolmodel,0.0051,-0.05158250995169856,0.008542070869236343,0,10000
10,250,0,325,650,975,1300,1625,1950,2275,2600,2925,2,0,1,0,0,0,0,0,0,0,0,0,0,-0.5,-0.5,-0.5,-0.5,-0.5,-0.5,-0.5,-0.5,-0.5,-0.5,-0.5,linear,100,0.025,0,0.5,TRUE,3,sepmodel,0.0273,0.0015220721198399008,0.008015045052176243,0,10000
10,250,0,325,650,975,1300,1625,1950,2275,2600,2925,2,0,1,0,0,0,0,0,0,0,0,0,0,-0.5,-0.5,-0.5,-0.5,-0.5,-0.5,-0.5,-0.5,-0.5,-0.5,-0.5,linear,100,0.025,0,0.5,TRUE,4,fixmodel,0.0258,8.355339421551372e-4,0.0074160716280610925,0,10000
10,250,0,325,650,975,1300,1625,1950,2275,2600,2925,2,0,1,0,0,0,0,0,0,0,0,0,0,-0.5,-0.5,-0.5,-0.5,-0.5,-0.5,-0.5,-0.5,-0.5,-0.5,-0.5,linear,100,0.025,0,0.5,TRUE,4,poolmodel,0.0012,-0.07831783965246374,0.011694019237773006,0,10000
10,250,0,325,650,975,1300,1625,1950,2275,2600,2925,2,0,1,0,0,0,0,0,0,0,0,0,0,-0.5,-0.5,-0.5,-0.5,-0.5,-0.5,-0.5,-0.5,-0.5,-0.5,-0.5,linear,100,0.025,0,0.5,TRUE,4,sepmodel,0.0243,5.427437889654454e-4,0.00809395948375611,0,10000
10,250,0,325,650,975,1300,1625,1950,2275,2600,2925,2,0,1,0,0,0,0,0,0,0,0,0,0,-0.5,-0.5,-0.5,-0.5,-0.5,-0.5,-0.5,-0.5,-0.5,-0.5,-0.5,linear,100,0.025,0,0.5,TRUE,5,fixmodel,0.0237,4.344524364799348e-4,0.007130958673958013,0,10000
10,250,0,325,650,975,1300,1625,1950,2275,2600,2925,2,0,1,0,0,0,0,0,0,0,0,0,0,-0.5,-0.5,-0.5,-0.5,-0.5,-0.5,-0.5,-0.5,-0.5,-0.5,-0.5,linear,100,0.025,0,0.5,TRUE,5,poolmodel,4e-4,-0.10368303132565865,0.016026649402305717,0,10000
10,250,0,325,650,975,1300,1625,1950,2275,2600,2925,2,0,1,0,0,0,0,0,0,0,0,0,0,-0.5,-0.5,-0.5,-0.5,-0.5,-0.5,-0.5,-0.5,-0.5,-0.5,-0.5,linear,100,0.025,0,0.5,TRUE,5,sepmodel,0.022,1.1097086818867792e-4,0.007821991822005063,0,10000
10,250,0,325,650,975,1300,1625,1950,2275,2600,2925,2,0,1,0,0,0,0,0,0,0,0,0,0,-0.5,-0.5,-0.5,-0.5,-0.5,-0.5,-0.5,-0.5,-0.5,-0.5,-0.5,linear,100,0.025,0,0.5,TRUE,6,fixmodel,0.0223,-0.0011501370533604492,0.007050588626704497,0,10000
10,250,0,325,650,975,1300,1625,1950,2275,2600,2925,2,0,1,0,0,0,0,0,0,0,0,0,0,-0.5,-0.5,-0.5,-0.5,-0.5,-0.5,-0.5,-0.5,-0.5,-0.5,-0.5,linear,100,0.025,0,0.5,TRUE,6,poolmodel,0,-0.13007351644542192,0.02196129686178129,0,10000
10,250,0,325,650,975,1300,1625,1950,2275,2600,2925,2,0,1,0,0,0,0,0,0,0,0,0,0,-0.5,-0.5,-0.5,-0.5,-0.5,-0.5,-0.5,-0.5,-0.5,-0.5,-0.5,linear,100,0.025,0,0.5,TRUE,6,sepmodel,0.0227,-0.0016440863115090901,0.007873542553390825,0,10000
10,250,0,325,650,975,1300,1625,1950,2275,2600,2925,2,0,1,0,0,0,0,0,0,0,0,0,0,-0.5,-0.5,-0.5,-0.5,-0.5,-0.5,-0.5,-0.5,-0.5,-0.5,-0.5,linear,100,0.025,0,0.5,TRUE,7,fixmodel,0.0245,-0.0014540395477247402,0.00721873665388787,0,10000
10,250,0,325,650,975,1300,1625,1950,2275,2600,2925,2,0,1,0,0,0,0,0,0,0,0,0,0,-0.5,-0.5,-0.5,-0.5,-0.5,-0.5,-0.5,-0.5,-0.5,-0.5,-0.5,linear,100,0.025,0,0.5,TRUE,7,poolmodel,0,-0.15480095223097054,0.029099299172593955,0,10000
10,250,0,325,650,975,1300,1625,1950,2275,2600,2925,2,0,1,0,0,0,0,0,0,0,0,0,0,-0.5,-0.5,-0.5,-0.5,-0.5,-0.5,-0.5,-0.5,-0.5,-0.5,-0.5,linear,100,0.025,0,0.5,TRUE,7,sepmodel,0.025,-0.001667809287939783,0.007999031269706873,0,10000
10,250,0,325,650,975,1300,1625,1950,2275,2600,2925,2,0,1,0,0,0,0,0,0,0,0,0,0,-0.5,-0.5,-0.5,-0.5,-0.5,-0.5,-0.5,-0.5,-0.5,-0.5,-0.5,linear,100,0.025,0,0.5,TRUE,8,fixmodel,0.026,-3.6249286224558847e-4,0.007225461414192228,0,10000
10,250,0,325,650,975,1300,1625,1950,2275,2600,2925,2,0,1,0,0,0,0,0,0,0,0,0,0,-0.5,-0.5,-0.5,-0.5,-0.5,-0.5,-0.5,-0.5,-0.5,-0.5,-0.5,linear,100,0.025,0,0.5,TRUE,8,poolmodel,0,-0.1788485586582447,0.03698900312257613,0,10000
10,250,0,325,650,975,1300,1625,1950,2275,2600,2925,2,0,1,0,0,0,0,0,0,0,0,0,0,-0.5,-0.5,-0.5,-0.5,-0.5,-0.5,-0.5,-0.5,-0.5,-0.5,-0.5,linear,100,0.025,0,0.5,TRUE,8,sepmodel,0.0269,-2.691341092110867e-4,0.008086680219365023,0,10000
10,250,0,325,650,975,1300,1625,1950,2275,2600,2925,2,0,1,0,0,0,0,0,0,0,0,0,0,-0.5,-0.5,-0.5,-0.5,-0.5,-0.5,-0.5,-0.5,-0.5,-0.5,-0.5,linear,100,0.025,0,0.5,TRUE,9,fixmodel,0.0237,3.8814374305679413e-4,0.007039479032102108,0,10000
10,250,0,325,650,975,1300,1625,1950,2275,2600,2925,2,0,1,0,0,0,0,0,0,0,0,0,0,-0.5,-0.5,-0.5,-0.5,-0.5,-0.5,-0.5,-0.5,-0.5,-0.5,-0.5,linear,100,0.025,0,0.5,TRUE,9,poolmodel,0,-0.20122498895032506,0.04528641743776913,0,10000
10,250,0,325,650,975,1300,1625,1950,2275,2600,2925,2,0,1,0,0,0,0,0,0,0,0,0,0,-0.5,-0.5,-0.5,-0.5,-0.5,-0.5,-0.5,-0.5,-0.5,-0.5,-0.5,linear,100,0.025,0,0.5,TRUE,9,sepmodel,0.0253,7.67754099641438e-4,0.007948635126962467,0,10000
10,250,0,325,650,975,1300,1625,1950,2275,2600,2925,2,0,1,0,0,0,0,0,0,0,0,0,0,-0.5,-0.5,-0.5,-0.5,-0.5,-0.5,-0.5,-0.5,-0.5,-0.5,-0.5,linear,100,0.025,0,0.5,TRUE,10,fixmodel,0.024,4.960334787830821e-4,0.007072969321536194,0,10000
10,250,0,325,650,975,1300,1625,1950,2275,2600,2925,2,0,1,0,0,0,0,0,0,0,0,0,0,-0.5,-0.5,-0.5,-0.5,-0.5,-0.5,-0.5,-0.5,-0.5,-0.5,-0.5,linear,100,0.025,0,0.5,TRUE,10,poolmodel,0,-0.21940464599181125,0.05292794483630771,0,10000
10,250,0,325,650,975,1300,1625,1950,2275,2600,2925,2,0,1,0,0,0,0,0,0,0,0,0,0,-0.5,-0.5,-0.5,-0.5,-0.5,-0.5,-0.5,-0.5,-0.5,-0.5,-0.5,linear,100,0.025,0,0.5,TRUE,10,sepmodel,0.0241,0.0010331480256409655,0.007818362858151321,0,10000
10,250,0,350,700,1050,1400,1750,2100,2450,2800,3150,2,0,1,0,0,0,0,0,0,0,0,0,0,-0.5,-0.5,-0.5,-0.5,-0.5,-0.5,-0.5,-0.5,-0.5,-0.5,-0.5,linear,100,0.025,0,0.5,TRUE,2,fixmodel,0.0264,8.466891807265804e-5,0.007695719690776574,0,10000
10,250,0,350,700,1050,1400,1750,2100,2450,2800,3150,2,0,1,0,0,0,0,0,0,0,0,0,0,-0.5,-0.5,-0.5,-0.5,-0.5,-0.5,-0.5,-0.5,-0.5,-0.5,-0.5,linear,100,0.025,0,0.5,TRUE,2,poolmodel,0.0114,-0.027231331130787805,0.007250643614845956,0,10000
10,250,0,350,700,1050,1400,1750,2100,2450,2800,3150,2,0,1,0,0,0,0,0,0,0,0,0,0,-0.5,-0.5,-0.5,-0.5,-0.5,-0.5,-0.5,-0.5,-0.5,-0.5,-0.5,linear,100,0.025,0,0.5,TRUE,2,sepmodel,0.0273,-1.5310715018828941e-4,0.008158277890536735,0,10000
10,250,0,350,700,1050,1400,1750,2100,2450,2800,3150,2,0,1,0,0,0,0,0,0,0,0,0,0,-0.5,-0.5,-0.5,-0.5,-0.5,-0.5,-0.5,-0.5,-0.5,-0.5,-0.5,linear,100,0.025,0,0.5,TRUE,3,fixmodel,0.0248,-4.7736942475424973e-4,0.007344867682768937,0,10000
10,250,0,350,700,1050,1400,1750,2100,2450,2800,3150,2,0,1,0,0,0,0,0,0,0,0,0,0,-0.5,-0.5,-0.5,-0.5,-0.5,-0.5,-0.5,-0.5,-0.5,-0.5,-0.5,linear,100,0.025,0,0.5,TRUE,3,poolmodel,0.0039,-0.053765702412835195,0.00865282392433243,0,10000
10,250,0,350,700,1050,1400,1750,2100,2450,2800,3150,2,0,1,0,0,0,0,0,0,0,0,0,0,-0.5,-0.5,-0.5,-0.5,-0.5,-0.5,-0.5,-0.5,-0.5,-0.5,-0.5,linear,100,0.025,0,0.5,TRUE,3,sepmodel,0.0259,-0.0012588730821321205,0.007931755816041395,0,10000
10,250,0,350,700,1050,1400,1750,2100,2450,2800,3150,2,0,1,0,0,0,0,0,0,0,0,0,0,-0.5,-0.5,-0.5,-0.5,-0.5,-0.5,-0.5,-0.5,-0.5,-0.5,-0.5,linear,100,0.025,0,0.5,TRUE,4,fixmodel,0.0265,0.0012056433893437937,0.007278846055608134,0,10000
10,250,0,350,700,1050,1400,1750,2100,2450,2800,3150,2,0,1,0,0,0,0,0,0,0,0,0,0,-0.5,-0.5,-0.5,-0.5,-0.5,-0.5,-0.5,-0.5,-0.5,-0.5,-0.5,linear,100,0.025,0,0.5,TRUE,4,poolmodel,0.0012,-0.07740891312635427,0.011288854163314944,0,10000
10,250,0,350,700,1050,1400,1750,2100,2450,2800,3150,2,0,1,0,0,0,0,0,0,0,0,0,0,-0.5,-0.5,-0.5,-0.5,-0.5,-0.5,-0.5,-0.5,-0.5,-0.5,-0.5,linear,100,0.025,0,0.5,TRUE,4,sepmodel,0.0245,9.385792280395006e-4,0.007852613095756853,0,10000
10,250,0,350,700,1050,1400,1750,2100,2450,2800,3150,2,0,1,0,0,0,0,0,0,0,0,0,0,-0.5,-0.5,-0.5,-0.5,-0.5,-0.5,-0.5,-0.5,-0.5,-0.5,-0.5,linear,100,0.025,0,0.5,TRUE,5,fixmodel,0.0257,-8.883199487647816e-4,0.007199475197753432,0,10000
10,250,0,350,700,1050,1400,1750,2100,2450,2800,3150,2,0,1,0,0,0,0,0,0,0,0,0,0,-0.5,-0.5,-0.5,-0.5,-0.5,-0.5,-0.5,-0.5,-0.5,-0.5,-0.5,linear,100,0.025,0,0.5,TRUE,5,poolmodel,1e-4,-0.10411628391212549,0.015976260038569046,0,10000
10,250,0,350,700,1050,1400,1750,2100,2450,2800,3150,2,0,1,0,0,0,0,0,0,0,0,0,0,-0.5,-0.5,-0.5,-0.5,-0.5,-0.5,-0.5,-0.5,-0.5,-0.5,-0.5,linear,100,0.025,0,0.5,TRUE,5,sepmodel,0.025,-7.81599931910739e-4,0.00790049174110124,0,10000
10,250,0,350,700,1050,1400,1750,2100,2450,2800,3150,2,0,1,0,0,0,0,0,0,0,0,0,0,-0.5,-0.5,-0.5,-0.5,-0.5,-0.5,-0.5,-0.5,-0.5,-0.5,-0.5,linear,100,0.025,0,0.5,TRUE,6,fixmodel,0.028,5.55117969739065e-4,0.007417723295263093,0,10000
10,250,0,350,700,1050,1400,1750,2100,2450,2800,3150,2,0,1,0,0,0,0,0,0,0,0,0,0,-0.5,-0.5,-0.5,-0.5,-0.5,-0.5,-0.5,-0.5,-0.5,-0.5,-0.5,linear,100,0.025,0,0.5,TRUE,6,poolmodel,1e-4,-0.12790991237645302,0.021635702888658473,0,10000
10,250,0,350,700,1050,1400,1750,2100,2450,2800,3150,2,0,1,0,0,0,0,0,0,0,0,0,0,-0.5,-0.5,-0.5,-0.5,-0.5,-0.5,-0.5,-0.5,-0.5,-0.5,-0.5,linear,100,0.025,0,0.5,TRUE,6,sepmodel,0.0273,-8.236696277267322e-5,0.0081200616652427,0,10000
10,250,0,350,700,1050,1400,1750,2100,2450,2800,3150,2,0,1,0,0,0,0,0,0,0,0,0,0,-0.5,-0.5,-0.5,-0.5,-0.5,-0.5,-0.5,-0.5,-0.5,-0.5,-0.5,linear,100,0.025,0,0.5,TRUE,7,fixmodel,0.0232,-9.532191432246361e-5,0.007230774871337278,0,10000
10,250,0,350,700,1050,1400,1750,2100,2450,2800,3150,2,0,1,0,0,0,0,0,0,0,0,0,0,-0.5,-0.5,-0.5,-0.5,-0.5,-0.5,-0.5,-0.5,-0.5,-0.5,-0.5,linear,100,0.025,0,0.5,TRUE,7,poolmodel,0,-0.1535769174155362,0.028489089790928665,0,10000
10,250,0,350,700,1050,1400,1750,2100,2450,2800,3150,2,0,1,0,0,0,0,0,0,0,0,0,0,-0.5,-0.5,-0.5,-0.5,-0.5,-0.5,-0.5,-0.5,-0.5,-0.5,-0.5,linear,100,0.025,0,0.5,TRUE,7,sepmodel,0.0228,-1.5857197706642767e-4,0.00789085892298434,0,10000
10,250,0,350,700,1050,1400,1750,2100,2450,2800,3150,2,0,1,0,0,0,0,0,0,0,0,0,0,-0.5,-0.5,-0.5,-0.5,-0.5,-0.5,-0.5,-0.5,-0.5,-0.5,-0.5,linear,100,0.025,0,0.5,TRUE,8,fixmodel,0.0231,-0.002380283670125214,0.007315408719437448,0,10000
10,250,0,350,700,1050,1400,1750,2100,2450,2800,3150,2,0,1,0,0,0,0,0,0,0,0,0,0,-0.5,-0.5,-0.5,-0.5,-0.5,-0.5,-0.5,-0.5,-0.5,-0.5,-0.5,linear,100,0.025,0,0.5,TRUE,8,poolmodel,0,-0.1798220312292174,0.03718455674300844,0,10000
10,250,0,350,700,1050,1400,1750,2100,2450,2800,3150,2,0,1,0,0,0,0,0,0,0,0,0,0,-0.5,-0.5,-0.5,-0.5,-0.5,-0.5,-0.5,-0.5,-0.5,-0.5,-0.5,linear,100,0.025,0,0.5,TRUE,8,sepmodel,0.0246,-0.002498204125443759,0.008086602699825548,0,10000
10,250,0,350,700,1050,1400,1750,2100,2450,2800,3150,2,0,1,0,0,0,0,0,0,0,0,0,0,-0.5,-0.5,-0.5,-0.5,-0.5,-0.5,-0.5,-0.5,-0.5,-0.5,-0.5,linear,100,0.025,0,0.5,TRUE,9,fixmodel,0.0246,-0.0010614529866183702,0.00731527380077946,0,10000
10,250,0,350,700,1050,1400,1750,2100,2450,2800,3150,2,0,1,0,0,0,0,0,0,0,0,0,0,-0.5,-0.5,-0.5,-0.5,-0.5,-0.5,-0.5,-0.5,-0.5,-0.5,-0.5,linear,100,0.025,0,0.5,TRUE,9,poolmodel,0,-0.20267091286213723,0.045949416131087974,0,10000
10,250,0,350,700,1050,1400,1750,2100,2450,2800,3150,2,0,1,0,0,0,0,0,0,0,0,0,0,-0.5,-0.5,-0.5,-0.5,-0.5,-0.5,-0.5,-0.5,-0.5,-0.5,-0.5,linear,100,0.025,0,0.5,TRUE,9,sepmodel,0.0233,-0.0013918445009201091,0.007997954337978772,0,10000
10,250,0,350,700,1050,1400,1750,2100,2450,2800,3150,2,0,1,0,0,0,0,0,0,0,0,0,0,-0.5,-0.5,-0.5,-0.5,-0.5,-0.5,-0.5,-0.5,-0.5,-0.5,-0.5,linear,100,0.025,0,0.5,TRUE,10,fixmodel,0.0234,-2.646789535194336e-4,0.0072084318589048044,0,10000
10,250,0,350,700,1050,1400,1750,2100,2450,2800,3150,2,0,1,0,0,0,0,0,0,0,0,0,0,-0.5,-0.5,-0.5,-0.5,-0.5,-0.5,-0.5,-0.5,-0.5,-0.5,-0.5,linear,100,0.025,0,0.5,TRUE,10,poolmodel,0,-0.2212950724522163,0.053717318374920914,0,10000
10,250,0,350,700,1050,1400,1750,2100,2450,2800,3150,2,0,1,0,0,0,0,0,0,0,0,0,0,-0.5,-0.5,-0.5,-0.5,-0.5,-0.5,-0.5,-0.5,-0.5,-0.5,-0.5,linear,100,0.025,0,0.5,TRUE,10,sepmodel,0.0239,-1.9563390549820432e-4,0.007954654716401952,0,10000
10,250,0,375,750,1125,1500,1875,2250,2625,3000,3375,2,0,1,0,0,0,0,0,0,0,0,0,0,-0.5,-0.5,-0.5,-0.5,-0.5,-0.5,-0.5,-0.5,-0.5,-0.5,-0.5,linear,100,0.025,0,0.5,TRUE,2,fixmodel,0.0209,-8.597632182272276e-4,0.007369510945551355,0,10000
10,250,0,375,750,1125,1500,1875,2250,2625,3000,3375,2,0,1,0,0,0,0,0,0,0,0,0,0,-0.5,-0.5,-0.5,-0.5,-0.5,-0.5,-0.5,-0.5,-0.5,-0.5,-0.5,linear,100,0.025,0,0.5,TRUE,2,poolmodel,0.0091,-0.028215045967987677,0.006959670879142477,0,10000
10,250,0,375,750,1125,1500,1875,2250,2625,3000,3375,2,0,1,0,0,0,0,0,0,0,0,0,0,-0.5,-0.5,-0.5,-0.5,-0.5,-0.5,-0.5,-0.5,-0.5,-0.5,-0.5,linear,100,0.025,0,0.5,TRUE,2,sepmodel,0.0227,-0.0011687041487090913,0.007792390755560146,0,10000
10,250,0,375,750,1125,1500,1875,2250,2625,3000,3375,2,0,1,0,0,0,0,0,0,0,0,0,0,-0.5,-0.5,-0.5,-0.5,-0.5,-0.5,-0.5,-0.5,-0.5,-0.5,-0.5,linear,100,0.025,0,0.5,TRUE,3,fixmodel,0.0255,-4.0323153735507346e-4,0.007491066624868891,0,10000
10,250,0,375,750,1125,1500,1875,2250,2625,3000,3375,2,0,1,0,0,0,0,0,0,0,0,0,0,-0.5,-0.5,-0.5,-0.5,-0.5,-0.5,-0.5,-0.5,-0.5,-0.5,-0.5,linear,100,0.025,0,0.5,TRUE,3,poolmodel,0.0034,-0.05401874131606251,0.008565739909591192,0,10000
10,250,0,375,750,1125,1500,1875,2250,2625,3000,3375,2,0,1,0,0,0,0,0,0,0,0,0,0,-0.5,-0.5,-0.5,-0.5,-0.5,-0.5,-0.5,-0.5,-0.5,-0.5,-0.5,linear,100,0.025,0,0.5,TRUE,3,sepmodel,0.026,-7.37579495355195e-4,0.008068740411089403,0,10000
10,250,0,375,750,1125,1500,1875,2250,2625,3000,3375,2,0,1,0,0,0,0,0,0,0,0,0,0,-0.5,-0.5,-0.5,-0.5,-0.5,-0.5,-0.5,-0.5,-0.5,-0.5,-0.5,linear,100,0.025,0,0.5,TRUE,4,fixmodel,0.023,-7.380633270389033e-4,0.007125767093267433,0,10000
10,250,0,375,750,1125,1500,1875,2250,2625,3000,3375,2,0,1,0,0,0,0,0,0,0,0,0,0,-0.5,-0.5,-0.5,-0.5,-0.5,-0.5,-0.5,-0.5,-0.5,-0.5,-0.5,linear,100,0.025,0,0.5,TRUE,4,poolmodel,8e-4,-0.07953734895278816,0.011435564571029126,0,10000
10,250,0,375,750,1125,1500,1875,2250,2625,3000,3375,2,0,1,0,0,0,0,0,0,0,0,0,0,-0.5,-0.5,-0.5,-0.5,-0.5,-0.5,-0.5,-0.5,-0.5,-0.5,-0.5,linear,100,0.025,0,0.5,TRUE,4,sepmodel,0.0234,-8.462032981237595e-4,0.007756073684902029,0,10000
10,250,0,375,750,1125,1500,1875,2250,2625,3000,3375,2,0,1,0,0,0,0,0,0,0,0,0,0,-0.5,-0.5,-0.5,-0.5,-0.5,-0.5,-0.5,-0.5,-0.5,-0.5,-0.5,linear,100,0.025,0,0.5,TRUE,5,fixmodel,0.0256,6.348633282843566e-4,0.007421143756939008,0,10000
10,250,0,375,750,1125,1500,1875,2250,2625,3000,3375,2,0,1,0,0,0,0,0,0,0,0,0,0,-0.5,-0.5,-0.5,-0.5,-0.5,-0.5,-0.5,-0.5,-0.5,-0.5,-0.5,linear,100,0.025,0,0.5,TRUE,5,poolmodel,2e-4,-0.10291343051024901,0.015726430327135818,0,10000
10,250,0,375,750,1125,1500,1875,2250,2625,3000,3375,2,0,1,0,0,0,0,0,0,0,0,0,0,-0.5,-0.5,-0.5,-0.5,-0.5,-0.5,-0.5,-0.5,-0.5,-0.5,-0.5,linear,100,0.025,0,0.5,TRUE,5,sepmodel,0.0259,6.605980637566427e-4,0.007968939836333483,0,10000
10,250,0,375,750,1125,1500,1875,2250,2625,3000,3375,2,0,1,0,0,0,0,0,0,0,0,0,0,-0.5,-0.5,-0.5,-0.5,-0.5,-0.5,-0.5,-0.5,-0.5,-0.5,-0.5,linear,100,0.025,0,0.5,TRUE,6,fixmodel,0.0253,2.7189027017313647e-4,0.007248388286323798,0,10000
10,250,0,375,750,1125,1500,1875,2250,2625,3000,3375,2,0,1,0,0,0,0,0,0,0,0,0,0,-0.5,-0.5,-0.5,-0.5,-0.5,-0.5,-0.5,-0.5,-0.5,-0.5,-0.5,linear,100,0.025,0,0.5,TRUE,6,poolmodel,1e-4,-0.12839020089489683,0.021417410299860648,0,10000
10,250,0,375,750,1125,1500,1875,2250,2625,3000,3375,2,0,1,0,0,0,0,0,0,0,0,0,0,-0.5,-0.5,-0.5,-0.5,-0.5,-0.5,-0.5,-0.5,-0.5,-0.5,-0.5,linear,100,0.025,0,0.5,TRUE,6,sepmodel,0.0246,5.791720111391261e-4,0.00781775143019087,0,10000
10,250,0,375,750,1125,1500,1875,2250,2625,3000,3375,2,0,1,0,0,0,0,0,0,0,0,0,0,-0.5,-0.5,-0.5,-0.5,-0.5,-0.5,-0.5,-0.5,-0.5,-0.5,-0.5,linear,100,0.025,0,0.5,TRUE,7,fixmodel,0.0235,-0.0012425935171331997,0.007373737787890671,0,10000
10,250,0,375,750,1125,1500,1875,2250,2625,3000,3375,2,0,1,0,0,0,0,0,0,0,0,0,0,-0.5,-0.5,-0.5,-0.5,-0.5,-0.5,-0.5,-0.5,-0.5,-0.5,-0.5,linear,100,0.025,0,0.5,TRUE,7,poolmodel,1e-4,-0.15413550099645154,0.0285669761210548,0,10000
10,250,0,375,750,1125,1500,1875,2250,2625,3000,3375,2,0,1,0,0,0,0,0,0,0,0,0,0,-0.5,-0.5,-0.5,-0.5,-0.5,-0.5,-0.5,-0.5,-0.5,-0.5,-0.5,linear,100,0.025,0,0.5,TRUE,7,sepmodel,0.0235,-0.001346396365763709,0.00796632228619447,0,10000
10,250,0,375,750,1125,1500,1875,2250,2625,3000,3375,2,0,1,0,0,0,0,0,0,0,0,0,0,-0.5,-0.5,-0.5,-0.5,-0.5,-0.5,-0.5,-0.5,-0.5,-0.5,-0.5,linear,100,0.025,0,0.5,TRUE,8,fixmodel,0.0272,4.980607215317264e-5,0.007542807927981113,0,10000
10,250,0,375,750,1125,1500,1875,2250,2625,3000,3375,2,0,1,0,0,0,0,0,0,0,0,0,0,-0.5,-0.5,-0.5,-0.5,-0.5,-0.5,-0.5,-0.5,-0.5,-0.5,-0.5,linear,100,0.025,0,0.5,TRUE,8,poolmodel,0,-0.17792469303816416,0.03655983601567041,0,10000
10,250,0,375,750,1125,1500,1875,2250,2625,3000,3375,2,0,1,0,0,0,0,0,0,0,0,0,0,-0.5,-0.5,-0.5,-0.5,-0.5,-0.5,-0.5,-0.5,-0.5,-0.5,-0.5,linear,100,0.025,0,0.5,TRUE,8,sepmodel,0.0265,-1.6074071688655726e-4,0.008035467283389804,0,10000
10,250,0,375,750,1125,1500,1875,2250,2625,3000,3375,2,0,1,0,0,0,0,0,0,0,0,0,0,-0.5,-0.5,-0.5,-0.5,-0.5,-0.5,-0.5,-0.5,-0.5,-0.5,-0.5,linear,100,0.025,0,0.5,TRUE,9,fixmodel,0.0259,-4.5925278754119486e-4,0.007436188081750289,0,10000
10,250,0,375,750,1125,1500,1875,2250,2625,3000,3375,2,0,1,0,0,0,0,0,0,0,0,0,0,-0.5,-0.5,-0.5,-0.5,-0.5,-0.5,-0.5,-0.5,-0.5,-0.5,-0.5,linear,100,0.025,0,0.5,TRUE,9,poolmodel,0,-0.20271676403462977,0.045755575970684685,0,10000
10,250,0,375,750,1125,1500,1875,2250,2625,3000,3375,2,0,1,0,0,0,0,0,0,0,0,0,0,-0.5,-0.5,-0.5,-0.5,-0.5,-0.5,-0.5,-0.5,-0.5,-0.5,-0.5,linear,100,0.025,0,0.5,TRUE,9,sepmodel,0.0252,-5.029491963542232e-4,0.008045253393869523,0,10000
10,250,0,375,750,1125,1500,1875,2250,2625,3000,3375,2,0,1,0,0,0,0,0,0,0,0,0,0,-0.5,-0.5,-0.5,-0.5,-0.5,-0.5,-0.5,-0.5,-0.5,-0.5,-0.5,linear,100,0.025,0,0.5,TRUE,10,fixmodel,0.0253,1.2624567513139494e-4,0.007596984898550243,0,10000
10,250,0,375,750,1125,1500,1875,2250,2625,3000,3375,2,0,1,0,0,0,0,0,0,0,0,0,0,-0.5,-0.5,-0.5,-0.5,-0.5,-0.5,-0.5,-0.5,-0.5,-0.5,-0.5,linear,100,0.025,0,0.5,TRUE,10,poolmodel,0,-0.2229915772272067,0.05447223292348012,0,10000
10,250,0,375,750,1125,1500,1875,2250,2625,3000,3375,2,0,1,0,0,0,0,0,0,0,0,0,0,-0.5,-0.5,-0.5,-0.5,-0.5,-0.5,-0.5,-0.5,-0.5,-0.5,-0.5,linear,100,0.025,0,0.5,TRUE,10,sepmodel,0.024,-1.462867979352479e-4,0.00810755568388466,0,10000
10,250,0,400,800,1200,1600,2000,2400,2800,3200,3600,2,0,1,0,0,0,0,0,0,0,0,0,0,-0.5,-0.5,-0.5,-0.5,-0.5,-0.5,-0.5,-0.5,-0.5,-0.5,-0.5,linear,100,0.025,0,0.5,TRUE,2,fixmodel,0.0241,-0.001121003188017914,0.007587952284415286,0,10000
10,250,0,400,800,1200,1600,2000,2400,2800,3200,3600,2,0,1,0,0,0,0,0,0,0,0,0,0,-0.5,-0.5,-0.5,-0.5,-0.5,-0.5,-0.5,-0.5,-0.5,-0.5,-0.5,linear,100,0.025,0,0.5,TRUE,2,poolmodel,0.01,-0.027896211873013534,0.006930437681932034,0,10000
10,250,0,400,800,1200,1600,2000,2400,2800,3200,3600,2,0,1,0,0,0,0,0,0,0,0,0,0,-0.5,-0.5,-0.5,-0.5,-0.5,-0.5,-0.5,-0.5,-0.5,-0.5,-0.5,linear,100,0.025,0,0.5,TRUE,2,sepmodel,0.0254,-0.0011228324883727503,0.0079698683054801,0,10000
10,250,0,400,800,1200,1600,2000,2400,2800,3200,3600,2,0,1,0,0,0,0,0,0,0,0,0,0,-0.5,-0.5,-0.5,-0.5,-0.5,-0.5,-0.5,-0.5,-0.5,-0.5,-0.5,linear,100,0.025,0,0.5,TRUE,3,fixmodel,0.025,0.0010943465337253104,0.007434449677280075,0,10000
10,250,0,400,800,1200,1600,2000,2400,2800,3200,3600,2,0,1,0,0,0,0,0,0,0,0,0,0,-0.5,-0.5,-0.5,-0.5,-0.5,-0.5,-0.5,-0.5,-0.5,-0.5,-0.5,linear,100,0.025,0,0.5,TRUE,3,poolmodel,0.004,-0.05181505901180436,0.00818816209747963,0,10000
10,250,0,400,800,1200,1600,2000,2400,2800,3200,3600,2,0,1,0,0,0,0,0,0,0,0,0,0,-0.5,-0.5,-0.5,-0.5,-0.5,-0.5,-0.5,-0.5,-0.5,-0.5,-0.5,linear,100,0.025,0,0.5,TRUE,3,sepmodel,0.0231,0.001012986401521198,0.007889409389991164,0,10000
10,250,0,400,800,1200,1600,2000,2400,2800,3200,3600,2,0,1,0,0,0,0,0,0,0,0,0,0,-0.5,-0.5,-0.5,-0.5,-0.5,-0.5,-0.5,-0.5,-0.5,-0.5,-0.5,linear,100,0.025,0,0.5,TRUE,4,fixmodel,0.0284,0.0021447399834235623,0.00744982388214894,0,10000
10,250,0,400,800,1200,1600,2000,2400,2800,3200,3600,2,0,1,0,0,0,0,0,0,0,0,0,0,-0.5,-0.5,-0.5,-0.5,-0.5,-0.5,-0.5,-0.5,-0.5,-0.5,-0.5,linear,100,0.025,0,0.5,TRUE,4,poolmodel,0.0019,-0.07658680979798857,0.011178252028843438,0,10000
10,250,0,400,800,1200,1600,2000,2400,2800,3200,3600,2,0,1,0,0,0,0,0,0,0,0,0,0,-0.5,-0.5,-0.5,-0.5,-0.5,-0.5,-0.5,-0.5,-0.5,-0.5,-0.5,linear,100,0.025,0,0.5,TRUE,4,sepmodel,0.0267,0.001932530448752593,0.007977903227066357,0,10000
10,250,0,400,800,1200,1600,2000,2400,2800,3200,3600,2,0,1,0,0,0,0,0,0,0,0,0,0,-0.5,-0.5,-0.5,-0.5,-0.5,-0.5,-0.5,-0.5,-0.5,-0.5,-0.5,linear,100,0.025,0,0.5,TRUE,5,fixmodel,0.0263,0.0010934946151712201,0.007330145758714663,0,10000
10,250,0,400,800,1200,1600,2000,2400,2800,3200,3600,2,0,1,0,0,0,0,0,0,0,0,0,0,-0.5,-0.5,-0.5,-0.5,-0.5,-0.5,-0.5,-0.5,-0.5,-0.5,-0.5,linear,100,0.025,0,0.5,TRUE,5,poolmodel,2e-4,-0.10153851532852042,0.015374203100637253,0,10000
10,250,0,400,800,1200,1600,2000,2400,2800,3200,3600,2,0,1,0,0,0,0,0,0,0,0,0,0,-0.5,-0.5,-0.5,-0.5,-0.5,-0.5,-0.5,-0.5,-0.5,-0.5,-0.5,linear,100,0.025,0,0.5,TRUE,5,sepmodel,0.0286,6.543267133119219e-4,0.007975067512904551,0,10000
