pavlakrotka/NCC_FreqModels/simulations/results/results_setting_1_pow.csv
num_arms,n_arm,d1,d2,d3,d4,d5,d6,d7,d8,d9,d10,period_blocks,mu0,sigma,theta1,theta2,theta3,theta4,theta5,theta6,theta7,theta8,theta9,theta10,lambda0,lambda1,lambda2,lambda3,lambda4,lambda5,lambda6,lambda7,lambda8,lambda9,lambda10,trend,unit_size,alpha,trend_mean,trend_var,ncc,study_arm,model,reject_h0,bias,MSE,failed,nsim
10,250,0,0,0,0,0,0,0,0,0,0,2,0,1,0.25,0.25,0.25,0.25,0.25,0.25,0.25,0.25,0.25,0.25,-0.5,-0.5,-0.5,-0.5,-0.5,-0.5,-0.5,-0.5,-0.5,-0.5,-0.5,linear,100,0.025,0,0.5,TRUE,2,fixmodel,0.7901,-0.0010375359011815441,0.008194992269012553,0,10000
10,250,0,0,0,0,0,0,0,0,0,0,2,0,1,0.25,0.25,0.25,0.25,0.25,0.25,0.25,0.25,0.25,0.25,-0.5,-0.5,-0.5,-0.5,-0.5,-0.5,-0.5,-0.5,-0.5,-0.5,-0.5,linear,100,0.025,0,0.5,TRUE,2,poolmodel,0.7868,-0.0010375359011741158,0.00819499226901297,0,10000
10,250,0,0,0,0,0,0,0,0,0,0,2,0,1,0.25,0.25,0.25,0.25,0.25,0.25,0.25,0.25,0.25,0.25,-0.5,-0.5,-0.5,-0.5,-0.5,-0.5,-0.5,-0.5,-0.5,-0.5,-0.5,linear,100,0.025,0,0.5,TRUE,2,sepmodel,0.7868,-0.0010375359011741158,0.00819499226901297,0,10000
10,250,0,0,0,0,0,0,0,0,0,0,2,0,1,0.25,0.25,0.25,0.25,0.25,0.25,0.25,0.25,0.25,0.25,-0.5,-0.5,-0.5,-0.5,-0.5,-0.5,-0.5,-0.5,-0.5,-0.5,-0.5,linear,100,0.025,0,0.5,TRUE,3,fixmodel,0.7891,-4.4950175909194907e-4,0.008005004281293037,0,10000
10,250,0,0,0,0,0,0,0,0,0,0,2,0,1,0.25,0.25,0.25,0.25,0.25,0.25,0.25,0.25,0.25,0.25,-0.5,-0.5,-0.5,-0.5,-0.5,-0.5,-0.5,-0.5,-0.5,-0.5,-0.5,linear,100,0.025,0,0.5,TRUE,3,poolmodel,0.7884,-4.495017590915214e-4,0.008005004281293093,0,10000
10,250,0,0,0,0,0,0,0,0,0,0,2,0,1,0.25,0.25,0.25,0.25,0.25,0.25,0.25,0.25,0.25,0.25,-0.5,-0.5,-0.5,-0.5,-0.5,-0.5,-0.5,-0.5,-0.5,-0.5,-0.5,linear,100,0.025,0,0.5,TRUE,3,sepmodel,0.7884,-4.495017590915214e-4,0.008005004281293093,0,10000
10,250,0,0,0,0,0,0,0,0,0,0,2,0,1,0.25,0.25,0.25,0.25,0.25,0.25,0.25,0.25,0.25,0.25,-0.5,-0.5,-0.5,-0.5,-0.5,-0.5,-0.5,-0.5,-0.5,-0.5,-0.5,linear,100,0.025,0,0.5,TRUE,4,fixmodel,0.7863,-0.0011382096593360214,0.008011823717193401,0,10000
10,250,0,0,0,0,0,0,0,0,0,0,2,0,1,0.25,0.25,0.25,0.25,0.25,0.25,0.25,0.25,0.25,0.25,-0.5,-0.5,-0.5,-0.5,-0.5,-0.5,-0.5,-0.5,-0.5,-0.5,-0.5,linear,100,0.025,0,0.5,TRUE,4,poolmodel,0.7833,-0.0011382096593339015,0.008011823717193462,0,10000
10,250,0,0,0,0,0,0,0,0,0,0,2,0,1,0.25,0.25,0.25,0.25,0.25,0.25,0.25,0.25,0.25,0.25,-0.5,-0.5,-0.5,-0.5,-0.5,-0.5,-0.5,-0.5,-0.5,-0.5,-0.5,linear,100,0.025,0,0.5,TRUE,4,sepmodel,0.7833,-0.0011382096593339015,0.008011823717193462,0,10000
10,250,0,0,0,0,0,0,0,0,0,0,2,0,1,0.25,0.25,0.25,0.25,0.25,0.25,0.25,0.25,0.25,0.25,-0.5,-0.5,-0.5,-0.5,-0.5,-0.5,-0.5,-0.5,-0.5,-0.5,-0.5,linear,100,0.025,0,0.5,TRUE,5,fixmodel,0.7874,-0.001827222065389973,0.008038180535152841,0,10000
10,250,0,0,0,0,0,0,0,0,0,0,2,0,1,0.25,0.25,0.25,0.25,0.25,0.25,0.25,0.25,0.25,0.25,-0.5,-0.5,-0.5,-0.5,-0.5,-0.5,-0.5,-0.5,-0.5,-0.5,-0.5,linear,100,0.025,0,0.5,TRUE,5,poolmodel,0.785,-0.0018272220653889064,0.008038180535152858,0,10000
10,250,0,0,0,0,0,0,0,0,0,0,2,0,1,0.25,0.25,0.25,0.25,0.25,0.25,0.25,0.25,0.25,0.25,-0.5,-0.5,-0.5,-0.5,-0.5,-0.5,-0.5,-0.5,-0.5,-0.5,-0.5,linear,100,0.025,0,0.5,TRUE,5,sepmodel,0.785,-0.0018272220653889064,0.008038180535152858,0,10000
10,250,0,0,0,0,0,0,0,0,0,0,2,0,1,0.25,0.25,0.25,0.25,0.25,0.25,0.25,0.25,0.25,0.25,-0.5,-0.5,-0.5,-0.5,-0.5,-0.5,-0.5,-0.5,-0.5,-0.5,-0.5,linear,100,0.025,0,0.5,TRUE,6,fixmodel,0.7928,-3.787009151399922e-4,0.007994172638353869,0,10000
10,250,0,0,0,0,0,0,0,0,0,0,2,0,1,0.25,0.25,0.25,0.25,0.25,0.25,0.25,0.25,0.25,0.25,-0.5,-0.5,-0.5,-0.5,-0.5,-0.5,-0.5,-0.5,-0.5,-0.5,-0.5,linear,100,0.025,0,0.5,TRUE,6,poolmodel,0.7916,-3.787009151387583e-4,0.007994172638353897,0,10000
10,250,0,0,0,0,0,0,0,0,0,0,2,0,1,0.25,0.25,0.25,0.25,0.25,0.25,0.25,0.25,0.25,0.25,-0.5,-0.5,-0.5,-0.5,-0.5,-0.5,-0.5,-0.5,-0.5,-0.5,-0.5,linear,100,0.025,0,0.5,TRUE,6,sepmodel,0.7916,-3.787009151387583e-4,0.007994172638353897,0,10000
10,250,0,0,0,0,0,0,0,0,0,0,2,0,1,0.25,0.25,0.25,0.25,0.25,0.25,0.25,0.25,0.25,0.25,-0.5,-0.5,-0.5,-0.5,-0.5,-0.5,-0.5,-0.5,-0.5,-0.5,-0.5,linear,100,0.025,0,0.5,TRUE,7,fixmodel,0.793,-3.987154685911171e-4,0.007897297223887679,0,10000
10,250,0,0,0,0,0,0,0,0,0,0,2,0,1,0.25,0.25,0.25,0.25,0.25,0.25,0.25,0.25,0.25,0.25,-0.5,-0.5,-0.5,-0.5,-0.5,-0.5,-0.5,-0.5,-0.5,-0.5,-0.5,linear,100,0.025,0,0.5,TRUE,7,poolmodel,0.7914,-3.987154685898209e-4,0.007897297223887708,0,10000
10,250,0,0,0,0,0,0,0,0,0,0,2,0,1,0.25,0.25,0.25,0.25,0.25,0.25,0.25,0.25,0.25,0.25,-0.5,-0.5,-0.5,-0.5,-0.5,-0.5,-0.5,-0.5,-0.5,-0.5,-0.5,linear,100,0.025,0,0.5,TRUE,7,sepmodel,0.7914,-3.987154685898209e-4,0.007897297223887708,0,10000
10,250,0,0,0,0,0,0,0,0,0,0,2,0,1,0.25,0.25,0.25,0.25,0.25,0.25,0.25,0.25,0.25,0.25,-0.5,-0.5,-0.5,-0.5,-0.5,-0.5,-0.5,-0.5,-0.5,-0.5,-0.5,linear,100,0.025,0,0.5,TRUE,8,fixmodel,0.7956,-4.5313312174237214e-4,0.00793386951054902,0,10000
10,250,0,0,0,0,0,0,0,0,0,0,2,0,1,0.25,0.25,0.25,0.25,0.25,0.25,0.25,0.25,0.25,0.25,-0.5,-0.5,-0.5,-0.5,-0.5,-0.5,-0.5,-0.5,-0.5,-0.5,-0.5,linear,100,0.025,0,0.5,TRUE,8,poolmodel,0.7931,-4.5313312174109316e-4,0.007933869510549056,0,10000
10,250,0,0,0,0,0,0,0,0,0,0,2,0,1,0.25,0.25,0.25,0.25,0.25,0.25,0.25,0.25,0.25,0.25,-0.5,-0.5,-0.5,-0.5,-0.5,-0.5,-0.5,-0.5,-0.5,-0.5,-0.5,linear,100,0.025,0,0.5,TRUE,8,sepmodel,0.7931,-4.5313312174109316e-4,0.007933869510549056,0,10000
10,250,0,0,0,0,0,0,0,0,0,0,2,0,1,0.25,0.25,0.25,0.25,0.25,0.25,0.25,0.25,0.25,0.25,-0.5,-0.5,-0.5,-0.5,-0.5,-0.5,-0.5,-0.5,-0.5,-0.5,-0.5,linear,100,0.025,0,0.5,TRUE,9,fixmodel,0.7902,-0.0010507122191758843,0.0080102712835468,0,10000
10,250,0,0,0,0,0,0,0,0,0,0,2,0,1,0.25,0.25,0.25,0.25,0.25,0.25,0.25,0.25,0.25,0.25,-0.5,-0.5,-0.5,-0.5,-0.5,-0.5,-0.5,-0.5,-0.5,-0.5,-0.5,linear,100,0.025,0,0.5,TRUE,9,poolmodel,0.7893,-0.001050712219174642,0.00801027128354682,0,10000
10,250,0,0,0,0,0,0,0,0,0,0,2,0,1,0.25,0.25,0.25,0.25,0.25,0.25,0.25,0.25,0.25,0.25,-0.5,-0.5,-0.5,-0.5,-0.5,-0.5,-0.5,-0.5,-0.5,-0.5,-0.5,linear,100,0.025,0,0.5,TRUE,9,sepmodel,0.7893,-0.001050712219174642,0.00801027128354682,0,10000
10,250,0,0,0,0,0,0,0,0,0,0,2,0,1,0.25,0.25,0.25,0.25,0.25,0.25,0.25,0.25,0.25,0.25,-0.5,-0.5,-0.5,-0.5,-0.5,-0.5,-0.5,-0.5,-0.5,-0.5,-0.5,linear,100,0.025,0,0.5,TRUE,10,fixmodel,0.7854,-8.711104510119434e-4,0.008113673563714074,0,10000
10,250,0,0,0,0,0,0,0,0,0,0,2,0,1,0.25,0.25,0.25,0.25,0.25,0.25,0.25,0.25,0.25,0.25,-0.5,-0.5,-0.5,-0.5,-0.5,-0.5,-0.5,-0.5,-0.5,-0.5,-0.5,linear,100,0.025,0,0.5,TRUE,10,poolmodel,0.7838,-8.711104510106518e-4,0.008113673563714107,0,10000
10,250,0,0,0,0,0,0,0,0,0,0,2,0,1,0.25,0.25,0.25,0.25,0.25,0.25,0.25,0.25,0.25,0.25,-0.5,-0.5,-0.5,-0.5,-0.5,-0.5,-0.5,-0.5,-0.5,-0.5,-0.5,linear,100,0.025,0,0.5,TRUE,10,sepmodel,0.7838,-8.711104510106518e-4,0.008113673563714107,0,10000
10,250,0,25,50,75,100,125,150,175,200,225,2,0,1,0.25,0.25,0.25,0.25,0.25,0.25,0.25,0.25,0.25,0.25,-0.5,-0.5,-0.5,-0.5,-0.5,-0.5,-0.5,-0.5,-0.5,-0.5,-0.5,linear,100,0.025,0,0.5,TRUE,2,fixmodel,0.7989,-1.8363560741426323e-4,0.00788336884110401,0,10000
10,250,0,25,50,75,100,125,150,175,200,225,2,0,1,0.25,0.25,0.25,0.25,0.25,0.25,0.25,0.25,0.25,0.25,-0.5,-0.5,-0.5,-0.5,-0.5,-0.5,-0.5,-0.5,-0.5,-0.5,-0.5,linear,100,0.025,0,0.5,TRUE,2,poolmodel,0.7671,-0.010721967992550204,0.007919122107111593,0,10000
10,250,0,25,50,75,100,125,150,175,200,225,2,0,1,0.25,0.25,0.25,0.25,0.25,0.25,0.25,0.25,0.25,0.25,-0.5,-0.5,-0.5,-0.5,-0.5,-0.5,-0.5,-0.5,-0.5,-0.5,-0.5,linear,100,0.025,0,0.5,TRUE,2,sepmodel,0.7881,-2.3015035841309717e-4,0.008011738048008981,0,10000
10,250,0,25,50,75,100,125,150,175,200,225,2,0,1,0.25,0.25,0.25,0.25,0.25,0.25,0.25,0.25,0.25,0.25,-0.5,-0.5,-0.5,-0.5,-0.5,-0.5,-0.5,-0.5,-0.5,-0.5,-0.5,linear,100,0.025,0,0.5,TRUE,3,fixmodel,0.7987,-5.110077685530751e-4,0.008018201076109848,0,10000
10,250,0,25,50,75,100,125,150,175,200,225,2,0,1,0.25,0.25,0.25,0.25,0.25,0.25,0.25,0.25,0.25,0.25,-0.5,-0.5,-0.5,-0.5,-0.5,-0.5,-0.5,-0.5,-0.5,-0.5,-0.5,linear,100,0.025,0,0.5,TRUE,3,poolmodel,0.7422,-0.01807683824027704,0.008180174638940227,0,10000
10,250,0,25,50,75,100,125,150,175,200,225,2,0,1,0.25,0.25,0.25,0.25,0.25,0.25,0.25,0.25,0.25,0.25,-0.5,-0.5,-0.5,-0.5,-0.5,-0.5,-0.5,-0.5,-0.5,-0.5,-0.5,linear,100,0.025,0,0.5,TRUE,3,sepmodel,0.7853,-6.208985107063566e-4,0.008152683895825212,0,10000
10,250,0,25,50,75,100,125,150,175,200,225,2,0,1,0.25,0.25,0.25,0.25,0.25,0.25,0.25,0.25,0.25,0.25,-0.5,-0.5,-0.5,-0.5,-0.5,-0.5,-0.5,-0.5,-0.5,-0.5,-0.5,linear,100,0.025,0,0.5,TRUE,4,fixmodel,0.8015,-2.9286222650798426e-4,0.00792965013691179,0,10000
10,250,0,25,50,75,100,125,150,175,200,225,2,0,1,0.25,0.25,0.25,0.25,0.25,0.25,0.25,0.25,0.25,0.25,-0.5,-0.5,-0.5,-0.5,-0.5,-0.5,-0.5,-0.5,-0.5,-0.5,-0.5,linear,100,0.025,0,0.5,TRUE,4,poolmodel,0.7236,-0.024291800281761478,0.008333619994856446,0,10000
10,250,0,25,50,75,100,125,150,175,200,225,2,0,1,0.25,0.25,0.25,0.25,0.25,0.25,0.25,0.25,0.25,0.25,-0.5,-0.5,-0.5,-0.5,-0.5,-0.5,-0.5,-0.5,-0.5,-0.5,-0.5,linear,100,0.025,0,0.5,TRUE,4,sepmodel,0.7884,-4.364743272143436e-4,0.008139929843892382,0,10000
10,250,0,25,50,75,100,125,150,175,200,225,2,0,1,0.25,0.25,0.25,0.25,0.25,0.25,0.25,0.25,0.25,0.25,-0.5,-0.5,-0.5,-0.5,-0.5,-0.5,-0.5,-0.5,-0.5,-0.5,-0.5,linear,100,0.025,0,0.5,TRUE,5,fixmodel,0.8083,-0.001194145488465633,0.00773078710110543,0,10000
10,250,0,25,50,75,100,125,150,175,200,225,2,0,1,0.25,0.25,0.25,0.25,0.25,0.25,0.25,0.25,0.25,0.25,-0.5,-0.5,-0.5,-0.5,-0.5,-0.5,-0.5,-0.5,-0.5,-0.5,-0.5,linear,100,0.025,0,0.5,TRUE,5,poolmodel,0.7094,-0.029910901177275146,0.008443825939386317,0,10000
10,250,0,25,50,75,100,125,150,175,200,225,2,0,1,0.25,0.25,0.25,0.25,0.25,0.25,0.25,0.25,0.25,0.25,-0.5,-0.5,-0.5,-0.5,-0.5,-0.5,-0.5,-0.5,-0.5,-0.5,-0.5,linear,100,0.025,0,0.5,TRUE,5,sepmodel,0.7869,-0.0013558133077690867,0.008030665983486198,0,10000
10,250,0,25,50,75,100,125,150,175,200,225,2,0,1,0.25,0.25,0.25,0.25,0.25,0.25,0.25,0.25,0.25,0.25,-0.5,-0.5,-0.5,-0.5,-0.5,-0.5,-0.5,-0.5,-0.5,-0.5,-0.5,linear,100,0.025,0,0.5,TRUE,6,fixmodel,0.8114,-0.0014874641929539946,0.007612887770206439,0,10000
10,250,0,25,50,75,100,125,150,175,200,225,2,0,1,0.25,0.25,0.25,0.25,0.25,0.25,0.25,0.25,0.25,0.25,-0.5,-0.5,-0.5,-0.5,-0.5,-0.5,-0.5,-0.5,-0.5,-0.5,-0.5,linear,100,0.025,0,0.5,TRUE,6,poolmodel,0.6971,-0.0340705569016188,0.00856934704561539,0,10000
10,250,0,25,50,75,100,125,150,175,200,225,2,0,1,0.25,0.25,0.25,0.25,0.25,0.25,0.25,0.25,0.25,0.25,-0.5,-0.5,-0.5,-0.5,-0.5,-0.5,-0.5,-0.5,-0.5,-0.5,-0.5,linear,100,0.025,0,0.5,TRUE,6,sepmodel,0.7891,-0.0016137138294321346,0.007963471549249514,0,10000
10,250,0,25,50,75,100,125,150,175,200,225,2,0,1,0.25,0.25,0.25,0.25,0.25,0.25,0.25,0.25,0.25,0.25,-0.5,-0.5,-0.5,-0.5,-0.5,-0.5,-0.5,-0.5,-0.5,-0.5,-0.5,linear,100,0.025,0,0.5,TRUE,7,fixmodel,0.815,-6.084485498543556e-4,0.007561332023405724,0,10000
10,250,0,25,50,75,100,125,150,175,200,225,2,0,1,0.25,0.25,0.25,0.25,0.25,0.25,0.25,0.25,0.25,0.25,-0.5,-0.5,-0.5,-0.5,-0.5,-0.5,-0.5,-0.5,-0.5,-0.5,-0.5,linear,100,0.025,0,0.5,TRUE,7,poolmodel,0.687,-0.037070141261323575,0.008736839199749456,0,10000
10,250,0,25,50,75,100,125,150,175,200,225,2,0,1,0.25,0.25,0.25,0.25,0.25,0.25,0.25,0.25,0.25,0.25,-0.5,-0.5,-0.5,-0.5,-0.5,-0.5,-0.5,-0.5,-0.5,-0.5,-0.5,linear,100,0.025,0,0.5,TRUE,7,sepmodel,0.788,-6.996655951283666e-4,0.007888526898220638,0,10000
10,250,0,25,50,75,100,125,150,175,200,225,2,0,1,0.25,0.25,0.25,0.25,0.25,0.25,0.25,0.25,0.25,0.25,-0.5,-0.5,-0.5,-0.5,-0.5,-0.5,-0.5,-0.5,-0.5,-0.5,-0.5,linear,100,0.025,0,0.5,TRUE,8,fixmodel,0.8105,-6.981331750850772e-4,0.007826729325498102,0,10000
10,250,0,25,50,75,100,125,150,175,200,225,2,0,1,0.25,0.25,0.25,0.25,0.25,0.25,0.25,0.25,0.25,0.25,-0.5,-0.5,-0.5,-0.5,-0.5,-0.5,-0.5,-0.5,-0.5,-0.5,-0.5,linear,100,0.025,0,0.5,TRUE,8,poolmodel,0.6741,-0.04008085662248469,0.009219255506416349,0,10000
10,250,0,25,50,75,100,125,150,175,200,225,2,0,1,0.25,0.25,0.25,0.25,0.25,0.25,0.25,0.25,0.25,0.25,-0.5,-0.5,-0.5,-0.5,-0.5,-0.5,-0.5,-0.5,-0.5,-0.5,-0.5,linear,100,0.025,0,0.5,TRUE,8,sepmodel,0.7858,-9.322092646279948e-4,0.00820187354231457,0,10000
10,250,0,25,50,75,100,125,150,175,200,225,2,0,1,0.25,0.25,0.25,0.25,0.25,0.25,0.25,0.25,0.25,0.25,-0.5,-0.5,-0.5,-0.5,-0.5,-0.5,-0.5,-0.5,-0.5,-0.5,-0.5,linear,100,0.025,0,0.5,TRUE,9,fixmodel,0.8149,-0.0012600637131978492,0.007530710866346904,0,10000
10,250,0,25,50,75,100,125,150,175,200,225,2,0,1,0.25,0.25,0.25,0.25,0.25,0.25,0.25,0.25,0.25,0.25,-0.5,-0.5,-0.5,-0.5,-0.5,-0.5,-0.5,-0.5,-0.5,-0.5,-0.5,linear,100,0.025,0,0.5,TRUE,9,poolmodel,0.6672,-0.043538362262999106,0.009229047583350719,0,10000
10,250,0,25,50,75,100,125,150,175,200,225,2,0,1,0.25,0.25,0.25,0.25,0.25,0.25,0.25,0.25,0.25,0.25,-0.5,-0.5,-0.5,-0.5,-0.5,-0.5,-0.5,-0.5,-0.5,-0.5,-0.5,linear,100,0.025,0,0.5,TRUE,9,sepmodel,0.7906,-0.0015114642347843087,0.007964891240993404,0,10000
10,250,0,25,50,75,100,125,150,175,200,225,2,0,1,0.25,0.25,0.25,0.25,0.25,0.25,0.25,0.25,0.25,0.25,-0.5,-0.5,-0.5,-0.5,-0.5,-0.5,-0.5,-0.5,-0.5,-0.5,-0.5,linear,100,0.025,0,0.5,TRUE,10,fixmodel,0.814,-0.0013467389851489835,0.007514217441803162,0,10000
10,250,0,25,50,75,100,125,150,175,200,225,2,0,1,0.25,0.25,0.25,0.25,0.25,0.25,0.25,0.25,0.25,0.25,-0.5,-0.5,-0.5,-0.5,-0.5,-0.5,-0.5,-0.5,-0.5,-0.5,-0.5,linear,100,0.025,0,0.5,TRUE,10,poolmodel,0.6507,-0.04554984617291803,0.009364094926039984,0,10000
10,250,0,25,50,75,100,125,150,175,200,225,2,0,1,0.25,0.25,0.25,0.25,0.25,0.25,0.25,0.25,0.25,0.25,-0.5,-0.5,-0.5,-0.5,-0.5,-0.5,-0.5,-0.5,-0.5,-0.5,-0.5,linear,100,0.025,0,0.5,TRUE,10,sepmodel,0.7804,-0.0015631955371409227,0.007978397929468627,0,10000
10,250,0,50,100,150,200,250,300,350,400,450,2,0,1,0.25,0.25,0.25,0.25,0.25,0.25,0.25,0.25,0.25,0.25,-0.5,-0.5,-0.5,-0.5,-0.5,-0.5,-0.5,-0.5,-0.5,-0.5,-0.5,linear,100,0.025,0,0.5,TRUE,2,fixmodel,0.8055,0.0017179568271674529,0.007903470866999527,0,10000
10,250,0,50,100,150,200,250,300,350,400,450,2,0,1,0.25,0.25,0.25,0.25,0.25,0.25,0.25,0.25,0.25,0.25,-0.5,-0.5,-0.5,-0.5,-0.5,-0.5,-0.5,-0.5,-0.5,-0.5,-0.5,linear,100,0.025,0,0.5,TRUE,2,poolmodel,0.7591,-0.015275621928048794,0.00791922729646258,0,10000
10,250,0,50,100,150,200,250,300,350,400,450,2,0,1,0.25,0.25,0.25,0.25,0.25,0.25,0.25,0.25,0.25,0.25,-0.5,-0.5,-0.5,-0.5,-0.5,-0.5,-0.5,-0.5,-0.5,-0.5,-0.5,linear,100,0.025,0,0.5,TRUE,2,sepmodel,0.7963,0.0018210006278056824,0.008030875918358984,0,10000
10,250,0,50,100,150,200,250,300,350,400,450,2,0,1,0.25,0.25,0.25,0.25,0.25,0.25,0.25,0.25,0.25,0.25,-0.5,-0.5,-0.5,-0.5,-0.5,-0.5,-0.5,-0.5,-0.5,-0.5,-0.5,linear,100,0.025,0,0.5,TRUE,3,fixmodel,0.8187,9.918914559508595e-4,0.007558394931778983,0,10000
10,250,0,50,100,150,200,250,300,350,400,450,2,0,1,0.25,0.25,0.25,0.25,0.25,0.25,0.25,0.25,0.25,0.25,-0.5,-0.5,-0.5,-0.5,-0.5,-0.5,-0.5,-0.5,-0.5,-0.5,-0.5,linear,100,0.025,0,0.5,TRUE,3,poolmodel,0.7242,-0.029362088444380947,0.0081532027938918,0,10000
10,250,0,50,100,150,200,250,300,350,400,450,2,0,1,0.25,0.25,0.25,0.25,0.25,0.25,0.25,0.25,0.25,0.25,-0.5,-0.5,-0.5,-0.5,-0.5,-0.5,-0.5,-0.5,-0.5,-0.5,-0.5,linear,100,0.025,0,0.5,TRUE,3,sepmodel,0.7981,0.0010087378942701388,0.007821738649151233,0,10000
10,250,0,50,100,150,200,250,300,350,400,450,2,0,1,0.25,0.25,0.25,0.25,0.25,0.25,0.25,0.25,0.25,0.25,-0.5,-0.5,-0.5,-0.5,-0.5,-0.5,-0.5,-0.5,-0.5,-0.5,-0.5,linear,100,0.025,0,0.5,TRUE,4,fixmodel,0.8242,0.0016143357221409047,0.007623820785084866,0,10000
10,250,0,50,100,150,200,250,300,350,400,450,2,0,1,0.25,0.25,0.25,0.25,0.25,0.25,0.25,0.25,0.25,0.25,-0.5,-0.5,-0.5,-0.5,-0.5,-0.5,-0.5,-0.5,-0.5,-0.5,-0.5,linear,100,0.025,0,0.5,TRUE,4,poolmodel,0.6832,-0.0396654948338126,0.008840992419812023,0,10000
10,250,0,50,100,150,200,250,300,350,400,450,2,0,1,0.25,0.25,0.25,0.25,0.25,0.25,0.25,0.25,0.25,0.25,-0.5,-0.5,-0.5,-0.5,-0.5,-0.5,-0.5,-0.5,-0.5,-0.5,-0.5,linear,100,0.025,0,0.5,TRUE,4,sepmodel,0.795,0.0016406740200725677,0.008106545759065638,0,10000
10,250,0,50,100,150,200,250,300,350,400,450,2,0,1,0.25,0.25,0.25,0.25,0.25,0.25,0.25,0.25,0.25,0.25,-0.5,-0.5,-0.5,-0.5,-0.5,-0.5,-0.5,-0.5,-0.5,-0.5,-0.5,linear,100,0.025,0,0.5,TRUE,5,fixmodel,0.8226,4.9607615186307184e-5,0.007526387019170741,0,10000
10,250,0,50,100,150,200,250,300,350,400,450,2,0,1,0.25,0.25,0.25,0.25,0.25,0.25,0.25,0.25,0.25,0.25,-0.5,-0.5,-0.5,-0.5,-0.5,-0.5,-0.5,-0.5,-0.5,-0.5,-0.5,linear,100,0.025,0,0.5,TRUE,5,poolmodel,0.6418,-0.050008187118412255,0.009707375185328103,0,10000
10,250,0,50,100,150,200,250,300,350,400,450,2,0,1,0.25,0.25,0.25,0.25,0.25,0.25,0.25,0.25,0.25,0.25,-0.5,-0.5,-0.5,-0.5,-0.5,-0.5,-0.5,-0.5,-0.5,-0.5,-0.5,linear,100,0.025,0,0.5,TRUE,5,sepmodel,0.7916,2.799221041529663e-4,0.008020610920060622,0,10000
10,250,0,50,100,150,200,250,300,350,400,450,2,0,1,0.25,0.25,0.25,0.25,0.25,0.25,0.25,0.25,0.25,0.25,-0.5,-0.5,-0.5,-0.5,-0.5,-0.5,-0.5,-0.5,-0.5,-0.5,-0.5,linear,100,0.025,0,0.5,TRUE,6,fixmodel,0.8297,6.966991458405241e-4,0.0073212816439976805,0,10000
10,250,0,50,100,150,200,250,300,350,400,450,2,0,1,0.25,0.25,0.25,0.25,0.25,0.25,0.25,0.25,0.25,0.25,-0.5,-0.5,-0.5,-0.5,-0.5,-0.5,-0.5,-0.5,-0.5,-0.5,-0.5,linear,100,0.025,0,0.5,TRUE,6,poolmodel,0.6227,-0.05678479024248014,0.010206726591114705,0,10000
10,250,0,50,100,150,200,250,300,350,400,450,2,0,1,0.25,0.25,0.25,0.25,0.25,0.25,0.25,0.25,0.25,0.25,-0.5,-0.5,-0.5,-0.5,-0.5,-0.5,-0.5,-0.5,-0.5,-0.5,-0.5,linear,100,0.025,0,0.5,TRUE,6,sepmodel,0.7987,8.865765601777886e-4,0.007898589120680977,0,10000
10,250,0,50,100,150,200,250,300,350,400,450,2,0,1,0.25,0.25,0.25,0.25,0.25,0.25,0.25,0.25,0.25,0.25,-0.5,-0.5,-0.5,-0.5,-0.5,-0.5,-0.5,-0.5,-0.5,-0.5,-0.5,linear,100,0.025,0,0.5,TRUE,7,fixmodel,0.8332,6.281409197406875e-4,0.007422336021171499,0,10000
10,250,0,50,100,150,200,250,300,350,400,450,2,0,1,0.25,0.25,0.25,0.25,0.25,0.25,0.25,0.25,0.25,0.25,-0.5,-0.5,-0.5,-0.5,-0.5,-0.5,-0.5,-0.5,-0.5,-0.5,-0.5,linear,100,0.025,0,0.5,TRUE,7,poolmodel,0.5912,-0.06333075171130238,0.011101376761864401,0,10000
10,250,0,50,100,150,200,250,300,350,400,450,2,0,1,0.25,0.25,0.25,0.25,0.25,0.25,0.25,0.25,0.25,0.25,-0.5,-0.5,-0.5,-0.5,-0.5,-0.5,-0.5,-0.5,-0.5,-0.5,-0.5,linear,100,0.025,0,0.5,TRUE,7,sepmodel,0.7904,6.634473722746395e-4,0.008067218428652186,0,10000
10,250,0,50,100,150,200,250,300,350,400,450,2,0,1,0.25,0.25,0.25,0.25,0.25,0.25,0.25,0.25,0.25,0.25,-0.5,-0.5,-0.5,-0.5,-0.5,-0.5,-0.5,-0.5,-0.5,-0.5,-0.5,linear,100,0.025,0,0.5,TRUE,8,fixmodel,0.8314,-1.1922955687117572e-4,0.007139200882865267,0,10000
10,250,0,50,100,150,200,250,300,350,400,450,2,0,1,0.25,0.25,0.25,0.25,0.25,0.25,0.25,0.25,0.25,0.25,-0.5,-0.5,-0.5,-0.5,-0.5,-0.5,-0.5,-0.5,-0.5,-0.5,-0.5,linear,100,0.025,0,0.5,TRUE,8,poolmodel,0.5659,-0.07054126508215922,0.011816472286026908,0,10000
10,250,0,50,100,150,200,250,300,350,400,450,2,0,1,0.25,0.25,0.25,0.25,0.25,0.25,0.25,0.25,0.25,0.25,-0.5,-0.5,-0.5,-0.5,-0.5,-0.5,-0.5,-0.5,-0.5,-0.5,-0.5,linear,100,0.025,0,0.5,TRUE,8,sepmodel,0.792,-6.748089670360328e-5,0.007847013391154692,0,10000
10,250,0,50,100,150,200,250,300,350,400,450,2,0,1,0.25,0.25,0.25,0.25,0.25,0.25,0.25,0.25,0.25,0.25,-0.5,-0.5,-0.5,-0.5,-0.5,-0.5,-0.5,-0.5,-0.5,-0.5,-0.5,linear,100,0.025,0,0.5,TRUE,9,fixmodel,0.8401,0.0012628867146533807,0.007218140293057917,0,10000
10,250,0,50,100,150,200,250,300,350,400,450,2,0,1,0.25,0.25,0.25,0.25,0.25,0.25,0.25,0.25,0.25,0.25,-0.5,-0.5,-0.5,-0.5,-0.5,-0.5,-0.5,-0.5,-0.5,-0.5,-0.5,linear,100,0.025,0,0.5,TRUE,9,poolmodel,0.5512,-0.07377696330951439,0.012347318932423457,0,10000
10,250,0,50,100,150,200,250,300,350,400,450,2,0,1,0.25,0.25,0.25,0.25,0.25,0.25,0.25,0.25,0.25,0.25,-0.5,-0.5,-0.5,-0.5,-0.5,-0.5,-0.5,-0.5,-0.5,-0.5,-0.5,linear,100,0.025,0,0.5,TRUE,9,sepmodel,0.795,0.0012772749659134656,0.007945251516645177,0,10000
10,250,0,50,100,150,200,250,300,350,400,450,2,0,1,0.25,0.25,0.25,0.25,0.25,0.25,0.25,0.25,0.25,0.25,-0.5,-0.5,-0.5,-0.5,-0.5,-0.5,-0.5,-0.5,-0.5,-0.5,-0.5,linear,100,0.025,0,0.5,TRUE,10,fixmodel,0.8385,0.0011840290858795188,0.007143902035257932,0,10000
10,250,0,50,100,150,200,250,300,350,400,450,2,0,1,0.25,0.25,0.25,0.25,0.25,0.25,0.25,0.25,0.25,0.25,-0.5,-0.5,-0.5,-0.5,-0.5,-0.5,-0.5,-0.5,-0.5,-0.5,-0.5,linear,100,0.025,0,0.5,TRUE,10,poolmodel,0.5302,-0.07839274100886136,0.01297298114802419,0,10000
10,250,0,50,100,150,200,250,300,350,400,450,2,0,1,0.25,0.25,0.25,0.25,0.25,0.25,0.25,0.25,0.25,0.25,-0.5,-0.5,-0.5,-0.5,-0.5,-0.5,-0.5,-0.5,-0.5,-0.5,-0.5,linear,100,0.025,0,0.5,TRUE,10,sepmodel,0.7933,0.0010904267368256546,0.007893469666337746,0,10000
10,250,0,75,150,225,300,375,450,525,600,675,2,0,1,0.25,0.25,0.25,0.25,0.25,0.25,0.25,0.25,0.25,0.25,-0.5,-0.5,-0.5,-0.5,-0.5,-0.5,-0.5,-0.5,-0.5,-0.5,-0.5,linear,100,0.025,0,0.5,TRUE,2,fixmodel,0.8027,-0.0013905833803715554,0.00768358305010733,0,10000
10,250,0,75,150,225,300,375,450,525,600,675,2,0,1,0.25,0.25,0.25,0.25,0.25,0.25,0.25,0.25,0.25,0.25,-0.5,-0.5,-0.5,-0.5,-0.5,-0.5,-0.5,-0.5,-0.5,-0.5,-0.5,linear,100,0.025,0,0.5,TRUE,2,poolmodel,0.745,-0.02234977256794945,0.00789842077587865,0,10000
10,250,0,75,150,225,300,375,450,525,600,675,2,0,1,0.25,0.25,0.25,0.25,0.25,0.25,0.25,0.25,0.25,0.25,-0.5,-0.5,-0.5,-0.5,-0.5,-0.5,-0.5,-0.5,-0.5,-0.5,-0.5,linear,100,0.025,0,0.5,TRUE,2,sepmodel,0.7877,-0.0015112663707755954,0.007950794675366458,0,10000
10,250,0,75,150,225,300,375,450,525,600,675,2,0,1,0.25,0.25,0.25,0.25,0.25,0.25,0.25,0.25,0.25,0.25,-0.5,-0.5,-0.5,-0.5,-0.5,-0.5,-0.5,-0.5,-0.5,-0.5,-0.5,linear,100,0.025,0,0.5,TRUE,3,fixmodel,0.819,-3.464672691916658e-4,0.0076091257120798434,0,10000
10,250,0,75,150,225,300,375,450,525,600,675,2,0,1,0.25,0.25,0.25,0.25,0.25,0.25,0.25,0.25,0.25,0.25,-0.5,-0.5,-0.5,-0.5,-0.5,-0.5,-0.5,-0.5,-0.5,-0.5,-0.5,linear,100,0.025,0,0.5,TRUE,3,poolmodel,0.6921,-0.038764049413675616,0.00874308352315267,0,10000
10,250,0,75,150,225,300,375,450,525,600,675,2,0,1,0.25,0.25,0.25,0.25,0.25,0.25,0.25,0.25,0.25,0.25,-0.5,-0.5,-0.5,-0.5,-0.5,-0.5,-0.5,-0.5,-0.5,-0.5,-0.5,linear,100,0.025,0,0.5,TRUE,3,sepmodel,0.7893,-4.645407006217044e-4,0.00805310011923921,0,10000
10,250,0,75,150,225,300,375,450,525,600,675,2,0,1,0.25,0.25,0.25,0.25,0.25,0.25,0.25,0.25,0.25,0.25,-0.5,-0.5,-0.5,-0.5,-0.5,-0.5,-0.5,-0.5,-0.5,-0.5,-0.5,linear,100,0.025,0,0.5,TRUE,4,fixmodel,0.8267,-6.501722801397555e-4,0.007463920341023988,0,10000
10,250,0,75,150,225,300,375,450,525,600,675,2,0,1,0.25,0.25,0.25,0.25,0.25,0.25,0.25,0.25,0.25,0.25,-0.5,-0.5,-0.5,-0.5,-0.5,-0.5,-0.5,-0.5,-0.5,-0.5,-0.5,linear,100,0.025,0,0.5,TRUE,4,poolmodel,0.635,-0.054298799361088126,0.010044806746670977,0,10000
10,250,0,75,150,225,300,375,450,525,600,675,2,0,1,0.25,0.25,0.25,0.25,0.25,0.25,0.25,0.25,0.25,0.25,-0.5,-0.5,-0.5,-0.5,-0.5,-0.5,-0.5,-0.5,-0.5,-0.5,-0.5,linear,100,0.025,0,0.5,TRUE,4,sepmodel,0.7898,-6.71292239136101e-4,0.008110926337968317,0,10000
10,250,0,75,150,225,300,375,450,525,600,675,2,0,1,0.25,0.25,0.25,0.25,0.25,0.25,0.25,0.25,0.25,0.25,-0.5,-0.5,-0.5,-0.5,-0.5,-0.5,-0.5,-0.5,-0.5,-0.5,-0.5,linear,100,0.025,0,0.5,TRUE,5,fixmodel,0.8267,-0.001556119925437919,0.00736468808953901,0,10000
10,250,0,75,150,225,300,375,450,525,600,675,2,0,1,0.25,0.25,0.25,0.25,0.25,0.25,0.25,0.25,0.25,0.25,-0.5,-0.5,-0.5,-0.5,-0.5,-0.5,-0.5,-0.5,-0.5,-0.5,-0.5,linear,100,0.025,0,0.5,TRUE,5,poolmodel,0.5806,-0.06801465120352766,0.011556281483350125,0,10000
10,250,0,75,150,225,300,375,450,525,600,675,2,0,1,0.25,0.25,0.25,0.25,0.25,0.25,0.25,0.25,0.25,0.25,-0.5,-0.5,-0.5,-0.5,-0.5,-0.5,-0.5,-0.5,-0.5,-0.5,-0.5,linear,100,0.025,0,0.5,TRUE,5,sepmodel,0.7799,-0.001416463784673248,0.008110273439500966,0,10000
10,250,0,75,150,225,300,375,450,525,600,675,2,0,1,0.25,0.25,0.25,0.25,0.25,0.25,0.25,0.25,0.25,0.25,-0.5,-0.5,-0.5,-0.5,-0.5,-0.5,-0.5,-0.5,-0.5,-0.5,-0.5,linear,100,0.025,0,0.5,TRUE,6,fixmodel,0.8351,1.1339321577828047e-4,0.007402168943399108,0,10000
10,250,0,75,150,225,300,375,450,525,600,675,2,0,1,0.25,0.25,0.25,0.25,0.25,0.25,0.25,0.25,0.25,0.25,-0.5,-0.5,-0.5,-0.5,-0.5,-0.5,-0.5,-0.5,-0.5,-0.5,-0.5,linear,100,0.025,0,0.5,TRUE,6,poolmodel,0.5405,-0.07777699407162815,0.012993673594419908,0,10000
10,250,0,75,150,225,300,375,450,525,600,675,2,0,1,0.25,0.25,0.25,0.25,0.25,0.25,0.25,0.25,0.25,0.25,-0.5,-0.5,-0.5,-0.5,-0.5,-0.5,-0.5,-0.5,-0.5,-0.5,-0.5,linear,100,0.025,0,0.5,TRUE,6,sepmodel,0.7895,3.6097116211849167e-4,0.008256956235512251,0,10000
10,250,0,75,150,225,300,375,450,525,600,675,2,0,1,0.25,0.25,0.25,0.25,0.25,0.25,0.25,0.25,0.25,0.25,-0.5,-0.5,-0.5,-0.5,-0.5,-0.5,-0.5,-0.5,-0.5,-0.5,-0.5,linear,100,0.025,0,0.5,TRUE,7,fixmodel,0.8435,-3.6473175928218755e-4,0.007109863961873126,0,10000
10,250,0,75,150,225,300,375,450,525,600,675,2,0,1,0.25,0.25,0.25,0.25,0.25,0.25,0.25,0.25,0.25,0.25,-0.5,-0.5,-0.5,-0.5,-0.5,-0.5,-0.5,-0.5,-0.5,-0.5,-0.5,linear,100,0.025,0,0.5,TRUE,7,poolmodel,0.4999,-0.08708709637658554,0.014241731360575565,0,10000
10,250,0,75,150,225,300,375,450,525,600,675,2,0,1,0.25,0.25,0.25,0.25,0.25,0.25,0.25,0.25,0.25,0.25,-0.5,-0.5,-0.5,-0.5,-0.5,-0.5,-0.5,-0.5,-0.5,-0.5,-0.5,linear,100,0.025,0,0.5,TRUE,7,sepmodel,0.7959,-1.0526874864097458e-4,0.007963523728681731,0,10000
10,250,0,75,150,225,300,375,450,525,600,675,2,0,1,0.25,0.25,0.25,0.25,0.25,0.25,0.25,0.25,0.25,0.25,-0.5,-0.5,-0.5,-0.5,-0.5,-0.5,-0.5,-0.5,-0.5,-0.5,-0.5,linear,100,0.025,0,0.5,TRUE,8,fixmodel,0.843,1.372884999426388e-4,0.007146993280946847,0,10000
10,250,0,75,150,225,300,375,450,525,600,675,2,0,1,0.25,0.25,0.25,0.25,0.25,0.25,0.25,0.25,0.25,0.25,-0.5,-0.5,-0.5,-0.5,-0.5,-0.5,-0.5,-0.5,-0.5,-0.5,-0.5,linear,100,0.025,0,0.5,TRUE,8,poolmodel,0.4693,-0.09542518935315991,0.015756505762132816,0,10000
10,250,0,75,150,225,300,375,450,525,600,675,2,0,1,0.25,0.25,0.25,0.25,0.25,0.25,0.25,0.25,0.25,0.25,-0.5,-0.5,-0.5,-0.5,-0.5,-0.5,-0.5,-0.5,-0.5,-0.5,-0.5,linear,100,0.025,0,0.5,TRUE,8,sepmodel,0.791,4.2863316971112193e-4,0.008139500288490168,0,10000
10,250,0,75,150,225,300,375,450,525,600,675,2,0,1,0.25,0.25,0.25,0.25,0.25,0.25,0.25,0.25,0.25,0.25,-0.5,-0.5,-0.5,-0.5,-0.5,-0.5,-0.5,-0.5,-0.5,-0.5,-0.5,linear,100,0.025,0,0.5,TRUE,9,fixmodel,0.8436,-2.2578895915407107e-4,0.007087053181616751,0,10000
10,250,0,75,150,225,300,375,450,525,600,675,2,0,1,0.25,0.25,0.25,0.25,0.25,0.25,0.25,0.25,0.25,0.25,-0.5,-0.5,-0.5,-0.5,-0.5,-0.5,-0.5,-0.5,-0.5,-0.5,-0.5,linear,100,0.025,0,0.5,TRUE,9,poolmodel,0.4331,-0.10279988661573919,0.017199574259578052,0,10000
10,250,0,75,150,225,300,375,450,525,600,675,2,0,1,0.25,0.25,0.25,0.25,0.25,0.25,0.25,0.25,0.25,0.25,-0.5,-0.5,-0.5,-0.5,-0.5,-0.5,-0.5,-0.5,-0.5,-0.5,-0.5,linear,100,0.025,0,0.5,TRUE,9,sepmodel,0.7919,-1.8277118291942114e-5,0.008072610429471366,0,10000
10,250,0,75,150,225,300,375,450,525,600,675,2,0,1,0.25,0.25,0.25,0.25,0.25,0.25,0.25,0.25,0.25,0.25,-0.5,-0.5,-0.5,-0.5,-0.5,-0.5,-0.5,-0.5,-0.5,-0.5,-0.5,linear,100,0.025,0,0.5,TRUE,10,fixmodel,0.8472,-3.2450518286975634e-4,0.0069640022679900385,0,10000
10,250,0,75,150,225,300,375,450,525,600,675,2,0,1,0.25,0.25,0.25,0.25,0.25,0.25,0.25,0.25,0.25,0.25,-0.5,-0.5,-0.5,-0.5,-0.5,-0.5,-0.5,-0.5,-0.5,-0.5,-0.5,linear,100,0.025,0,0.5,TRUE,10,poolmodel,0.4057,-0.10971073024255382,0.018518404948171013,0,10000
10,250,0,75,150,225,300,375,450,525,600,675,2,0,1,0.25,0.25,0.25,0.25,0.25,0.25,0.25,0.25,0.25,0.25,-0.5,-0.5,-0.5,-0.5,-0.5,-0.5,-0.5,-0.5,-0.5,-0.5,-0.5,linear,100,0.025,0,0.5,TRUE,10,sepmodel,0.7932,-1.471020607285116e-4,0.007919460060496646,0,10000
10,250,0,100,200,300,400,500,600,700,800,900,2,0,1,0.25,0.25,0.25,0.25,0.25,0.25,0.25,0.25,0.25,0.25,-0.5,-0.5,-0.5,-0.5,-0.5,-0.5,-0.5,-0.5,-0.5,-0.5,-0.5,linear,100,0.025,0,0.5,TRUE,2,fixmodel,0.8107,-4.3761787075320734e-4,0.007661102764622696,0,10000
10,250,0,100,200,300,400,500,600,700,800,900,2,0,1,0.25,0.25,0.25,0.25,0.25,0.25,0.25,0.25,0.25,0.25,-0.5,-0.5,-0.5,-0.5,-0.5,-0.5,-0.5,-0.5,-0.5,-0.5,-0.5,linear,100,0.025,0,0.5,TRUE,2,poolmodel,0.7467,-0.023386395607117867,0.007951936030881006,0,10000
10,250,0,100,200,300,400,500,600,700,800,900,2,0,1,0.25,0.25,0.25,0.25,0.25,0.25,0.25,0.25,0.25,0.25,-0.5,-0.5,-0.5,-0.5,-0.5,-0.5,-0.5,-0.5,-0.5,-0.5,-0.5,linear,100,0.025,0,0.5,TRUE,2,sepmodel,0.7899,-2.7671067099797707e-4,0.00804801798041224,0,10000
10,250,0,100,200,300,400,500,600,700,800,900,2,0,1,0.25,0.25,0.25,0.25,0.25,0.25,0.25,0.25,0.25,0.25,-0.5,-0.5,-0.5,-0.5,-0.5,-0.5,-0.5,-0.5,-0.5,-0.5,-0.5,linear,100,0.025,0,0.5,TRUE,3,fixmodel,0.8166,-0.001076846623005037,0.007520020050301013,0,10000
10,250,0,100,200,300,400,500,600,700,800,900,2,0,1,0.25,0.25,0.25,0.25,0.25,0.25,0.25,0.25,0.25,0.25,-0.5,-0.5,-0.5,-0.5,-0.5,-0.5,-0.5,-0.5,-0.5,-0.5,-0.5,linear,100,0.025,0,0.5,TRUE,3,poolmodel,0.6742,-0.04574583062085952,0.009200642940582097,0,10000
10,250,0,100,200,300,400,500,600,700,800,900,2,0,1,0.25,0.25,0.25,0.25,0.25,0.25,0.25,0.25,0.25,0.25,-0.5,-0.5,-0.5,-0.5,-0.5,-0.5,-0.5,-0.5,-0.5,-0.5,-0.5,linear,100,0.025,0,0.5,TRUE,3,sepmodel,0.7843,-0.0011646374600608467,0.008055160682171355,0,10000
10,250,0,100,200,300,400,500,600,700,800,900,2,0,1,0.25,0.25,0.25,0.25,0.25,0.25,0.25,0.25,0.25,0.25,-0.5,-0.5,-0.5,-0.5,-0.5,-0.5,-0.5,-0.5,-0.5,-0.5,-0.5,linear,100,0.025,0,0.5,TRUE,4,fixmodel,0.8326,-6.158014974008493e-4,0.007311699328240039,0,10000
10,250,0,100,200,300,400,500,600,700,800,900,2,0,1,0.25,0.25,0.25,0.25,0.25,0.25,0.25,0.25,0.25,0.25,-0.5,-0.5,-0.5,-0.5,-0.5,-0.5,-0.5,-0.5,-0.5,-0.5,-0.5,linear,100,0.025,0,0.5,TRUE,4,poolmodel,0.6101,-0.0639787386872431,0.010962172709332845,0,10000
10,250,0,100,200,300,400,500,600,700,800,900,2,0,1,0.25,0.25,0.25,0.25,0.25,0.25,0.25,0.25,0.25,0.25,-0.5,-0.5,-0.5,-0.5,-0.5,-0.5,-0.5,-0.5,-0.5,-0.5,-0.5,linear,100,0.025,0,0.5,TRUE,4,sepmodel,0.7889,-9.00429081147014e-4,0.008017519900548683,0,10000
10,250,0,100,200,300,400,500,600,700,800,900,2,0,1,0.25,0.25,0.25,0.25,0.25,0.25,0.25,0.25,0.25,0.25,-0.5,-0.5,-0.5,-0.5,-0.5,-0.5,-0.5,-0.5,-0.5,-0.5,-0.5,linear,100,0.025,0,0.5,TRUE,5,fixmodel,0.8345,-7.610519441868901e-4,0.007303435779109405,0,10000
10,250,0,100,200,300,400,500,600,700,800,900,2,0,1,0.25,0.25,0.25,0.25,0.25,0.25,0.25,0.25,0.25,0.25,-0.5,-0.5,-0.5,-0.5,-0.5,-0.5,-0.5,-0.5,-0.5,-0.5,-0.5,linear,100,0.025,0,0.5,TRUE,5,poolmodel,0.5449,-0.08010693006446752,0.013206325138940444,0,10000
10,250,0,100,200,300,400,500,600,700,800,900,2,0,1,0.25,0.25,0.25,0.25,0.25,0.25,0.25,0.25,0.25,0.25,-0.5,-0.5,-0.5,-0.5,-0.5,-0.5,-0.5,-0.5,-0.5,-0.5,-0.5,linear,100,0.025,0,0.5,TRUE,5,sepmodel,0.7887,-9.281876670698546e-4,0.008140412914444364,0,10000
10,250,0,100,200,300,400,500,600,700,800,900,2,0,1,0.25,0.25,0.25,0.25,0.25,0.25,0.25,0.25,0.25,0.25,-0.5,-0.5,-0.5,-0.5,-0.5,-0.5,-0.5,-0.5,-0.5,-0.5,-0.5,linear,100,0.025,0,0.5,TRUE,6,fixmodel,0.85,1.9792393044612666e-4,0.007084129013831472,0,10000
10,250,0,100,200,300,400,500,600,700,800,900,2,0,1,0.25,0.25,0.25,0.25,0.25,0.25,0.25,0.25,0.25,0.25,-0.5,-0.5,-0.5,-0.5,-0.5,-0.5,-0.5,-0.5,-0.5,-0.5,-0.5,linear,100,0.025,0,0.5,TRUE,6,poolmodel,0.483,-0.09327275301649811,0.015257188067501006,0,10000
10,250,0,100,200,300,400,500,600,700,800,900,2,0,1,0.25,0.25,0.25,0.25,0.25,0.25,0.25,0.25,0.25,0.25,-0.5,-0.5,-0.5,-0.5,-0.5,-0.5,-0.5,-0.5,-0.5,-0.5,-0.5,linear,100,0.025,0,0.5,TRUE,6,sepmodel,0.7945,-3.310117931019786e-5,0.00798990148224323,0,10000
10,250,0,100,200,300,400,500,600,700,800,900,2,0,1,0.25,0.25,0.25,0.25,0.25,0.25,0.25,0.25,0.25,0.25,-0.5,-0.5,-0.5,-0.5,-0.5,-0.5,-0.5,-0.5,-0.5,-0.5,-0.5,linear,100,0.025,0,0.5,TRUE,7,fixmodel,0.842,-0.0018245175906599124,0.00697091077791336,0,10000
10,250,0,100,200,300,400,500,600,700,800,900,2,0,1,0.25,0.25,0.25,0.25,0.25,0.25,0.25,0.25,0.25,0.25,-0.5,-0.5,-0.5,-0.5,-0.5,-0.5,-0.5,-0.5,-0.5,-0.5,-0.5,linear,100,0.025,0,0.5,TRUE,7,poolmodel,0.4226,-0.10692535331609504,0.017900403865630705,0,10000
10,250,0,100,200,300,400,500,600,700,800,900,2,0,1,0.25,0.25,0.25,0.25,0.25,0.25,0.25,0.25,0.25,0.25,-0.5,-0.5,-0.5,-0.5,-0.5,-0.5,-0.5,-0.5,-0.5,-0.5,-0.5,linear,100,0.025,0,0.5,TRUE,7,sepmodel,0.7859,-0.0019273580977287638,0.00806050286096045,0,10000
10,250,0,100,200,300,400,500,600,700,800,900,2,0,1,0.25,0.25,0.25,0.25,0.25,0.25,0.25,0.25,0.25,0.25,-0.5,-0.5,-0.5,-0.5,-0.5,-0.5,-0.5,-0.5,-0.5,-0.5,-0.5,linear,100,0.025,0,0.5,TRUE,8,fixmodel,0.8473,-0.0016002193785543677,0.006865201190787087,0,10000
10,250,0,100,200,300,400,500,600,700,800,900,2,0,1,0.25,0.25,0.25,0.25,0.25,0.25,0.25,0.25,0.25,0.25,-0.5,-0.5,-0.5,-0.5,-0.5,-0.5,-0.5,-0.5,-0.5,-0.5,-0.5,linear,100,0.025,0,0.5,TRUE,8,poolmodel,0.3741,-0.11753007676357653,0.02014386893308524,0,10000
10,250,0,100,200,300,400,500,600,700,800,900,2,0,1,0.25,0.25,0.25,0.25,0.25,0.25,0.25,0.25,0.25,0.25,-0.5,-0.5,-0.5,-0.5,-0.5,-0.5,-0.5,-0.5,-0.5,-0.5,-0.5,linear,100,0.025,0,0.5,TRUE,8,sepmodel,0.7867,-0.001800642805856228,0.007994081574727821,0,10000
10,250,0,100,200,300,400,500,600,700,800,900,2,0,1,0.25,0.25,0.25,0.25,0.25,0.25,0.25,0.25,0.25,0.25,-0.5,-0.5,-0.5,-0.5,-0.5,-0.5,-0.5,-0.5,-0.5,-0.5,-0.5,linear,100,0.025,0,0.5,TRUE,9,fixmodel,0.8498,-5.135154266932366e-4,0.006950720358807553,0,10000
10,250,0,100,200,300,400,500,600,700,800,900,2,0,1,0.25,0.25,0.25,0.25,0.25,0.25,0.25,0.25,0.25,0.25,-0.5,-0.5,-0.5,-0.5,-0.5,-0.5,-0.5,-0.5,-0.5,-0.5,-0.5,linear,100,0.025,0,0.5,TRUE,9,poolmodel,0.3487,-0.12537244166926043,0.022160674141190006,0,10000
10,250,0,100,200,300,400,500,600,700,800,900,2,0,1,0.25,0.25,0.25,0.25,0.25,0.25,0.25,0.25,0.25,0.25,-0.5,-0.5,-0.5,-0.5,-0.5,-0.5,-0.5,-0.5,-0.5,-0.5,-0.5,linear,100,0.025,0,0.5,TRUE,9,sepmodel,0.7899,-5.682936992362587e-4,0.008136376986733852,0,10000
10,250,0,100,200,300,400,500,600,700,800,900,2,0,1,0.25,0.25,0.25,0.25,0.25,0.25,0.25,0.25,0.25,0.25,-0.5,-0.5,-0.5,-0.5,-0.5,-0.5,-0.5,-0.5,-0.5,-0.5,-0.5,linear,100,0.025,0,0.5,TRUE,10,fixmodel,0.8551,-8.322043731326159e-4,0.006729062322242584,0,10000
10,250,0,100,200,300,400,500,600,700,800,900,2,0,1,0.25,0.25,0.25,0.25,0.25,0.25,0.25,0.25,0.25,0.25,-0.5,-0.5,-0.5,-0.5,-0.5,-0.5,-0.5,-0.5,-0.5,-0.5,-0.5,linear,100,0.025,0,0.5,TRUE,10,poolmodel,0.304,-0.1335401468463621,0.024025448900451007,0,10000
10,250,0,100,200,300,400,500,600,700,800,900,2,0,1,0.25,0.25,0.25,0.25,0.25,0.25,0.25,0.25,0.25,0.25,-0.5,-0.5,-0.5,-0.5,-0.5,-0.5,-0.5,-0.5,-0.5,-0.5,-0.5,linear,100,0.025,0,0.5,TRUE,10,sepmodel,0.7967,-6.89873823221229e-4,0.007827729164983638,0,10000
10,250,0,125,250,375,500,625,750,875,1000,1125,2,0,1,0.25,0.25,0.25,0.25,0.25,0.25,0.25,0.25,0.25,0.25,-0.5,-0.5,-0.5,-0.5,-0.5,-0.5,-0.5,-0.5,-0.5,-0.5,-0.5,linear,100,0.025,0,0.5,TRUE,2,fixmodel,0.8223,6.664091559869287e-4,0.007611435520603341,0,10000
10,250,0,125,250,375,500,625,750,875,1000,1125,2,0,1,0.25,0.25,0.25,0.25,0.25,0.25,0.25,0.25,0.25,0.25,-0.5,-0.5,-0.5,-0.5,-0.5,-0.5,-0.5,-0.5,-0.5,-0.5,-0.5,linear,100,0.025,0,0.5,TRUE,2,poolmodel,0.7629,-0.024114112150533107,0.007779377841399199,0,10000
10,250,0,125,250,375,500,625,750,875,1000,1125,2,0,1,0.25,0.25,0.25,0.25,0.25,0.25,0.25,0.25,0.25,0.25,-0.5,-0.5,-0.5,-0.5,-0.5,-0.5,-0.5,-0.5,-0.5,-0.5,-0.5,linear,100,0.025,0,0.5,TRUE,2,sepmodel,0.7957,4.0849728153616386e-4,0.008078174493267731,0,10000
10,250,0,125,250,375,500,625,750,875,1000,1125,2,0,1,0.25,0.25,0.25,0.25,0.25,0.25,0.25,0.25,0.25,0.25,-0.5,-0.5,-0.5,-0.5,-0.5,-0.5,-0.5,-0.5,-0.5,-0.5,-0.5,linear,100,0.025,0,0.5,TRUE,3,fixmodel,0.8376,0.0024708048512168484,0.007405515497465707,0,10000
10,250,0,125,250,375,500,625,750,875,1000,1125,2,0,1,0.25,0.25,0.25,0.25,0.25,0.25,0.25,0.25,0.25,0.25,-0.5,-0.5,-0.5,-0.5,-0.5,-0.5,-0.5,-0.5,-0.5,-0.5,-0.5,linear,100,0.025,0,0.5,TRUE,3,poolmodel,0.6873,-0.046676620250542526,0.009004535082083135,0,10000
10,250,0,125,250,375,500,625,750,875,1000,1125,2,0,1,0.25,0.25,0.25,0.25,0.25,0.25,0.25,0.25,0.25,0.25,-0.5,-0.5,-0.5,-0.5,-0.5,-0.5,-0.5,-0.5,-0.5,-0.5,-0.5,linear,100,0.025,0,0.5,TRUE,3,sepmodel,0.8002,0.0022157050361730573,0.008003315305573501,0,10000
10,250,0,125,250,375,500,625,750,875,1000,1125,2,0,1,0.25,0.25,0.25,0.25,0.25,0.25,0.25,0.25,0.25,0.25,-0.5,-0.5,-0.5,-0.5,-0.5,-0.5,-0.5,-0.5,-0.5,-0.5,-0.5,linear,100,0.025,0,0.5,TRUE,4,fixmodel,0.8437,0.0013202266002383363,0.007129468960850791,0,10000
10,250,0,125,250,375,500,625,750,875,1000,1125,2,0,1,0.25,0.25,0.25,0.25,0.25,0.25,0.25,0.25,0.25,0.25,-0.5,-0.5,-0.5,-0.5,-0.5,-0.5,-0.5,-0.5,-0.5,-0.5,-0.5,linear,100,0.025,0,0.5,TRUE,4,poolmodel,0.5987,-0.06932937052142449,0.011367950608825715,0,10000
10,250,0,125,250,375,500,625,750,875,1000,1125,2,0,1,0.25,0.25,0.25,0.25,0.25,0.25,0.25,0.25,0.25,0.25,-0.5,-0.5,-0.5,-0.5,-0.5,-0.5,-0.5,-0.5,-0.5,-0.5,-0.5,linear,100,0.025,0,0.5,TRUE,4,sepmodel,0.7944,9.973756641263652e-4,0.00792860631446835,0,10000
10,250,0,125,250,375,500,625,750,875,1000,1125,2,0,1,0.25,0.25,0.25,0.25,0.25,0.25,0.25,0.25,0.25,0.25,-0.5,-0.5,-0.5,-0.5,-0.5,-0.5,-0.5,-0.5,-0.5,-0.5,-0.5,linear,100,0.025,0,0.5,TRUE,5,fixmodel,0.8451,8.233080130959045e-4,0.007184806240991147,0,10000
10,250,0,125,250,375,500,625,750,875,1000,1125,2,0,1,0.25,0.25,0.25,0.25,0.25,0.25,0.25,0.25,0.25,0.25,-0.5,-0.5,-0.5,-0.5,-0.5,-0.5,-0.5,-0.5,-0.5,-0.5,-0.5,linear,100,0.025,0,0.5,TRUE,5,poolmodel,0.5155,-0.08858088389264741,0.014330330250178762,0,10000
10,250,0,125,250,375,500,625,750,875,1000,1125,2,0,1,0.25,0.25,0.25,0.25,0.25,0.25,0.25,0.25,0.25,0.25,-0.5,-0.5,-0.5,-0.5,-0.5,-0.5,-0.5,-0.5,-0.5,-0.5,-0.5,linear,100,0.025,0,0.5,TRUE,5,sepmodel,0.7924,4.0239545645164563e-4,0.008090008431353718,0,10000
10,250,0,125,250,375,500,625,750,875,1000,1125,2,0,1,0.25,0.25,0.25,0.25,0.25,0.25,0.25,0.25,0.25,0.25,-0.5,-0.5,-0.5,-0.5,-0.5,-0.5,-0.5,-0.5,-0.5,-0.5,-0.5,linear,100,0.025,0,0.5,TRUE,6,fixmodel,0.8495,8.47521695568449e-4,0.006992433616619915,0,10000
10,250,0,125,250,375,500,625,750,875,1000,1125,2,0,1,0.25,0.25,0.25,0.25,0.25,0.25,0.25,0.25,0.25,0.25,-0.5,-0.5,-0.5,-0.5,-0.5,-0.5,-0.5,-0.5,-0.5,-0.5,-0.5,linear,100,0.025,0,0.5,TRUE,6,poolmodel,0.4391,-0.10503459119319944,0.017343104122224475,0,10000
10,250,0,125,250,375,500,625,750,875,1000,1125,2,0,1,0.25,0.25,0.25,0.25,0.25,0.25,0.25,0.25,0.25,0.25,-0.5,-0.5,-0.5,-0.5,-0.5,-0.5,-0.5,-0.5,-0.5,-0.5,-0.5,linear,100,0.025,0,0.5,TRUE,6,sepmodel,0.7899,2.9143982925099084e-4,0.007978153299857077,0,10000
10,250,0,125,250,375,500,625,750,875,1000,1125,2,0,1,0.25,0.25,0.25,0.25,0.25,0.25,0.25,0.25,0.25,0.25,-0.5,-0.5,-0.5,-0.5,-0.5,-0.5,-0.5,-0.5,-0.5,-0.5,-0.5,linear,100,0.025,0,0.5,TRUE,7,fixmodel,0.8562,0.0015476772318999917,0.006699258915112573,0,10000
10,250,0,125,250,375,500,625,750,875,1000,1125,2,0,1,0.25,0.25,0.25,0.25,0.25,0.25,0.25,0.25,0.25,0.25,-0.5,-0.5,-0.5,-0.5,-0.5,-0.5,-0.5,-0.5,-0.5,-0.5,-0.5,linear,100,0.025,0,0.5,TRUE,7,poolmodel,0.3767,-0.11860676938429808,0.020091214926179546,0,10000
10,250,0,125,250,375,500,625,750,875,1000,1125,2,0,1,0.25,0.25,0.25,0.25,0.25,0.25,0.25,0.25,0.25,0.25,-0.5,-0.5,-0.5,-0.5,-0.5,-0.5,-0.5,-0.5,-0.5,-0.5,-0.5,linear,100,0.025,0,0.5,TRUE,7,sepmodel,0.801,9.083527507646742e-4,0.007799906948443856,0,10000
10,250,0,125,250,375,500,625,750,875,1000,1125,2,0,1,0.25,0.25,0.25,0.25,0.25,0.25,0.25,0.25,0.25,0.25,-0.5,-0.5,-0.5,-0.5,-0.5,-0.5,-0.5,-0.5,-0.5,-0.5,-0.5,linear,100,0.025,0,0.5,TRUE,8,fixmodel,0.8549,8.752905369482463e-4,0.006978868321677053,0,10000
10,250,0,125,250,375,500,625,750,875,1000,1125,2,0,1,0.25,0.25,0.25,0.25,0.25,0.25,0.25,0.25,0.25,0.25,-0.5,-0.5,-0.5,-0.5,-0.5,-0.5,-0.5,-0.5,-0.5,-0.5,-0.5,linear,100,0.025,0,0.5,TRUE,8,poolmodel,0.3232,-0.13156612008844787,0.023569916545758293,0,10000
10,250,0,125,250,375,500,625,750,875,1000,1125,2,0,1,0.25,0.25,0.25,0.25,0.25,0.25,0.25,0.25,0.25,0.25,-0.5,-0.5,-0.5,-0.5,-0.5,-0.5,-0.5,-0.5,-0.5,-0.5,-0.5,linear,100,0.025,0,0.5,TRUE,8,sepmodel,0.7913,3.749029484533242e-4,0.00818844943616798,0,10000
10,250,0,125,250,375,500,625,750,875,1000,1125,2,0,1,0.25,0.25,0.25,0.25,0.25,0.25,0.25,0.25,0.25,0.25,-0.5,-0.5,-0.5,-0.5,-0.5,-0.5,-0.5,-0.5,-0.5,-0.5,-0.5,linear,100,0.025,0,0.5,TRUE,9,fixmodel,0.8614,0.0011758707427578922,0.006742955314171153,0,10000
10,250,0,125,250,375,500,625,750,875,1000,1125,2,0,1,0.25,0.25,0.25,0.25,0.25,0.25,0.25,0.25,0.25,0.25,-0.5,-0.5,-0.5,-0.5,-0.5,-0.5,-0.5,-0.5,-0.5,-0.5,-0.5,linear,100,0.025,0,0.5,TRUE,9,poolmodel,0.2721,-0.14170342529414534,0.02610086954004983,0,10000
10,250,0,125,250,375,500,625,750,875,1000,1125,2,0,1,0.25,0.25,0.25,0.25,0.25,0.25,0.25,0.25,0.25,0.25,-0.5,-0.5,-0.5,-0.5,-0.5,-0.5,-0.5,-0.5,-0.5,-0.5,-0.5,linear,100,0.025,0,0.5,TRUE,9,sepmodel,0.7932,6.412264394722248e-4,0.00804260939602444,0,10000
10,250,0,125,250,375,500,625,750,875,1000,1125,2,0,1,0.25,0.25,0.25,0.25,0.25,0.25,0.25,0.25,0.25,0.25,-0.5,-0.5,-0.5,-0.5,-0.5,-0.5,-0.5,-0.5,-0.5,-0.5,-0.5,linear,100,0.025,0,0.5,TRUE,10,fixmodel,0.8608,1.2177010509752361e-4,0.006670079281228396,0,10000
10,250,0,125,250,375,500,625,750,875,1000,1125,2,0,1,0.25,0.25,0.25,0.25,0.25,0.25,0.25,0.25,0.25,0.25,-0.5,-0.5,-0.5,-0.5,-0.5,-0.5,-0.5,-0.5,-0.5,-0.5,-0.5,linear,100,0.025,0,0.5,TRUE,10,poolmodel,0.2388,-0.15118541953697562,0.028810547599189894,0,10000
10,250,0,125,250,375,500,625,750,875,1000,1125,2,0,1,0.25,0.25,0.25,0.25,0.25,0.25,0.25,0.25,0.25,0.25,-0.5,-0.5,-0.5,-0.5,-0.5,-0.5,-0.5,-0.5,-0.5,-0.5,-0.5,linear,100,0.025,0,0.5,TRUE,10,sepmodel,0.7898,-3.7004197734124774e-4,0.008006149160791693,0,10000
10,250,0,150,300,450,600,750,900,1050,1200,1350,2,0,1,0.25,0.25,0.25,0.25,0.25,0.25,0.25,0.25,0.25,0.25,-0.5,-0.5,-0.5,-0.5,-0.5,-0.5,-0.5,-0.5,-0.5,-0.5,-0.5,linear,100,0.025,0,0.5,TRUE,2,fixmodel,0.8174,4.3519826195667963e-4,0.007767013011289082,0,10000
10,250,0,150,300,450,600,750,900,1050,1200,1350,2,0,1,0.25,0.25,0.25,0.25,0.25,0.25,0.25,0.25,0.25,0.25,-0.5,-0.5,-0.5,-0.5,-0.5,-0.5,-0.5,-0.5,-0.5,-0.5,-0.5,linear,100,0.025,0,0.5,TRUE,2,poolmodel,0.7597,-0.024484234226988522,0.007749571032713219,0,10000
10,250,0,150,300,450,600,750,900,1050,1200,1350,2,0,1,0.25,0.25,0.25,0.25,0.25,0.25,0.25,0.25,0.25,0.25,-0.5,-0.5,-0.5,-0.5,-0.5,-0.5,-0.5,-0.5,-0.5,-0.5,-0.5,linear,100,0.025,0,0.5,TRUE,2,sepmodel,0.7973,6.60609509736167e-4,0.008230317643438364,0,10000
10,250,0,150,300,450,600,750,900,1050,1200,1350,2,0,1,0.25,0.25,0.25,0.25,0.25,0.25,0.25,0.25,0.25,0.25,-0.5,-0.5,-0.5,-0.5,-0.5,-0.5,-0.5,-0.5,-0.5,-0.5,-0.5,linear,100,0.025,0,0.5,TRUE,3,fixmodel,0.8325,4.3448608192231766e-4,0.007353562608869623,0,10000
10,250,0,150,300,450,600,750,900,1050,1200,1350,2,0,1,0.25,0.25,0.25,0.25,0.25,0.25,0.25,0.25,0.25,0.25,-0.5,-0.5,-0.5,-0.5,-0.5,-0.5,-0.5,-0.5,-0.5,-0.5,-0.5,linear,100,0.025,0,0.5,TRUE,3,poolmodel,0.6823,-0.05022988814961833,0.00925196766098682,0,10000
10,250,0,150,300,450,600,750,900,1050,1200,1350,2,0,1,0.25,0.25,0.25,0.25,0.25,0.25,0.25,0.25,0.25,0.25,-0.5,-0.5,-0.5,-0.5,-0.5,-0.5,-0.5,-0.5,-0.5,-0.5,-0.5,linear,100,0.025,0,0.5,TRUE,3,sepmodel,0.7959,7.945505397715499e-4,0.008109090775356518,0,10000
10,250,0,150,300,450,600,750,900,1050,1200,1350,2,0,1,0.25,0.25,0.25,0.25,0.25,0.25,0.25,0.25,0.25,0.25,-0.5,-0.5,-0.5,-0.5,-0.5,-0.5,-0.5,-0.5,-0.5,-0.5,-0.5,linear,100,0.025,0,0.5,TRUE,4,fixmodel,0.8373,7.226825569271836e-5,0.00721861199325785,0,10000
10,250,0,150,300,450,600,750,900,1050,1200,1350,2,0,1,0.25,0.25,0.25,0.25,0.25,0.25,0.25,0.25,0.25,0.25,-0.5,-0.5,-0.5,-0.5,-0.5,-0.5,-0.5,-0.5,-0.5,-0.5,-0.5,linear,100,0.025,0,0.5,TRUE,4,poolmodel,0.5799,-0.07486383514321221,0.012120268687010705,0,10000
10,250,0,150,300,450,600,750,900,1050,1200,1350,2,0,1,0.25,0.25,0.25,0.25,0.25,0.25,0.25,0.25,0.25,0.25,-0.5,-0.5,-0.5,-0.5,-0.5,-0.5,-0.5,-0.5,-0.5,-0.5,-0.5,linear,100,0.025,0,0.5,TRUE,4,sepmodel,0.7941,3.8911568682041634e-4,0.008111721243726744,0,10000
10,250,0,150,300,450,600,750,900,1050,1200,1350,2,0,1,0.25,0.25,0.25,0.25,0.25,0.25,0.25,0.25,0.25,0.25,-0.5,-0.5,-0.5,-0.5,-0.5,-0.5,-0.5,-0.5,-0.5,-0.5,-0.5,linear,100,0.025,0,0.5,TRUE,5,fixmodel,0.8445,-1.8263412327613847e-4,0.007141991919269508,0,10000
10,250,0,150,300,450,600,750,900,1050,1200,1350,2,0,1,0.25,0.25,0.25,0.25,0.25,0.25,0.25,0.25,0.25,0.25,-0.5,-0.5,-0.5,-0.5,-0.5,-0.5,-0.5,-0.5,-0.5,-0.5,-0.5,linear,100,0.025,0,0.5,TRUE,5,poolmodel,0.4893,-0.09605711011325568,0.015616999146264084,0,10000
10,250,0,150,300,450,600,750,900,1050,1200,1350,2,0,1,0.25,0.25,0.25,0.25,0.25,0.25,0.25,0.25,0.25,0.25,-0.5,-0.5,-0.5,-0.5,-0.5,-0.5,-0.5,-0.5,-0.5,-0.5,-0.5,linear,100,0.025,0,0.5,TRUE,5,sepmodel,0.7932,1.8786620639312367e-4,0.008096586243891537,0,10000
10,250,0,150,300,450,600,750,900,1050,1200,1350,2,0,1,0.25,0.25,0.25,0.25,0.25,0.25,0.25,0.25,0.25,0.25,-0.5,-0.5,-0.5,-0.5,-0.5,-0.5,-0.5,-0.5,-0.5,-0.5,-0.5,linear,100,0.025,0,0.5,TRUE,6,fixmodel,0.8493,-7.593937161320454e-4,0.006940737334607466,0,10000
10,250,0,150,300,450,600,750,900,1050,1200,1350,2,0,1,0.25,0.25,0.25,0.25,0.25,0.25,0.25,0.25,0.25,0.25,-0.5,-0.5,-0.5,-0.5,-0.5,-0.5,-0.5,-0.5,-0.5,-0.5,-0.5,linear,100,0.025,0,0.5,TRUE,6,poolmodel,0.3983,-0.1149755766408107,0.019285875176317076,0,10000
10,250,0,150,300,450,600,750,900,1050,1200,1350,2,0,1,0.25,0.25,0.25,0.25,0.25,0.25,0.25,0.25,0.25,0.25,-0.5,-0.5,-0.5,-0.5,-0.5,-0.5,-0.5,-0.5,-0.5,-0.5,-0.5,linear,100,0.025,0,0.5,TRUE,6,sepmodel,0.7955,-3.925881523878632e-4,0.00802848147143431,0,10000
10,250,0,150,300,450,600,750,900,1050,1200,1350,2,0,1,0.25,0.25,0.25,0.25,0.25,0.25,0.25,0.25,0.25,0.25,-0.5,-0.5,-0.5,-0.5,-0.5,-0.5,-0.5,-0.5,-0.5,-0.5,-0.5,linear,100,0.025,0,0.5,TRUE,7,fixmodel,0.858,0.0012646180622021322,0.006861252764016126,0,10000
10,250,0,150,300,450,600,750,900,1050,1200,1350,2,0,1,0.25,0.25,0.25,0.25,0.25,0.25,0.25,0.25,0.25,0.25,-0.5,-0.5,-0.5,-0.5,-0.5,-0.5,-0.5,-0.5,-0.5,-0.5,-0.5,linear,100,0.025,0,0.5,TRUE,7,poolmodel,0.3375,-0.12911409097520365,0.0226912715726643,0,10000
10,250,0,150,300,450,600,750,900,1050,1200,1350,2,0,1,0.25,0.25,0.25,0.25,0.25,0.25,0.25,0.25,0.25,0.25,-0.5,-0.5,-0.5,-0.5,-0.5,-0.5,-0.5,-0.5,-0.5,-0.5,-0.5,linear,100,0.025,0,0.5,TRUE,7,sepmodel,0.7952,0.001236684893255306,0.007957019430815667,0,10000
10,250,0,150,300,450,600,750,900,1050,1200,1350,2,0,1,0.25,0.25,0.25,0.25,0.25,0.25,0.25,0.25,0.25,0.25,-0.5,-0.5,-0.5,-0.5,-0.5,-0.5,-0.5,-0.5,-0.5,-0.5,-0.5,linear,100,0.025,0,0.5,TRUE,8,fixmodel,0.8591,8.273512107501111e-5,0.006861678239092723,0,10000
10,250,0,150,300,450,600,750,900,1050,1200,1350,2,0,1,0.25,0.25,0.25,0.25,0.25,0.25,0.25,0.25,0.25,0.25,-0.5,-0.5,-0.5,-0.5,-0.5,-0.5,-0.5,-0.5,-0.5,-0.5,-0.5,linear,100,0.025,0,0.5,TRUE,8,poolmodel,0.2746,-0.14447908849652377,0.026886336528777602,0,10000
10,250,0,150,300,450,600,750,900,1050,1200,1350,2,0,1,0.25,0.25,0.25,0.25,0.25,0.25,0.25,0.25,0.25,0.25,-0.5,-0.5,-0.5,-0.5,-0.5,-0.5,-0.5,-0.5,-0.5,-0.5,-0.5,linear,100,0.025,0,0.5,TRUE,8,sepmodel,0.7922,-1.5255198302833702e-4,0.008063091121955919,0,10000
10,250,0,150,300,450,600,750,900,1050,1200,1350,2,0,1,0.25,0.25,0.25,0.25,0.25,0.25,0.25,0.25,0.25,0.25,-0.5,-0.5,-0.5,-0.5,-0.5,-0.5,-0.5,-0.5,-0.5,-0.5,-0.5,linear,100,0.025,0,0.5,TRUE,9,fixmodel,0.8576,-2.4900949662899256e-4,0.0068069426625625585,0,10000
10,250,0,150,300,450,600,750,900,1050,1200,1350,2,0,1,0.25,0.25,0.25,0.25,0.25,0.25,0.25,0.25,0.25,0.25,-0.5,-0.5,-0.5,-0.5,-0.5,-0.5,-0.5,-0.5,-0.5,-0.5,-0.5,linear,100,0.025,0,0.5,TRUE,9,poolmodel,0.219,-0.15691356098426426,0.030590859905459417,0,10000
10,250,0,150,300,450,600,750,900,1050,1200,1350,2,0,1,0.25,0.25,0.25,0.25,0.25,0.25,0.25,0.25,0.25,0.25,-0.5,-0.5,-0.5,-0.5,-0.5,-0.5,-0.5,-0.5,-0.5,-0.5,-0.5,linear,100,0.025,0,0.5,TRUE,9,sepmodel,0.796,-5.663127358579345e-4,0.007924691051828386,0,10000
10,250,0,150,300,450,600,750,900,1050,1200,1350,2,0,1,0.25,0.25,0.25,0.25,0.25,0.25,0.25,0.25,0.25,0.25,-0.5,-0.5,-0.5,-0.5,-0.5,-0.5,-0.5,-0.5,-0.5,-0.5,-0.5,linear,100,0.025,0,0.5,TRUE,10,fixmodel,0.8583,1.9073803625190813e-4,0.0068960815014602024,0,10000
10,250,0,150,300,450,600,750,900,1050,1200,1350,2,0,1,0.25,0.25,0.25,0.25,0.25,0.25,0.25,0.25,0.25,0.25,-0.5,-0.5,-0.5,-0.5,-0.5,-0.5,-0.5,-0.5,-0.5,-0.5,-0.5,linear,100,0.025,0,0.5,TRUE,10,poolmodel,0.1858,-0.16724338885905585,0.03397584423279108,0,10000
10,250,0,150,300,450,600,750,900,1050,1200,1350,2,0,1,0.25,0.25,0.25,0.25,0.25,0.25,0.25,0.25,0.25,0.25,-0.5,-0.5,-0.5,-0.5,-0.5,-0.5,-0.5,-0.5,-0.5,-0.5,-0.5,linear,100,0.025,0,0.5,TRUE,10,sepmodel,0.7919,-7.472265860401622e-6,0.008154908687460894,0,10000
10,250,0,175,350,525,700,875,1050,1225,1400,1575,2,0,1,0.25,0.25,0.25,0.25,0.25,0.25,0.25,0.25,0.25,0.25,-0.5,-0.5,-0.5,-0.5,-0.5,-0.5,-0.5,-0.5,-0.5,-0.5,-0.5,linear,100,0.025,0,0.5,TRUE,2,fixmodel,0.8139,-7.13867395321474e-4,0.007592690619140682,0,10000
10,250,0,175,350,525,700,875,1050,1225,1400,1575,2,0,1,0.25,0.25,0.25,0.25,0.25,0.25,0.25,0.25,0.25,0.25,-0.5,-0.5,-0.5,-0.5,-0.5,-0.5,-0.5,-0.5,-0.5,-0.5,-0.5,linear,100,0.025,0,0.5,TRUE,2,poolmodel,0.7633,-0.026237026539586948,0.007666404291936899,0,10000
10,250,0,175,350,525,700,875,1050,1225,1400,1575,2,0,1,0.25,0.25,0.25,0.25,0.25,0.25,0.25,0.25,0.25,0.25,-0.5,-0.5,-0.5,-0.5,-0.5,-0.5,-0.5,-0.5,-0.5,-0.5,-0.5,linear,100,0.025,0,0.5,TRUE,2,sepmodel,0.7875,-8.877023691769302e-4,0.008029483472892791,0,10000
10,250,0,175,350,525,700,875,1050,1225,1400,1575,2,0,1,0.25,0.25,0.25,0.25,0.25,0.25,0.25,0.25,0.25,0.25,-0.5,-0.5,-0.5,-0.5,-0.5,-0.5,-0.5,-0.5,-0.5,-0.5,-0.5,linear,100,0.025,0,0.5,TRUE,3,fixmodel,0.8348,-5.88799528099116e-4,0.0073323465989946195,0,10000
10,250,0,175,350,525,700,875,1050,1225,1400,1575,2,0,1,0.25,0.25,0.25,0.25,0.25,0.25,0.25,0.25,0.25,0.25,-0.5,-0.5,-0.5,-0.5,-0.5,-0.5,-0.5,-0.5,-0.5,-0.5,-0.5,linear,100,0.025,0,0.5,TRUE,3,poolmodel,0.6768,-0.05279672811007869,0.009420918916261506,0,10000
10,250,0,175,350,525,700,875,1050,1225,1400,1575,2,0,1,0.25,0.25,0.25,0.25,0.25,0.25,0.25,0.25,0.25,0.25,-0.5,-0.5,-0.5,-0.5,-0.5,-0.5,-0.5,-0.5,-0.5,-0.5,-0.5,linear,100,0.025,0,0.5,TRUE,3,sepmodel,0.7944,-7.183992303194952e-4,0.008028616708316115,0,10000
10,250,0,175,350,525,700,875,1050,1225,1400,1575,2,0,1,0.25,0.25,0.25,0.25,0.25,0.25,0.25,0.25,0.25,0.25,-0.5,-0.5,-0.5,-0.5,-0.5,-0.5,-0.5,-0.5,-0.5,-0.5,-0.5,linear,100,0.025,0,0.5,TRUE,4,fixmodel,0.8398,-6.324586441801417e-4,0.007104235999236495,0,10000
10,250,0,175,350,525,700,875,1050,1225,1400,1575,2,0,1,0.25,0.25,0.25,0.25,0.25,0.25,0.25,0.25,0.25,0.25,-0.5,-0.5,-0.5,-0.5,-0.5,-0.5,-0.5,-0.5,-0.5,-0.5,-0.5,linear,100,0.025,0,0.5,TRUE,4,poolmodel,0.5742,-0.0781560371785871,0.01239485822172543,0,10000
10,250,0,175,350,525,700,875,1050,1225,1400,1575,2,0,1,0.25,0.25,0.25,0.25,0.25,0.25,0.25,0.25,0.25,0.25,-0.5,-0.5,-0.5,-0.5,-0.5,-0.5,-0.5,-0.5,-0.5,-0.5,-0.5,linear,100,0.025,0,0.5,TRUE,4,sepmodel,0.7925,-8.012835754121887e-4,0.007944452636884786,0,10000
10,250,0,175,350,525,700,875,1050,1225,1400,1575,2,0,1,0.25,0.25,0.25,0.25,0.25,0.25,0.25,0.25,0.25,0.25,-0.5,-0.5,-0.5,-0.5,-0.5,-0.5,-0.5,-0.5,-0.5,-0.5,-0.5,linear,100,0.025,0,0.5,TRUE,5,fixmodel,0.8453,7.693043397379397e-4,0.006965518368040324,0,10000
10,250,0,175,350,525,700,875,1050,1225,1400,1575,2,0,1,0.25,0.25,0.25,0.25,0.25,0.25,0.25,0.25,0.25,0.25,-0.5,-0.5,-0.5,-0.5,-0.5,-0.5,-0.5,-0.5,-0.5,-0.5,-0.5,linear,100,0.025,0,0.5,TRUE,5,poolmodel,0.4821,-0.09917464720382527,0.01591689163659611,0,10000
10,250,0,175,350,525,700,875,1050,1225,1400,1575,2,0,1,0.25,0.25,0.25,0.25,0.25,0.25,0.25,0.25,0.25,0.25,-0.5,-0.5,-0.5,-0.5,-0.5,-0.5,-0.5,-0.5,-0.5,-0.5,-0.5,linear,100,0.025,0,0.5,TRUE,5,sepmodel,0.7965,4.678007787932484e-4,0.007910344572171562,0,10000
10,250,0,175,350,525,700,875,1050,1225,1400,1575,2,0,1,0.25,0.25,0.25,0.25,0.25,0.25,0.25,0.25,0.25,0.25,-0.5,-0.5,-0.5,-0.5,-0.5,-0.5,-0.5,-0.5,-0.5,-0.5,-0.5,linear,100,0.025,0,0.5,TRUE,6,fixmodel,0.8522,8.62842660639369e-4,0.006999088460305075,0,10000
10,250,0,175,350,525,700,875,1050,1225,1400,1575,2,0,1,0.25,0.25,0.25,0.25,0.25,0.25,0.25,0.25,0.25,0.25,-0.5,-0.5,-0.5,-0.5,-0.5,-0.5,-0.5,-0.5,-0.5,-0.5,-0.5,linear,100,0.025,0,0.5,TRUE,6,poolmodel,0.3883,-0.11927980084559202,0.020275366887250217,0,10000
10,250,0,175,350,525,700,875,1050,1225,1400,1575,2,0,1,0.25,0.25,0.25,0.25,0.25,0.25,0.25,0.25,0.25,0.25,-0.5,-0.5,-0.5,-0.5,-0.5,-0.5,-0.5,-0.5,-0.5,-0.5,-0.5,linear,100,0.025,0,0.5,TRUE,6,sepmodel,0.799,6.327903245407569e-4,0.008011481021658424,0,10000
10,250,0,175,350,525,700,875,1050,1225,1400,1575,2,0,1,0.25,0.25,0.25,0.25,0.25,0.25,0.25,0.25,0.25,0.25,-0.5,-0.5,-0.5,-0.5,-0.5,-0.5,-0.5,-0.5,-0.5,-0.5,-0.5,linear,100,0.025,0,0.5,TRUE,7,fixmodel,0.8545,9.943875381825467e-4,0.006971691530222114,0,10000
10,250,0,175,350,525,700,875,1050,1225,1400,1575,2,0,1,0.25,0.25,0.25,0.25,0.25,0.25,0.25,0.25,0.25,0.25,-0.5,-0.5,-0.5,-0.5,-0.5,-0.5,-0.5,-0.5,-0.5,-0.5,-0.5,linear,100,0.025,0,0.5,TRUE,7,poolmodel,0.3045,-0.13866197865996815,0.025177523801411875,0,10000
10,250,0,175,350,525,700,875,1050,1225,1400,1575,2,0,1,0.25,0.25,0.25,0.25,0.25,0.25,0.25,0.25,0.25,0.25,-0.5,-0.5,-0.5,-0.5,-0.5,-0.5,-0.5,-0.5,-0.5,-0.5,-0.5,linear,100,0.025,0,0.5,TRUE,7,sepmodel,0.7956,9.371737140506706e-4,0.008118861055332292,0,10000
10,250,0,175,350,525,700,875,1050,1225,1400,1575,2,0,1,0.25,0.25,0.25,0.25,0.25,0.25,0.25,0.25,0.25,0.25,-0.5,-0.5,-0.5,-0.5,-0.5,-0.5,-0.5,-0.5,-0.5,-0.5,-0.5,linear,100,0.025,0,0.5,TRUE,8,fixmodel,0.8577,-1.7790481663026823e-5,0.006704589059135994,0,10000
10,250,0,175,350,525,700,875,1050,1225,1400,1575,2,0,1,0.25,0.25,0.25,0.25,0.25,0.25,0.25,0.25,0.25,0.25,-0.5,-0.5,-0.5,-0.5,-0.5,-0.5,-0.5,-0.5,-0.5,-0.5,-0.5,linear,100,0.025,0,0.5,TRUE,8,poolmodel,0.2241,-0.15595921013471173,0.03002051453356771,0,10000
10,250,0,175,350,525,700,875,1050,1225,1400,1575,2,0,1,0.25,0.25,0.25,0.25,0.25,0.25,0.25,0.25,0.25,0.25,-0.5,-0.5,-0.5,-0.5,-0.5,-0.5,-0.5,-0.5,-0.5,-0.5,-0.5,linear,100,0.025,0,0.5,TRUE,8,sepmodel,0.7948,-2.2656132263247186e-4,0.007891905485017179,0,10000
10,250,0,175,350,525,700,875,1050,1225,1400,1575,2,0,1,0.25,0.25,0.25,0.25,0.25,0.25,0.25,0.25,0.25,0.25,-0.5,-0.5,-0.5,-0.5,-0.5,-0.5,-0.5,-0.5,-0.5,-0.5,-0.5,linear,100,0.025,0,0.5,TRUE,9,fixmodel,0.8548,-5.194123264876622e-4,0.006870559637102509,0,10000
10,250,0,175,350,525,700,875,1050,1225,1400,1575,2,0,1,0.25,0.25,0.25,0.25,0.25,0.25,0.25,0.25,0.25,0.25,-0.5,-0.5,-0.5,-0.5,-0.5,-0.5,-0.5,-0.5,-0.5,-0.5,-0.5,linear,100,0.025,0,0.5,TRUE,9,poolmodel,0.1811,-0.16983370119630617,0.034644300987097296,0,10000
10,250,0,175,350,525,700,875,1050,1225,1400,1575,2,0,1,0.25,0.25,0.25,0.25,0.25,0.25,0.25,0.25,0.25,0.25,-0.5,-0.5,-0.5,-0.5,-0.5,-0.5,-0.5,-0.5,-0.5,-0.5,-0.5,linear,100,0.025,0,0.5,TRUE,9,sepmodel,0.7909,-7.406589977112184e-4,0.008043249073197874,0,10000
10,250,0,175,350,525,700,875,1050,1225,1400,1575,2,0,1,0.25,0.25,0.25,0.25,0.25,0.25,0.25,0.25,0.25,0.25,-0.5,-0.5,-0.5,-0.5,-0.5,-0.5,-0.5,-0.5,-0.5,-0.5,-0.5,linear,100,0.025,0,0.5,TRUE,10,fixmodel,0.86,3.1669984184012624e-4,0.006707298565228588,0,10000
10,250,0,175,350,525,700,875,1050,1225,1400,1575,2,0,1,0.25,0.25,0.25,0.25,0.25,0.25,0.25,0.25,0.25,0.25,-0.5,-0.5,-0.5,-0.5,-0.5,-0.5,-0.5,-0.5,-0.5,-0.5,-0.5,linear,100,0.025,0,0.5,TRUE,10,poolmodel,0.1415,-0.18067563872883854,0.038308273250228154,0,10000
10,250,0,175,350,525,700,875,1050,1225,1400,1575,2,0,1,0.25,0.25,0.25,0.25,0.25,0.25,0.25,0.25,0.25,0.25,-0.5,-0.5,-0.5,-0.5,-0.5,-0.5,-0.5,-0.5,-0.5,-0.5,-0.5,linear,100,0.025,0,0.5,TRUE,10,sepmodel,0.7965,1.9875821829548116e-4,0.007978067516329448,0,10000
10,250,0,200,400,600,800,1000,1200,1400,1600,1800,2,0,1,0.25,0.25,0.25,0.25,0.25,0.25,0.25,0.25,0.25,0.25,-0.5,-0.5,-0.5,-0.5,-0.5,-0.5,-0.5,-0.5,-0.5,-0.5,-0.5,linear,100,0.025,0,0.5,TRUE,2,fixmodel,0.8199,-0.0015024106723597747,0.007397484766275212,0,10000
10,250,0,200,400,600,800,1000,1200,1400,1600,1800,2,0,1,0.25,0.25,0.25,0.25,0.25,0.25,0.25,0.25,0.25,0.25,-0.5,-0.5,-0.5,-0.5,-0.5,-0.5,-0.5,-0.5,-0.5,-0.5,-0.5,linear,100,0.025,0,0.5,TRUE,2,poolmodel,0.763,-0.028006082179056934,0.007625777365329129,0,10000
10,250,0,200,400,600,800,1000,1200,1400,1600,1800,2,0,1,0.25,0.25,0.25,0.25,0.25,0.25,0.25,0.25,0.25,0.25,-0.5,-0.5,-0.5,-0.5,-0.5,-0.5,-0.5,-0.5,-0.5,-0.5,-0.5,linear,100,0.025,0,0.5,TRUE,2,sepmodel,0.7936,-0.0011657894318795354,0.007908976553251398,0,10000
10,250,0,200,400,600,800,1000,1200,1400,1600,1800,2,0,1,0.25,0.25,0.25,0.25,0.25,0.25,0.25,0.25,0.25,0.25,-0.5,-0.5,-0.5,-0.5,-0.5,-0.5,-0.5,-0.5,-0.5,-0.5,-0.5,linear,100,0.025,0,0.5,TRUE,3,fixmodel,0.8358,-8.780321369872168e-4,0.007194376660796476,0,10000
10,250,0,200,400,600,800,1000,1200,1400,1600,1800,2,0,1,0.25,0.25,0.25,0.25,0.25,0.25,0.25,0.25,0.25,0.25,-0.5,-0.5,-0.5,-0.5,-0.5,-0.5,-0.5,-0.5,-0.5,-0.5,-0.5,linear,100,0.025,0,0.5,TRUE,3,poolmodel,0.6883,-0.05431084155615827,0.009340559769431092,0,10000
10,250,0,200,400,600,800,1000,1200,1400,1600,1800,2,0,1,0.25,0.25,0.25,0.25,0.25,0.25,0.25,0.25,0.25,0.25,-0.5,-0.5,-0.5,-0.5,-0.5,-0.5,-0.5,-0.5,-0.5,-0.5,-0.5,linear,100,0.025,0,0.5,TRUE,3,sepmodel,0.7959,-7.051079443790139e-4,0.008026778664070616,0,10000
10,250,0,200,400,600,800,1000,1200,1400,1600,1800,2,0,1,0.25,0.25,0.25,0.25,0.25,0.25,0.25,0.25,0.25,0.25,-0.5,-0.5,-0.5,-0.5,-0.5,-0.5,-0.5,-0.5,-0.5,-0.5,-0.5,linear,100,0.025,0,0.5,TRUE,4,fixmodel,0.844,1.312851114727129e-4,0.007033695918547406,0,10000
10,250,0,200,400,600,800,1000,1200,1400,1600,1800,2,0,1,0.25,0.25,0.25,0.25,0.25,0.25,0.25,0.25,0.25,0.25,-0.5,-0.5,-0.5,-0.5,-0.5,-0.5,-0.5,-0.5,-0.5,-0.5,-0.5,linear,100,0.025,0,0.5,TRUE,4,poolmodel,0.5814,-0.07802683980890271,0.012174737317731823,0,10000
10,250,0,200,400,600,800,1000,1200,1400,1600,1800,2,0,1,0.25,0.25,0.25,0.25,0.25,0.25,0.25,0.25,0.25,0.25,-0.5,-0.5,-0.5,-0.5,-0.5,-0.5,-0.5,-0.5,-0.5,-0.5,-0.5,linear,100,0.025,0,0.5,TRUE,4,sepmodel,0.797,-2.306844584972787e-4,0.007962211001398743,0,10000
10,250,0,200,400,600,800,1000,1200,1400,1600,1800,2,0,1,0.25,0.25,0.25,0.25,0.25,0.25,0.25,0.25,0.25,0.25,-0.5,-0.5,-0.5,-0.5,-0.5,-0.5,-0.5,-0.5,-0.5,-0.5,-0.5,linear,100,0.025,0,0.5,TRUE,5,fixmodel,0.8429,-4.418285070722023e-4,0.007175039417415517,0,10000
10,250,0,200,400,600,800,1000,1200,1400,1600,1800,2,0,1,0.25,0.25,0.25,0.25,0.25,0.25,0.25,0.25,0.25,0.25,-0.5,-0.5,-0.5,-0.5,-0.5,-0.5,-0.5,-0.5,-0.5,-0.5,-0.5,linear,100,0.025,0,0.5,TRUE,5,poolmodel,0.4739,-0.1025381865126723,0.016535341135191582,0,10000
10,250,0,200,400,600,800,1000,1200,1400,1600,1800,2,0,1,0.25,0.25,0.25,0.25,0.25,0.25,0.25,0.25,0.25,0.25,-0.5,-0.5,-0.5,-0.5,-0.5,-0.5,-0.5,-0.5,-0.5,-0.5,-0.5,linear,100,0.025,0,0.5,TRUE,5,sepmodel,0.7927,-6.051129177231674e-4,0.00811589415712849,0,10000
10,250,0,200,400,600,800,1000,1200,1400,1600,1800,2,0,1,0.25,0.25,0.25,0.25,0.25,0.25,0.25,0.25,0.25,0.25,-0.5,-0.5,-0.5,-0.5,-0.5,-0.5,-0.5,-0.5,-0.5,-0.5,-0.5,linear,100,0.025,0,0.5,TRUE,6,fixmodel,0.8506,-6.975045298536186e-4,0.006936585656199836,0,10000
10,250,0,200,400,600,800,1000,1200,1400,1600,1800,2,0,1,0.25,0.25,0.25,0.25,0.25,0.25,0.25,0.25,0.25,0.25,-0.5,-0.5,-0.5,-0.5,-0.5,-0.5,-0.5,-0.5,-0.5,-0.5,-0.5,linear,100,0.025,0,0.5,TRUE,6,poolmodel,0.3526,-0.12695447336668886,0.021964024007310262,0,10000
10,250,0,200,400,600,800,1000,1200,1400,1600,1800,2,0,1,0.25,0.25,0.25,0.25,0.25,0.25,0.25,0.25,0.25,0.25,-0.5,-0.5,-0.5,-0.5,-0.5,-0.5,-0.5,-0.5,-0.5,-0.5,-0.5,linear,100,0.025,0,0.5,TRUE,6,sepmodel,0.7959,-7.781654101937998e-4,0.008002889105165388,0,10000
10,250,0,200,400,600,800,1000,1200,1400,1600,1800,2,0,1,0.25,0.25,0.25,0.25,0.25,0.25,0.25,0.25,0.25,0.25,-0.5,-0.5,-0.5,-0.5,-0.5,-0.5,-0.5,-0.5,-0.5,-0.5,-0.5,linear,100,0.025,0,0.5,TRUE,7,fixmodel,0.843,-0.0013829557599169733,0.007048783180316929,0,10000
10,250,0,200,400,600,800,1000,1200,1400,1600,1800,2,0,1,0.25,0.25,0.25,0.25,0.25,0.25,0.25,0.25,0.25,0.25,-0.5,-0.5,-0.5,-0.5,-0.5,-0.5,-0.5,-0.5,-0.5,-0.5,-0.5,linear,100,0.025,0,0.5,TRUE,7,poolmodel,0.2686,-0.14783514652697965,0.027684163109522465,0,10000
10,250,0,200,400,600,800,1000,1200,1400,1600,1800,2,0,1,0.25,0.25,0.25,0.25,0.25,0.25,0.25,0.25,0.25,0.25,-0.5,-0.5,-0.5,-0.5,-0.5,-0.5,-0.5,-0.5,-0.5,-0.5,-0.5,linear,100,0.025,0,0.5,TRUE,7,sepmodel,0.79,-0.0010901691641665087,0.008194604372809906,0,10000
10,250,0,200,400,600,800,1000,1200,1400,1600,1800,2,0,1,0.25,0.25,0.25,0.25,0.25,0.25,0.25,0.25,0.25,0.25,-0.5,-0.5,-0.5,-0.5,-0.5,-0.5,-0.5,-0.5,-0.5,-0.5,-0.5,linear,100,0.025,0,0.5,TRUE,8,fixmodel,0.8511,-0.0015663667388231318,0.0067159441817145294,0,10000
10,250,0,200,400,600,800,1000,1200,1400,1600,1800,2,0,1,0.25,0.25,0.25,0.25,0.25,0.25,0.25,0.25,0.25,0.25,-0.5,-0.5,-0.5,-0.5,-0.5,-0.5,-0.5,-0.5,-0.5,-0.5,-0.5,linear,100,0.025,0,0.5,TRUE,8,poolmodel,0.1977,-0.16631100978945462,0.03320116225869992,0,10000
10,250,0,200,400,600,800,1000,1200,1400,1600,1800,2,0,1,0.25,0.25,0.25,0.25,0.25,0.25,0.25,0.25,0.25,0.25,-0.5,-0.5,-0.5,-0.5,-0.5,-0.5,-0.5,-0.5,-0.5,-0.5,-0.5,linear,100,0.025,0,0.5,TRUE,8,sepmodel,0.7914,-0.0013743269908398296,0.00784064675564259,0,10000
10,250,0,200,400,600,800,1000,1200,1400,1600,1800,2,0,1,0.25,0.25,0.25,0.25,0.25,0.25,0.25,0.25,0.25,0.25,-0.5,-0.5,-0.5,-0.5,-0.5,-0.5,-0.5,-0.5,-0.5,-0.5,-0.5,linear,100,0.025,0,0.5,TRUE,9,fixmodel,0.851,-0.0011316083309670887,0.00689692258290614,0,10000
10,250,0,200,400,600,800,1000,1200,1400,1600,1800,2,0,1,0.25,0.25,0.25,0.25,0.25,0.25,0.25,0.25,0.25,0.25,-0.5,-0.5,-0.5,-0.5,-0.5,-0.5,-0.5,-0.5,-0.5,-0.5,-0.5,linear,100,0.025,0,0.5,TRUE,9,poolmodel,0.1477,-0.18097488598353598,0.03840840952711329,0,10000
10,250,0,200,400,600,800,1000,1200,1400,1600,1800,2,0,1,0.25,0.25,0.25,0.25,0.25,0.25,0.25,0.25,0.25,0.25,-0.5,-0.5,-0.5,-0.5,-0.5,-0.5,-0.5,-0.5,-0.5,-0.5,-0.5,linear,100,0.025,0,0.5,TRUE,9,sepmodel,0.7864,-0.0010854662338217953,0.008151766756011576,0,10000
10,250,0,200,400,600,800,1000,1200,1400,1600,1800,2,0,1,0.25,0.25,0.25,0.25,0.25,0.25,0.25,0.25,0.25,0.25,-0.5,-0.5,-0.5,-0.5,-0.5,-0.5,-0.5,-0.5,-0.5,-0.5,-0.5,linear,100,0.025,0,0.5,TRUE,10,fixmodel,0.8597,-9.503574715176576e-4,0.006767691608862823,0,10000
10,250,0,200,400,600,800,1000,1200,1400,1600,1800,2,0,1,0.25,0.25,0.25,0.25,0.25,0.25,0.25,0.25,0.25,0.25,-0.5,-0.5,-0.5,-0.5,-0.5,-0.5,-0.5,-0.5,-0.5,-0.5,-0.5,linear,100,0.025,0,0.5,TRUE,10,poolmodel,0.1123,-0.1928364133295738,0.04273618410001581,0,10000
10,250,0,200,400,600,800,1000,1200,1400,1600,1800,2,0,1,0.25,0.25,0.25,0.25,0.25,0.25,0.25,0.25,0.25,0.25,-0.5,-0.5,-0.5,-0.5,-0.5,-0.5,-0.5,-0.5,-0.5,-0.5,-0.5,linear,100,0.025,0,0.5,TRUE,10,sepmodel,0.7897,-9.558355184266571e-4,0.008015351985597632,0,10000
10,250,0,225,450,675,900,1125,1350,1575,1800,2025,2,0,1,0.25,0.25,0.25,0.25,0.25,0.25,0.25,0.25,0.25,0.25,-0.5,-0.5,-0.5,-0.5,-0.5,-0.5,-0.5,-0.5,-0.5,-0.5,-0.5,linear,100,0.025,0,0.5,TRUE,2,fixmodel,0.8252,-7.035297860131591e-4,0.007424530873598139,0,10000
10,250,0,225,450,675,900,1125,1350,1575,1800,2025,2,0,1,0.25,0.25,0.25,0.25,0.25,0.25,0.25,0.25,0.25,0.25,-0.5,-0.5,-0.5,-0.5,-0.5,-0.5,-0.5,-0.5,-0.5,-0.5,-0.5,linear,100,0.025,0,0.5,TRUE,2,poolmodel,0.7731,-0.027538721839833386,0.007428083278480644,0,10000
10,250,0,225,450,675,900,1125,1350,1575,1800,2025,2,0,1,0.25,0.25,0.25,0.25,0.25,0.25,0.25,0.25,0.25,0.25,-0.5,-0.5,-0.5,-0.5,-0.5,-0.5,-0.5,-0.5,-0.5,-0.5,-0.5,linear,100,0.025,0,0.5,TRUE,2,sepmodel,0.7995,-4.415841676685138e-4,0.007898230349244013,0,10000
10,250,0,225,450,675,900,1125,1350,1575,1800,2025,2,0,1,0.25,0.25,0.25,0.25,0.25,0.25,0.25,0.25,0.25,0.25,-0.5,-0.5,-0.5,-0.5,-0.5,-0.5,-0.5,-0.5,-0.5,-0.5,-0.5,linear,100,0.025,0,0.5,TRUE,3,fixmodel,0.8394,0.0011213867498166732,0.007162169319046947,0,10000
10,250,0,225,450,675,900,1125,1350,1575,1800,2025,2,0,1,0.25,0.25,0.25,0.25,0.25,0.25,0.25,0.25,0.25,0.25,-0.5,-0.5,-0.5,-0.5,-0.5,-0.5,-0.5,-0.5,-0.5,-0.5,-0.5,linear,100,0.025,0,0.5,TRUE,3,poolmodel,0.699,-0.05233075843081491,0.008944500398516709,0,10000
10,250,0,225,450,675,900,1125,1350,1575,1800,2025,2,0,1,0.25,0.25,0.25,0.25,0.25,0.25,0.25,0.25,0.25,0.25,-0.5,-0.5,-0.5,-0.5,-0.5,-0.5,-0.5,-0.5,-0.5,-0.5,-0.5,linear,100,0.025,0,0.5,TRUE,3,sepmodel,0.8017,0.0013979190626715236,0.007890383066248688,0,10000
10,250,0,225,450,675,900,1125,1350,1575,1800,2025,2,0,1,0.25,0.25,0.25,0.25,0.25,0.25,0.25,0.25,0.25,0.25,-0.5,-0.5,-0.5,-0.5,-0.5,-0.5,-0.5,-0.5,-0.5,-0.5,-0.5,linear,100,0.025,0,0.5,TRUE,4,fixmodel,0.8419,-0.001292262872504316,0.006955658107159222,0,10000
10,250,0,225,450,675,900,1125,1350,1575,1800,2025,2,0,1,0.25,0.25,0.25,0.25,0.25,0.25,0.25,0.25,0.25,0.25,-0.5,-0.5,-0.5,-0.5,-0.5,-0.5,-0.5,-0.5,-0.5,-0.5,-0.5,linear,100,0.025,0,0.5,TRUE,4,poolmodel,0.5892,-0.07868014427915043,0.012062293521130866,0,10000
10,250,0,225,450,675,900,1125,1350,1575,1800,2025,2,0,1,0.25,0.25,0.25,0.25,0.25,0.25,0.25,0.25,0.25,0.25,-0.5,-0.5,-0.5,-0.5,-0.5,-0.5,-0.5,-0.5,-0.5,-0.5,-0.5,linear,100,0.025,0,0.5,TRUE,4,sepmodel,0.8002,-0.0011995925836708143,0.007750947344939289,0,10000
10,250,0,225,450,675,900,1125,1350,1575,1800,2025,2,0,1,0.25,0.25,0.25,0.25,0.25,0.25,0.25,0.25,0.25,0.25,-0.5,-0.5,-0.5,-0.5,-0.5,-0.5,-0.5,-0.5,-0.5,-0.5,-0.5,linear,100,0.025,0,0.5,TRUE,5,fixmodel,0.8477,3.4198329380165143e-4,0.0070166534691047475,0,10000
10,250,0,225,450,675,900,1125,1350,1575,1800,2025,2,0,1,0.25,0.25,0.25,0.25,0.25,0.25,0.25,0.25,0.25,0.25,-0.5,-0.5,-0.5,-0.5,-0.5,-0.5,-0.5,-0.5,-0.5,-0.5,-0.5,linear,100,0.025,0,0.5,TRUE,5,poolmodel,0.4783,-0.10423567524774698,0.01670065124526678,0,10000
10,250,0,225,450,675,900,1125,1350,1575,1800,2025,2,0,1,0.25,0.25,0.25,0.25,0.25,0.25,0.25,0.25,0.25,0.25,-0.5,-0.5,-0.5,-0.5,-0.5,-0.5,-0.5,-0.5,-0.5,-0.5,-0.5,linear,100,0.025,0,0.5,TRUE,5,sepmodel,0.7945,-2.260722317315289e-4,0.007996237688404781,0,10000
10,250,0,225,450,675,900,1125,1350,1575,1800,2025,2,0,1,0.25,0.25,0.25,0.25,0.25,0.25,0.25,0.25,0.25,0.25,-0.5,-0.5,-0.5,-0.5,-0.5,-0.5,-0.5,-0.5,-0.5,-0.5,-0.5,linear,100,0.025,0,0.5,TRUE,6,fixmodel,0.8488,-1.6103165019690333e-4,0.006878275568457964,0,10000
10,250,0,225,450,675,900,1125,1350,1575,1800,2025,2,0,1,0.25,0.25,0.25,0.25,0.25,0.25,0.25,0.25,0.25,0.25,-0.5,-0.5,-0.5,-0.5,-0.5,-0.5,-0.5,-0.5,-0.5,-0.5,-0.5,linear,100,0.025,0,0.5,TRUE,6,poolmodel,0.3567,-0.129379068679097,0.02239013318868323,0,10000
10,250,0,225,450,675,900,1125,1350,1575,1800,2025,2,0,1,0.25,0.25,0.25,0.25,0.25,0.25,0.25,0.25,0.25,0.25,-0.5,-0.5,-0.5,-0.5,-0.5,-0.5,-0.5,-0.5,-0.5,-0.5,-0.5,linear,100,0.025,0,0.5,TRUE,6,sepmodel,0.7894,-5.248662169223477e-4,0.007965209499236571,0,10000
10,250,0,225,450,675,900,1125,1350,1575,1800,2025,2,0,1,0.25,0.25,0.25,0.25,0.25,0.25,0.25,0.25,0.25,0.25,-0.5,-0.5,-0.5,-0.5,-0.5,-0.5,-0.5,-0.5,-0.5,-0.5,-0.5,linear,100,0.025,0,0.5,TRUE,7,fixmodel,0.8491,-1.93918833612374e-4,0.006994810827745811,0,10000
10,250,0,225,450,675,900,1125,1350,1575,1800,2025,2,0,1,0.25,0.25,0.25,0.25,0.25,0.25,0.25,0.25,0.25,0.25,-0.5,-0.5,-0.5,-0.5,-0.5,-0.5,-0.5,-0.5,-0.5,-0.5,-0.5,linear,100,0.025,0,0.5,TRUE,7,poolmodel,0.2526,-0.15198180480621945,0.028729840570908896,0,10000
10,250,0,225,450,675,900,1125,1350,1575,1800,2025,2,0,1,0.25,0.25,0.25,0.25,0.25,0.25,0.25,0.25,0.25,0.25,-0.5,-0.5,-0.5,-0.5,-0.5,-0.5,-0.5,-0.5,-0.5,-0.5,-0.5,linear,100,0.025,0,0.5,TRUE,7,sepmodel,0.7943,-4.333076223016261e-4,0.008042203973538938,0,10000
10,250,0,225,450,675,900,1125,1350,1575,1800,2025,2,0,1,0.25,0.25,0.25,0.25,0.25,0.25,0.25,0.25,0.25,0.25,-0.5,-0.5,-0.5,-0.5,-0.5,-0.5,-0.5,-0.5,-0.5,-0.5,-0.5,linear,100,0.025,0,0.5,TRUE,8,fixmodel,0.857,0.0015594783310079346,0.006781113493282128,0,10000
10,250,0,225,450,675,900,1125,1350,1575,1800,2025,2,0,1,0.25,0.25,0.25,0.25,0.25,0.25,0.25,0.25,0.25,0.25,-0.5,-0.5,-0.5,-0.5,-0.5,-0.5,-0.5,-0.5,-0.5,-0.5,-0.5,linear,100,0.025,0,0.5,TRUE,8,poolmodel,0.1822,-0.17034549609506178,0.03439960295665601,0,10000
10,250,0,225,450,675,900,1125,1350,1575,1800,2025,2,0,1,0.25,0.25,0.25,0.25,0.25,0.25,0.25,0.25,0.25,0.25,-0.5,-0.5,-0.5,-0.5,-0.5,-0.5,-0.5,-0.5,-0.5,-0.5,-0.5,linear,100,0.025,0,0.5,TRUE,8,sepmodel,0.8012,0.0012857476127507504,0.00796757356582931,0,10000
10,250,0,225,450,675,900,1125,1350,1575,1800,2025,2,0,1,0.25,0.25,0.25,0.25,0.25,0.25,0.25,0.25,0.25,0.25,-0.5,-0.5,-0.5,-0.5,-0.5,-0.5,-0.5,-0.5,-0.5,-0.5,-0.5,linear,100,0.025,0,0.5,TRUE,9,fixmodel,0.8556,-2.9096572915769897e-4,0.006813965404599495,0,10000
10,250,0,225,450,675,900,1125,1350,1575,1800,2025,2,0,1,0.25,0.25,0.25,0.25,0.25,0.25,0.25,0.25,0.25,0.25,-0.5,-0.5,-0.5,-0.5,-0.5,-0.5,-0.5,-0.5,-0.5,-0.5,-0.5,linear,100,0.025,0,0.5,TRUE,9,poolmodel,0.1233,-0.18893475483944192,0.041063470246565495,0,10000
10,250,0,225,450,675,900,1125,1350,1575,1800,2025,2,0,1,0.25,0.25,0.25,0.25,0.25,0.25,0.25,0.25,0.25,0.25,-0.5,-0.5,-0.5,-0.5,-0.5,-0.5,-0.5,-0.5,-0.5,-0.5,-0.5,linear,100,0.025,0,0.5,TRUE,9,sepmodel,0.793,-5.685357852031501e-4,0.008048290359823164,0,10000
10,250,0,225,450,675,900,1125,1350,1575,1800,2025,2,0,1,0.25,0.25,0.25,0.25,0.25,0.25,0.25,0.25,0.25,0.25,-0.5,-0.5,-0.5,-0.5,-0.5,-0.5,-0.5,-0.5,-0.5,-0.5,-0.5,linear,100,0.025,0,0.5,TRUE,10,fixmodel,0.855,-3.7099441824853225e-4,0.006719456621353575,0,10000
10,250,0,225,450,675,900,1125,1350,1575,1800,2025,2,0,1,0.25,0.25,0.25,0.25,0.25,0.25,0.25,0.25,0.25,0.25,-0.5,-0.5,-0.5,-0.5,-0.5,-0.5,-0.5,-0.5,-0.5,-0.5,-0.5,linear,100,0.025,0,0.5,TRUE,10,poolmodel,0.0882,-0.20212418252262332,0.046159040326641594,0,10000
10,250,0,225,450,675,900,1125,1350,1575,1800,2025,2,0,1,0.25,0.25,0.25,0.25,0.25,0.25,0.25,0.25,0.25,0.25,-0.5,-0.5,-0.5,-0.5,-0.5,-0.5,-0.5,-0.5,-0.5,-0.5,-0.5,linear,100,0.025,0,0.5,TRUE,10,sepmodel,0.7967,-4.616839111850493e-4,0.007919667301781343,0,10000
10,250,0,250,500,750,1000,1250,1500,1750,2000,2250,2,0,1,0.25,0.25,0.25,0.25,0.25,0.25,0.25,0.25,0.25,0.25,-0.5,-0.5,-0.5,-0.5,-0.5,-0.5,-0.5,-0.5,-0.5,-0.5,-0.5,linear,100,0.025,0,0.5,TRUE,2,fixmodel,0.821,-0.001006805844438851,0.007502767697586681,0,10000
10,250,0,250,500,750,1000,1250,1500,1750,2000,2250,2,0,1,0.25,0.25,0.25,0.25,0.25,0.25,0.25,0.25,0.25,0.25,-0.5,-0.5,-0.5,-0.5,-0.5,-0.5,-0.5,-0.5,-0.5,-0.5,-0.5,linear,100,0.025,0,0.5,TRUE,2,poolmodel,0.7719,-0.02836723272457008,0.007504002877317322,0,10000
10,250,0,250,500,750,1000,1250,1500,1750,2000,2250,2,0,1,0.25,0.25,0.25,0.25,0.25,0.25,0.25,0.25,0.25,0.25,-0.5,-0.5,-0.5,-0.5,-0.5,-0.5,-0.5,-0.5,-0.5,-0.5,-0.5,linear,100,0.025,0,0.5,TRUE,2,sepmodel,0.7951,-0.0012225281883430105,0.008051841227218902,0,10000
10,250,0,250,500,750,1000,1250,1500,1750,2000,2250,2,0,1,0.25,0.25,0.25,0.25,0.25,0.25,0.25,0.25,0.25,0.25,-0.5,-0.5,-0.5,-0.5,-0.5,-0.5,-0.5,-0.5,-0.5,-0.5,-0.5,linear,100,0.025,0,0.5,TRUE,3,fixmodel,0.8262,-0.0011023303290939672,0.007390064120962579,0,10000
10,250,0,250,500,750,1000,1250,1500,1750,2000,2250,2,0,1,0.25,0.25,0.25,0.25,0.25,0.25,0.25,0.25,0.25,0.25,-0.5,-0.5,-0.5,-0.5,-0.5,-0.5,-0.5,-0.5,-0.5,-0.5,-0.5,linear,100,0.025,0,0.5,TRUE,3,poolmodel,0.6941,-0.05452888550771295,0.009239529499889017,0,10000
10,250,0,250,500,750,1000,1250,1500,1750,2000,2250,2,0,1,0.25,0.25,0.25,0.25,0.25,0.25,0.25,0.25,0.25,0.25,-0.5,-0.5,-0.5,-0.5,-0.5,-0.5,-0.5,-0.5,-0.5,-0.5,-0.5,linear,100,0.025,0,0.5,TRUE,3,sepmodel,0.7905,-0.0011670360143808912,0.008094826284049053,0,10000
10,250,0,250,500,750,1000,1250,1500,1750,2000,2250,2,0,1,0.25,0.25,0.25,0.25,0.25,0.25,0.25,0.25,0.25,0.25,-0.5,-0.5,-0.5,-0.5,-0.5,-0.5,-0.5,-0.5,-0.5,-0.5,-0.5,linear,100,0.025,0,0.5,TRUE,4,fixmodel,0.8404,0.0018624487876281088,0.007214463418810866,0,10000
10,250,0,250,500,750,1000,1250,1500,1750,2000,2250,2,0,1,0.25,0.25,0.25,0.25,0.25,0.25,0.25,0.25,0.25,0.25,-0.5,-0.5,-0.5,-0.5,-0.5,-0.5,-0.5,-0.5,-0.5,-0.5,-0.5,linear,100,0.025,0,0.5,TRUE,4,poolmodel,0.6107,-0.0770875234214328,0.011851857184209,0,10000
10,250,0,250,500,750,1000,1250,1500,1750,2000,2250,2,0,1,0.25,0.25,0.25,0.25,0.25,0.25,0.25,0.25,0.25,0.25,-0.5,-0.5,-0.5,-0.5,-0.5,-0.5,-0.5,-0.5,-0.5,-0.5,-0.5,linear,100,0.025,0,0.5,TRUE,4,sepmodel,0.8017,0.0020120886518741484,0.008033172043236883,0,10000
10,250,0,250,500,750,1000,1250,1500,1750,2000,2250,2,0,1,0.25,0.25,0.25,0.25,0.25,0.25,0.25,0.25,0.25,0.25,-0.5,-0.5,-0.5,-0.5,-0.5,-0.5,-0.5,-0.5,-0.5,-0.5,-0.5,linear,100,0.025,0,0.5,TRUE,5,fixmodel,0.8428,3.6221930142212223e-4,0.007001011042364892,0,10000
10,250,0,250,500,750,1000,1250,1500,1750,2000,2250,2,0,1,0.25,0.25,0.25,0.25,0.25,0.25,0.25,0.25,0.25,0.25,-0.5,-0.5,-0.5,-0.5,-0.5,-0.5,-0.5,-0.5,-0.5,-0.5,-0.5,linear,100,0.025,0,0.5,TRUE,5,poolmodel,0.4766,-0.10516625274957517,0.016675755921999498,0,10000
10,250,0,250,500,750,1000,1250,1500,1750,2000,2250,2,0,1,0.25,0.25,0.25,0.25,0.25,0.25,0.25,0.25,0.25,0.25,-0.5,-0.5,-0.5,-0.5,-0.5,-0.5,-0.5,-0.5,-0.5,-0.5,-0.5,linear,100,0.025,0,0.5,TRUE,5,sepmodel,0.8007,-5.620427282134184e-5,0.00796339897322852,0,10000
10,250,0,250,500,750,1000,1250,1500,1750,2000,2250,2,0,1,0.25,0.25,0.25,0.25,0.25,0.25,0.25,0.25,0.25,0.25,-0.5,-0.5,-0.5,-0.5,-0.5,-0.5,-0.5,-0.5,-0.5,-0.5,-0.5,linear,100,0.025,0,0.5,TRUE,6,fixmodel,0.8448,3.3572406975942624e-4,0.0070535521291416325,0,10000
10,250,0,250,500,750,1000,1250,1500,1750,2000,2250,2,0,1,0.25,0.25,0.25,0.25,0.25,0.25,0.25,0.25,0.25,0.25,-0.5,-0.5,-0.5,-0.5,-0.5,-0.5,-0.5,-0.5,-0.5,-0.5,-0.5,linear,100,0.025,0,0.5,TRUE,6,poolmodel,0.3606,-0.1300276500068269,0.022536263400709695,0,10000
10,250,0,250,500,750,1000,1250,1500,1750,2000,2250,2,0,1,0.25,0.25,0.25,0.25,0.25,0.25,0.25,0.25,0.25,0.25,-0.5,-0.5,-0.5,-0.5,-0.5,-0.5,-0.5,-0.5,-0.5,-0.5,-0.5,linear,100,0.025,0,0.5,TRUE,6,sepmodel,0.796,5.5384275328926796e-5,0.008087966012272732,0,10000
10,250,0,250,500,750,1000,1250,1500,1750,2000,2250,2,0,1,0.25,0.25,0.25,0.25,0.25,0.25,0.25,0.25,0.25,0.25,-0.5,-0.5,-0.5,-0.5,-0.5,-0.5,-0.5,-0.5,-0.5,-0.5,-0.5,linear,100,0.025,0,0.5,TRUE,7,fixmodel,0.8508,9.122339849855177e-4,0.006837474014589855,0,10000
10,250,0,250,500,750,1000,1250,1500,1750,2000,2250,2,0,1,0.25,0.25,0.25,0.25,0.25,0.25,0.25,0.25,0.25,0.25,-0.5,-0.5,-0.5,-0.5,-0.5,-0.5,-0.5,-0.5,-0.5,-0.5,-0.5,linear,100,0.025,0,0.5,TRUE,7,poolmodel,0.2528,-0.15339423618626488,0.028921746503423544,0,10000
10,250,0,250,500,750,1000,1250,1500,1750,2000,2250,2,0,1,0.25,0.25,0.25,0.25,0.25,0.25,0.25,0.25,0.25,0.25,-0.5,-0.5,-0.5,-0.5,-0.5,-0.5,-0.5,-0.5,-0.5,-0.5,-0.5,linear,100,0.025,0,0.5,TRUE,7,sepmodel,0.7977,5.049837120760465e-4,0.007871110200331113,0,10000
10,250,0,250,500,750,1000,1250,1500,1750,2000,2250,2,0,1,0.25,0.25,0.25,0.25,0.25,0.25,0.25,0.25,0.25,0.25,-0.5,-0.5,-0.5,-0.5,-0.5,-0.5,-0.5,-0.5,-0.5,-0.5,-0.5,linear,100,0.025,0,0.5,TRUE,8,fixmodel,0.857,0.001065935821008114,0.006803281391484335,0,10000
10,250,0,250,500,750,1000,1250,1500,1750,2000,2250,2,0,1,0.25,0.25,0.25,0.25,0.25,0.25,0.25,0.25,0.25,0.25,-0.5,-0.5,-0.5,-0.5,-0.5,-0.5,-0.5,-0.5,-0.5,-0.5,-0.5,linear,100,0.025,0,0.5,TRUE,8,poolmodel,0.1697,-0.17513148618423216,0.035971345886374205,0,10000
10,250,0,250,500,750,1000,1250,1500,1750,2000,2250,2,0,1,0.25,0.25,0.25,0.25,0.25,0.25,0.25,0.25,0.25,0.25,-0.5,-0.5,-0.5,-0.5,-0.5,-0.5,-0.5,-0.5,-0.5,-0.5,-0.5,linear,100,0.025,0,0.5,TRUE,8,sepmodel,0.8019,5.647482685230997e-4,0.007803697382916012,0,10000
10,250,0,250,500,750,1000,1250,1500,1750,2000,2250,2,0,1,0.25,0.25,0.25,0.25,0.25,0.25,0.25,0.25,0.25,0.25,-0.5,-0.5,-0.5,-0.5,-0.5,-0.5,-0.5,-0.5,-0.5,-0.5,-0.5,linear,100,0.025,0,0.5,TRUE,9,fixmodel,0.8521,1.8309518399279174e-4,0.006879608377400354,0,10000
10,250,0,250,500,750,1000,1250,1500,1750,2000,2250,2,0,1,0.25,0.25,0.25,0.25,0.25,0.25,0.25,0.25,0.25,0.25,-0.5,-0.5,-0.5,-0.5,-0.5,-0.5,-0.5,-0.5,-0.5,-0.5,-0.5,linear,100,0.025,0,0.5,TRUE,9,poolmodel,0.1135,-0.19436633338303255,0.04302849807173062,0,10000
10,250,0,250,500,750,1000,1250,1500,1750,2000,2250,2,0,1,0.25,0.25,0.25,0.25,0.25,0.25,0.25,0.25,0.25,0.25,-0.5,-0.5,-0.5,-0.5,-0.5,-0.5,-0.5,-0.5,-0.5,-0.5,-0.5,linear,100,0.025,0,0.5,TRUE,9,sepmodel,0.793,-5.346833917922393e-4,0.007933868465145391,0,10000
10,250,0,250,500,750,1000,1250,1500,1750,2000,2250,2,0,1,0.25,0.25,0.25,0.25,0.25,0.25,0.25,0.25,0.25,0.25,-0.5,-0.5,-0.5,-0.5,-0.5,-0.5,-0.5,-0.5,-0.5,-0.5,-0.5,linear,100,0.025,0,0.5,TRUE,10,fixmodel,0.8558,4.5125526533538476e-4,0.006674691273160214,0,10000
10,250,0,250,500,750,1000,1250,1500,1750,2000,2250,2,0,1,0.25,0.25,0.25,0.25,0.25,0.25,0.25,0.25,0.25,0.25,-0.5,-0.5,-0.5,-0.5,-0.5,-0.5,-0.5,-0.5,-0.5,-0.5,-0.5,linear,100,0.025,0,0.5,TRUE,10,poolmodel,0.0775,-0.209217380878074,0.04893361316159842,0,10000
10,250,0,250,500,750,1000,1250,1500,1750,2000,2250,2,0,1,0.25,0.25,0.25,0.25,0.25,0.25,0.25,0.25,0.25,0.25,-0.5,-0.5,-0.5,-0.5,-0.5,-0.5,-0.5,-0.5,-0.5,-0.5,-0.5,linear,100,0.025,0,0.5,TRUE,10,sepmodel,0.7944,-1.7178140746966787e-4,0.007803892108969107,0,10000
10,250,0,275,550,825,1100,1375,1650,1925,2200,2475,2,0,1,0.25,0.25,0.25,0.25,0.25,0.25,0.25,0.25,0.25,0.25,-0.5,-0.5,-0.5,-0.5,-0.5,-0.5,-0.5,-0.5,-0.5,-0.5,-0.5,linear,100,0.025,0,0.5,TRUE,2,fixmodel,0.8301,0.0021980794511582383,0.00761166320341851,0,10000
10,250,0,275,550,825,1100,1375,1650,1925,2200,2475,2,0,1,0.25,0.25,0.25,0.25,0.25,0.25,0.25,0.25,0.25,0.25,-0.5,-0.5,-0.5,-0.5,-0.5,-0.5,-0.5,-0.5,-0.5,-0.5,-0.5,linear,100,0.025,0,0.5,TRUE,2,poolmodel,0.7913,-0.025836670726933183,0.0072966669458134886,0,10000
10,250,0,275,550,825,1100,1375,1650,1925,2200,2475,2,0,1,0.25,0.25,0.25,0.25,0.25,0.25,0.25,0.25,0.25,0.25,-0.5,-0.5,-0.5,-0.5,-0.5,-0.5,-0.5,-0.5,-0.5,-0.5,-0.5,linear,100,0.025,0,0.5,TRUE,2,sepmodel,0.804,0.0022914274716909562,0.008114427342370695,0,10000
10,250,0,275,550,825,1100,1375,1650,1925,2200,2475,2,0,1,0.25,0.25,0.25,0.25,0.25,0.25,0.25,0.25,0.25,0.25,-0.5,-0.5,-0.5,-0.5,-0.5,-0.5,-0.5,-0.5,-0.5,-0.5,-0.5,linear,100,0.025,0,0.5,TRUE,3,fixmodel,0.8267,9.414861189770934e-4,0.007556387883101293,0,10000
10,250,0,275,550,825,1100,1375,1650,1925,2200,2475,2,0,1,0.25,0.25,0.25,0.25,0.25,0.25,0.25,0.25,0.25,0.25,-0.5,-0.5,-0.5,-0.5,-0.5,-0.5,-0.5,-0.5,-0.5,-0.5,-0.5,linear,100,0.025,0,0.5,TRUE,3,poolmodel,0.7156,-0.051741727923598144,0.008821552029795413,0,10000
10,250,0,275,550,825,1100,1375,1650,1925,2200,2475,2,0,1,0.25,0.25,0.25,0.25,0.25,0.25,0.25,0.25,0.25,0.25,-0.5,-0.5,-0.5,-0.5,-0.5,-0.5,-0.5,-0.5,-0.5,-0.5,-0.5,linear,100,0.025,0,0.5,TRUE,3,sepmodel,0.7975,8.87131491342149e-4,0.008189707343082948,0,10000
10,250,0,275,550,825,1100,1375,1650,1925,2200,2475,2,0,1,0.25,0.25,0.25,0.25,0.25,0.25,0.25,0.25,0.25,0.25,-0.5,-0.5,-0.5,-0.5,-0.5,-0.5,-0.5,-0.5,-0.5,-0.5,-0.5,linear,100,0.025,0,0.5,TRUE,4,fixmodel,0.8359,-8.651896081870163e-4,0.007205916416756564,0,10000
10,250,0,275,550,825,1100,1375,1650,1925,2200,2475,2,0,1,0.25,0.25,0.25,0.25,0.25,0.25,0.25,0.25,0.25,0.25,-0.5,-0.5,-0.5,-0.5,-0.5,-0.5,-0.5,-0.5,-0.5,-0.5,-0.5,linear,100,0.025,0,0.5,TRUE,4,poolmodel,0.6034,-0.08000441699134148,0.012077964292957648,0,10000
10,250,0,275,550,825,1100,1375,1650,1925,2200,2475,2,0,1,0.25,0.25,0.25,0.25,0.25,0.25,0.25,0.25,0.25,0.25,-0.5,-0.5,-0.5,-0.5,-0.5,-0.5,-0.5,-0.5,-0.5,-0.5,-0.5,linear,100,0.025,0,0.5,TRUE,4,sepmodel,0.7971,-0.0010806046028552219,0.007981312199518961,0,10000
10,250,0,275,550,825,1100,1375,1650,1925,2200,2475,2,0,1,0.25,0.25,0.25,0.25,0.25,0.25,0.25,0.25,0.25,0.25,-0.5,-0.5,-0.5,-0.5,-0.5,-0.5,-0.5,-0.5,-0.5,-0.5,-0.5,linear,100,0.025,0,0.5,TRUE,5,fixmodel,0.8327,-9.017420930472741e-4,0.00734679512986909,0,10000
10,250,0,275,550,825,1100,1375,1650,1925,2200,2475,2,0,1,0.25,0.25,0.25,0.25,0.25,0.25,0.25,0.25,0.25,0.25,-0.5,-0.5,-0.5,-0.5,-0.5,-0.5,-0.5,-0.5,-0.5,-0.5,-0.5,linear,100,0.025,0,0.5,TRUE,5,poolmodel,0.4957,-0.10440745380633351,0.016481784460543724,0,10000
10,250,0,275,550,825,1100,1375,1650,1925,2200,2475,2,0,1,0.25,0.25,0.25,0.25,0.25,0.25,0.25,0.25,0.25,0.25,-0.5,-0.5,-0.5,-0.5,-0.5,-0.5,-0.5,-0.5,-0.5,-0.5,-0.5,linear,100,0.025,0,0.5,TRUE,5,sepmodel,0.7926,-0.0014952315677260115,0.008132912299674375,0,10000
10,250,0,275,550,825,1100,1375,1650,1925,2200,2475,2,0,1,0.25,0.25,0.25,0.25,0.25,0.25,0.25,0.25,0.25,0.25,-0.5,-0.5,-0.5,-0.5,-0.5,-0.5,-0.5,-0.5,-0.5,-0.5,-0.5,linear,100,0.025,0,0.5,TRUE,6,fixmodel,0.841,-9.157985438259602e-4,0.0070211237913232315,0,10000
10,250,0,275,550,825,1100,1375,1650,1925,2200,2475,2,0,1,0.25,0.25,0.25,0.25,0.25,0.25,0.25,0.25,0.25,0.25,-0.5,-0.5,-0.5,-0.5,-0.5,-0.5,-0.5,-0.5,-0.5,-0.5,-0.5,linear,100,0.025,0,0.5,TRUE,6,poolmodel,0.3603,-0.13011974139436236,0.02223251899869944,0,10000
10,250,0,275,550,825,1100,1375,1650,1925,2200,2475,2,0,1,0.25,0.25,0.25,0.25,0.25,0.25,0.25,0.25,0.25,0.25,-0.5,-0.5,-0.5,-0.5,-0.5,-0.5,-0.5,-0.5,-0.5,-0.5,-0.5,linear,100,0.025,0,0.5,TRUE,6,sepmodel,0.79,-0.0018696723635311407,0.007943374050940801,0,10000
10,250,0,275,550,825,1100,1375,1650,1925,2200,2475,2,0,1,0.25,0.25,0.25,0.25,0.25,0.25,0.25,0.25,0.25,0.25,-0.5,-0.5,-0.5,-0.5,-0.5,-0.5,-0.5,-0.5,-0.5,-0.5,-0.5,linear,100,0.025,0,0.5,TRUE,7,fixmodel,0.8422,-3.722848213760993e-4,0.0069921310277921865,0,10000
10,250,0,275,550,825,1100,1375,1650,1925,2200,2475,2,0,1,0.25,0.25,0.25,0.25,0.25,0.25,0.25,0.25,0.25,0.25,-0.5,-0.5,-0.5,-0.5,-0.5,-0.5,-0.5,-0.5,-0.5,-0.5,-0.5,linear,100,0.025,0,0.5,TRUE,7,poolmodel,0.2511,-0.1551553011687905,0.02935412864422556,0,10000
10,250,0,275,550,825,1100,1375,1650,1925,2200,2475,2,0,1,0.25,0.25,0.25,0.25,0.25,0.25,0.25,0.25,0.25,0.25,-0.5,-0.5,-0.5,-0.5,-0.5,-0.5,-0.5,-0.5,-0.5,-0.5,-0.5,linear,100,0.025,0,0.5,TRUE,7,sepmodel,0.7911,-8.236059428776356e-4,0.00800709211202707,0,10000
10,250,0,275,550,825,1100,1375,1650,1925,2200,2475,2,0,1,0.25,0.25,0.25,0.25,0.25,0.25,0.25,0.25,0.25,0.25,-0.5,-0.5,-0.5,-0.5,-0.5,-0.5,-0.5,-0.5,-0.5,-0.5,-0.5,linear,100,0.025,0,0.5,TRUE,8,fixmodel,0.8466,-5.804020484722455e-4,0.006907251886431777,0,10000
10,250,0,275,550,825,1100,1375,1650,1925,2200,2475,2,0,1,0.25,0.25,0.25,0.25,0.25,0.25,0.25,0.25,0.25,0.25,-0.5,-0.5,-0.5,-0.5,-0.5,-0.5,-0.5,-0.5,-0.5,-0.5,-0.5,linear,100,0.025,0,0.5,TRUE,8,poolmodel,0.1618,-0.17832411156754885,0.03695980031518131,0,10000
10,250,0,275,550,825,1100,1375,1650,1925,2200,2475,2,0,1,0.25,0.25,0.25,0.25,0.25,0.25,0.25,0.25,0.25,0.25,-0.5,-0.5,-0.5,-0.5,-0.5,-0.5,-0.5,-0.5,-0.5,-0.5,-0.5,linear,100,0.025,0,0.5,TRUE,8,sepmodel,0.7956,-0.0011532539887192884,0.007949843672346253,0,10000
10,250,0,275,550,825,1100,1375,1650,1925,2200,2475,2,0,1,0.25,0.25,0.25,0.25,0.25,0.25,0.25,0.25,0.25,0.25,-0.5,-0.5,-0.5,-0.5,-0.5,-0.5,-0.5,-0.5,-0.5,-0.5,-0.5,linear,100,0.025,0,0.5,TRUE,9,fixmodel,0.8505,2.421025260278598e-4,0.006899436873868502,0,10000
10,250,0,275,550,825,1100,1375,1650,1925,2200,2475,2,0,1,0.25,0.25,0.25,0.25,0.25,0.25,0.25,0.25,0.25,0.25,-0.5,-0.5,-0.5,-0.5,-0.5,-0.5,-0.5,-0.5,-0.5,-0.5,-0.5,linear,100,0.025,0,0.5,TRUE,9,poolmodel,0.106,-0.19810959393048785,0.044368449729794875,0,10000
10,250,0,275,550,825,1100,1375,1650,1925,2200,2475,2,0,1,0.25,0.25,0.25,0.25,0.25,0.25,0.25,0.25,0.25,0.25,-0.5,-0.5,-0.5,-0.5,-0.5,-0.5,-0.5,-0.5,-0.5,-0.5,-0.5,linear,100,0.025,0,0.5,TRUE,9,sepmodel,0.7948,-4.1083685513264756e-4,0.00792469789582262,0,10000
10,250,0,275,550,825,1100,1375,1650,1925,2200,2475,2,0,1,0.25,0.25,0.25,0.25,0.25,0.25,0.25,0.25,0.25,0.25,-0.5,-0.5,-0.5,-0.5,-0.5,-0.5,-0.5,-0.5,-0.5,-0.5,-0.5,linear,100,0.025,0,0.5,TRUE,10,fixmodel,0.8495,1.7605331920656782e-4,0.0069414004677035585,0,10000
10,250,0,275,550,825,1100,1375,1650,1925,2200,2475,2,0,1,0.25,0.25,0.25,0.25,0.25,0.25,0.25,0.25,0.25,0.25,-0.5,-0.5,-0.5,-0.5,-0.5,-0.5,-0.5,-0.5,-0.5,-0.5,-0.5,linear,100,0.025,0,0.5,TRUE,10,poolmodel,0.0675,-0.2142670260439576,0.05103226153095106,0,10000
10,250,0,275,550,825,1100,1375,1650,1925,2200,2475,2,0,1,0.25,0.25,0.25,0.25,0.25,0.25,0.25,0.25,0.25,0.25,-0.5,-0.5,-0.5,-0.5,-0.5,-0.5,-0.5,-0.5,-0.5,-0.5,-0.5,linear,100,0.025,0,0.5,TRUE,10,sepmodel,0.7956,3.8883110345384895e-5,0.007933624715625065,0,10000
10,250,0,300,600,900,1200,1500,1800,2100,2400,2700,2,0,1,0.25,0.25,0.25,0.25,0.25,0.25,0.25,0.25,0.25,0.25,-0.5,-0.5,-0.5,-0.5,-0.5,-0.5,-0.5,-0.5,-0.5,-0.5,-0.5,linear,100,0.025,0,0.5,TRUE,2,fixmodel,0.8224,-5.571204405652101e-4,0.007370748982602651,0,10000
10,250,0,300,600,900,1200,1500,1800,2100,2400,2700,2,0,1,0.25,0.25,0.25,0.25,0.25,0.25,0.25,0.25,0.25,0.25,-0.5,-0.5,-0.5,-0.5,-0.5,-0.5,-0.5,-0.5,-0.5,-0.5,-0.5,linear,100,0.025,0,0.5,TRUE,2,poolmodel,0.7843,-0.028938397748821107,0.007231859312621779,0,10000
10,250,0,300,600,900,1200,1500,1800,2100,2400,2700,2,0,1,0.25,0.25,0.25,0.25,0.25,0.25,0.25,0.25,0.25,0.25,-0.5,-0.5,-0.5,-0.5,-0.5,-0.5,-0.5,-0.5,-0.5,-0.5,-0.5,linear,100,0.025,0,0.5,TRUE,2,sepmodel,0.7962,-5.176750631176819e-4,0.007919892886337689,0,10000
10,250,0,300,600,900,1200,1500,1800,2100,2400,2700,2,0,1,0.25,0.25,0.25,0.25,0.25,0.25,0.25,0.25,0.25,0.25,-0.5,-0.5,-0.5,-0.5,-0.5,-0.5,-0.5,-0.5,-0.5,-0.5,-0.5,linear,100,0.025,0,0.5,TRUE,3,fixmodel,0.8178,-0.0027921525277820086,0.007533476623980201,0,10000
10,250,0,300,600,900,1200,1500,1800,2100,2400,2700,2,0,1,0.25,0.25,0.25,0.25,0.25,0.25,0.25,0.25,0.25,0.25,-0.5,-0.5,-0.5,-0.5,-0.5,-0.5,-0.5,-0.5,-0.5,-0.5,-0.5,linear,100,0.025,0,0.5,TRUE,3,poolmodel,0.7115,-0.05484068184994286,0.00906171108739998,0,10000
10,250,0,300,600,900,1200,1500,1800,2100,2400,2700,2,0,1,0.25,0.25,0.25,0.25,0.25,0.25,0.25,0.25,0.25,0.25,-0.5,-0.5,-0.5,-0.5,-0.5,-0.5,-0.5,-0.5,-0.5,-0.5,-0.5,linear,100,0.025,0,0.5,TRUE,3,sepmodel,0.7865,-0.0030135565547002616,0.008056485517472381,0,10000
10,250,0,300,600,900,1200,1500,1800,2100,2400,2700,2,0,1,0.25,0.25,0.25,0.25,0.25,0.25,0.25,0.25,0.25,0.25,-0.5,-0.5,-0.5,-0.5,-0.5,-0.5,-0.5,-0.5,-0.5,-0.5,-0.5,linear,100,0.025,0,0.5,TRUE,4,fixmodel,0.8318,-8.232844925988352e-4,0.007269274339274337,0,10000
10,250,0,300,600,900,1200,1500,1800,2100,2400,2700,2,0,1,0.25,0.25,0.25,0.25,0.25,0.25,0.25,0.25,0.25,0.25,-0.5,-0.5,-0.5,-0.5,-0.5,-0.5,-0.5,-0.5,-0.5,-0.5,-0.5,linear,100,0.025,0,0.5,TRUE,4,poolmodel,0.6143,-0.07994810499720253,0.012112153185226238,0,10000
10,250,0,300,600,900,1200,1500,1800,2100,2400,2700,2,0,1,0.25,0.25,0.25,0.25,0.25,0.25,0.25,0.25,0.25,0.25,-0.5,-0.5,-0.5,-0.5,-0.5,-0.5,-0.5,-0.5,-0.5,-0.5,-0.5,linear,100,0.025,0,0.5,TRUE,4,sepmodel,0.7933,-0.0010370845067089038,0.007992543368557757,0,10000
10,250,0,300,600,900,1200,1500,1800,2100,2400,2700,2,0,1,0.25,0.25,0.25,0.25,0.25,0.25,0.25,0.25,0.25,0.25,-0.5,-0.5,-0.5,-0.5,-0.5,-0.5,-0.5,-0.5,-0.5,-0.5,-0.5,linear,100,0.025,0,0.5,TRUE,5,fixmodel,0.829,-0.002714163554557319,0.007250927366071026,0,10000
10,250,0,300,600,900,1200,1500,1800,2100,2400,2700,2,0,1,0.25,0.25,0.25,0.25,0.25,0.25,0.25,0.25,0.25,0.25,-0.5,-0.5,-0.5,-0.5,-0.5,-0.5,-0.5,-0.5,-0.5,-0.5,-0.5,linear,100,0.025,0,0.5,TRUE,5,poolmodel,0.4933,-0.1065488415557669,0.016779330616233115,0,10000
10,250,0,300,600,900,1200,1500,1800,2100,2400,2700,2,0,1,0.25,0.25,0.25,0.25,0.25,0.25,0.25,0.25,0.25,0.25,-0.5,-0.5,-0.5,-0.5,-0.5,-0.5,-0.5,-0.5,-0.5,-0.5,-0.5,linear,100,0.025,0,0.5,TRUE,5,sepmodel,0.7874,-0.002699206270192653,0.008000374230533212,0,10000
10,250,0,300,600,900,1200,1500,1800,2100,2400,2700,2,0,1,0.25,0.25,0.25,0.25,0.25,0.25,0.25,0.25,0.25,0.25,-0.5,-0.5,-0.5,-0.5,-0.5,-0.5,-0.5,-0.5,-0.5,-0.5,-0.5,linear,100,0.025,0,0.5,TRUE,6,fixmodel,0.8271,-0.0024572668217251264,0.007246659675980706,0,10000
10,250,0,300,600,900,1200,1500,1800,2100,2400,2700,2,0,1,0.25,0.25,0.25,0.25,0.25,0.25,0.25,0.25,0.25,0.25,-0.5,-0.5,-0.5,-0.5,-0.5,-0.5,-0.5,-0.5,-0.5,-0.5,-0.5,linear,100,0.025,0,0.5,TRUE,6,poolmodel,0.3666,-0.13119932773572093,0.022510370283367356,0,10000
10,250,0,300,600,900,1200,1500,1800,2100,2400,2700,2,0,1,0.25,0.25,0.25,0.25,0.25,0.25,0.25,0.25,0.25,0.25,-0.5,-0.5,-0.5,-0.5,-0.5,-0.5,-0.5,-0.5,-0.5,-0.5,-0.5,linear,100,0.025,0,0.5,TRUE,6,sepmodel,0.7866,-0.00212276188610756,0.008045300827318011,0,10000
10,250,0,300,600,900,1200,1500,1800,2100,2400,2700,2,0,1,0.25,0.25,0.25,0.25,0.25,0.25,0.25,0.25,0.25,0.25,-0.5,-0.5,-0.5,-0.5,-0.5,-0.5,-0.5,-0.5,-0.5,-0.5,-0.5,linear,100,0.025,0,0.5,TRUE,7,fixmodel,0.8368,-6.623992560442205e-4,0.00712241778923979,0,10000
10,250,0,300,600,900,1200,1500,1800,2100,2400,2700,2,0,1,0.25,0.25,0.25,0.25,0.25,0.25,0.25,0.25,0.25,0.25,-0.5,-0.5,-0.5,-0.5,-0.5,-0.5,-0.5,-0.5,-0.5,-0.5,-0.5,linear,100,0.025,0,0.5,TRUE,7,poolmodel,0.2525,-0.1551696697837401,0.02922119632270739,0,10000
10,250,0,300,600,900,1200,1500,1800,2100,2400,2700,2,0,1,0.25,0.25,0.25,0.25,0.25,0.25,0.25,0.25,0.25,0.25,-0.5,-0.5,-0.5,-0.5,-0.5,-0.5,-0.5,-0.5,-0.5,-0.5,-0.5,linear,100,0.025,0,0.5,TRUE,7,sepmodel,0.7889,-4.39737514552559e-4,0.008001161426490391,0,10000
10,250,0,300,600,900,1200,1500,1800,2100,2400,2700,2,0,1,0.25,0.25,0.25,0.25,0.25,0.25,0.25,0.25,0.25,0.25,-0.5,-0.5,-0.5,-0.5,-0.5,-0.5,-0.5,-0.5,-0.5,-0.5,-0.5,linear,100,0.025,0,0.5,TRUE,8,fixmodel,0.8432,-2.385735675229516e-4,0.007214390933134114,0,10000
10,250,0,300,600,900,1200,1500,1800,2100,2400,2700,2,0,1,0.25,0.25,0.25,0.25,0.25,0.25,0.25,0.25,0.25,0.25,-0.5,-0.5,-0.5,-0.5,-0.5,-0.5,-0.5,-0.5,-0.5,-0.5,-0.5,linear,100,0.025,0,0.5,TRUE,8,poolmodel,0.1616,-0.17993056059708942,0.03751277871141441,0,10000
10,250,0,300,600,900,1200,1500,1800,2100,2400,2700,2,0,1,0.25,0.25,0.25,0.25,0.25,0.25,0.25,0.25,0.25,0.25,-0.5,-0.5,-0.5,-0.5,-0.5,-0.5,-0.5,-0.5,-0.5,-0.5,-0.5,linear,100,0.025,0,0.5,TRUE,8,sepmodel,0.7939,-2.555696673440506e-4,0.008073300120511398,0,10000
10,250,0,300,600,900,1200,1500,1800,2100,2400,2700,2,0,1,0.25,0.25,0.25,0.25,0.25,0.25,0.25,0.25,0.25,0.25,-0.5,-0.5,-0.5,-0.5,-0.5,-0.5,-0.5,-0.5,-0.5,-0.5,-0.5,linear,100,0.025,0,0.5,TRUE,9,fixmodel,0.841,-4.4785730408706745e-4,0.007139371204936984,0,10000
10,250,0,300,600,900,1200,1500,1800,2100,2400,2700,2,0,1,0.25,0.25,0.25,0.25,0.25,0.25,0.25,0.25,0.25,0.25,-0.5,-0.5,-0.5,-0.5,-0.5,-0.5,-0.5,-0.5,-0.5,-0.5,-0.5,linear,100,0.025,0,0.5,TRUE,9,poolmodel,0.0964,-0.20167526865316773,0.04578375326831942,0,10000
10,250,0,300,600,900,1200,1500,1800,2100,2400,2700,2,0,1,0.25,0.25,0.25,0.25,0.25,0.25,0.25,0.25,0.25,0.25,-0.5,-0.5,-0.5,-0.5,-0.5,-0.5,-0.5,-0.5,-0.5,-0.5,-0.5,linear,100,0.025,0,0.5,TRUE,9,sepmodel,0.7966,-6.0394047848883945e-5,0.008052498831661543,0,10000
10,250,0,300,600,900,1200,1500,1800,2100,2400,2700,2,0,1,0.25,0.25,0.25,0.25,0.25,0.25,0.25,0.25,0.25,0.25,-0.5,-0.5,-0.5,-0.5,-0.5,-0.5,-0.5,-0.5,-0.5,-0.5,-0.5,linear,100,0.025,0,0.5,TRUE,10,fixmodel,0.8465,-8.225829633896177e-4,0.006868561160240256,0,10000
10,250,0,300,600,900,1200,1500,1800,2100,2400,2700,2,0,1,0.25,0.25,0.25,0.25,0.25,0.25,0.25,0.25,0.25,0.25,-0.5,-0.5,-0.5,-0.5,-0.5,-0.5,-0.5,-0.5,-0.5,-0.5,-0.5,linear,100,0.025,0,0.5,TRUE,10,poolmodel,0.059,-0.219272425461166,0.05298321463067134,0,10000
10,250,0,300,600,900,1200,1500,1800,2100,2400,2700,2,0,1,0.25,0.25,0.25,0.25,0.25,0.25,0.25,0.25,0.25,0.25,-0.5,-0.5,-0.5,-0.5,-0.5,-0.5,-0.5,-0.5,-0.5,-0.5,-0.5,linear,100,0.025,0,0.5,TRUE,10,sepmodel,0.7991,-4.708806638205208e-4,0.007731279674303925,0,10000
10,250,0,325,650,975,1300,1625,1950,2275,2600,2925,2,0,1,0.25,0.25,0.25,0.25,0.25,0.25,0.25,0.25,0.25,0.25,-0.5,-0.5,-0.5,-0.5,-0.5,-0.5,-0.5,-0.5,-0.5,-0.5,-0.5,linear,100,0.025,0,0.5,TRUE,2,fixmodel,0.8203,-9.779584546875425e-4,0.007562856453484228,0,10000
10,250,0,325,650,975,1300,1625,1950,2275,2600,2925,2,0,1,0.25,0.25,0.25,0.25,0.25,0.25,0.25,0.25,0.25,0.25,-0.5,-0.5,-0.5,-0.5,-0.5,-0.5,-0.5,-0.5,-0.5,-0.5,-0.5,linear,100,0.025,0,0.5,TRUE,2,poolmodel,0.7889,-0.02849229926386691,0.00727471502497027,0,10000
10,250,0,325,650,975,1300,1625,1950,2275,2600,2925,2,0,1,0.25,0.25,0.25,0.25,0.25,0.25,0.25,0.25,0.25,0.25,-0.5,-0.5,-0.5,-0.5,-0.5,-0.5,-0.5,-0.5,-0.5,-0.5,-0.5,linear,100,0.025,0,0.5,TRUE,2,sepmodel,0.7938,-0.001160868569711674,0.008118449810725072,0,10000
10,250,0,325,650,975,1300,1625,1950,2275,2600,2925,2,0,1,0.25,0.25,0.25,0.25,0.25,0.25,0.25,0.25,0.25,0.25,-0.5,-0.5,-0.5,-0.5,-0.5,-0.5,-0.5,-0.5,-0.5,-0.5,-0.5,linear,100,0.025,0,0.5,TRUE,3,fixmodel,0.8286,-1.2960277413673603e-4,0.007464065896677026,0,10000
10,250,0,325,650,975,1300,1625,1950,2275,2600,2925,2,0,1,0.25,0.25,0.25,0.25,0.25,0.25,0.25,0.25,0.25,0.25,-0.5,-0.5,-0.5,-0.5,-0.5,-0.5,-0.5,-0.5,-0.5,-0.5,-0.5,linear,100,0.025,0,0.5,TRUE,3,poolmodel,0.7261,-0.05336752276633193,0.008798378593797989,0,10000
10,250,0,325,650,975,1300,1625,1950,2275,2600,2925,2,0,1,0.25,0.25,0.25,0.25,0.25,0.25,0.25,0.25,0.25,0.25,-0.5,-0.5,-0.5,-0.5,-0.5,-0.5,-0.5,-0.5,-0.5,-0.5,-0.5,linear,100,0.025,0,0.5,TRUE,3,sepmodel,0.7993,-4.924131979789869e-4,0.008003438443757869,0,10000
10,250,0,325,650,975,1300,1625,1950,2275,2600,2925,2,0,1,0.25,0.25,0.25,0.25,0.25,0.25,0.25,0.25,0.25,0.25,-0.5,-0.5,-0.5,-0.5,-0.5,-0.5,-0.5,-0.5,-0.5,-0.5,-0.5,linear,100,0.025,0,0.5,TRUE,4,fixmodel,0.83,-2.217784983344084e-4,0.007347679317655587,0,10000
10,250,0,325,650,975,1300,1625,1950,2275,2600,2925,2,0,1,0.25,0.25,0.25,0.25,0.25,0.25,0.25,0.25,0.25,0.25,-0.5,-0.5,-0.5,-0.5,-0.5,-0.5,-0.5,-0.5,-0.5,-0.5,-0.5,linear,100,0.025,0,0.5,TRUE,4,poolmodel,0.6226,-0.07960067860469519,0.011884710900827475,0,10000
10,250,0,325,650,975,1300,1625,1950,2275,2600,2925,2,0,1,0.25,0.25,0.25,0.25,0.25,0.25,0.25,0.25,0.25,0.25,-0.5,-0.5,-0.5,-0.5,-0.5,-0.5,-0.5,-0.5,-0.5,-0.5,-0.5,linear,100,0.025,0,0.5,TRUE,4,sepmodel,0.7926,-3.49344220826999e-4,0.00810516285744405,0,10000
10,250,0,325,650,975,1300,1625,1950,2275,2600,2925,2,0,1,0.25,0.25,0.25,0.25,0.25,0.25,0.25,0.25,0.25,0.25,-0.5,-0.5,-0.5,-0.5,-0.5,-0.5,-0.5,-0.5,-0.5,-0.5,-0.5,linear,100,0.025,0,0.5,TRUE,5,fixmodel,0.8315,-6.142192092843359e-4,0.007351342522142298,0,10000
10,250,0,325,650,975,1300,1625,1950,2275,2600,2925,2,0,1,0.25,0.25,0.25,0.25,0.25,0.25,0.25,0.25,0.25,0.25,-0.5,-0.5,-0.5,-0.5,-0.5,-0.5,-0.5,-0.5,-0.5,-0.5,-0.5,linear,100,0.025,0,0.5,TRUE,5,poolmodel,0.5019,-0.10507861836357449,0.016494492561440453,0,10000
10,250,0,325,650,975,1300,1625,1950,2275,2600,2925,2,0,1,0.25,0.25,0.25,0.25,0.25,0.25,0.25,0.25,0.25,0.25,-0.5,-0.5,-0.5,-0.5,-0.5,-0.5,-0.5,-0.5,-0.5,-0.5,-0.5,linear,100,0.025,0,0.5,TRUE,5,sepmodel,0.7948,-6.553465002003294e-4,0.008129580168536512,0,10000
10,250,0,325,650,975,1300,1625,1950,2275,2600,2925,2,0,1,0.25,0.25,0.25,0.25,0.25,0.25,0.25,0.25,0.25,0.25,-0.5,-0.5,-0.5,-0.5,-0.5,-0.5,-0.5,-0.5,-0.5,-0.5,-0.5,linear,100,0.025,0,0.5,TRUE,6,fixmodel,0.8291,-5.787069427256392e-4,0.007344227665249143,0,10000
10,250,0,325,650,975,1300,1625,1950,2275,2600,2925,2,0,1,0.25,0.25,0.25,0.25,0.25,0.25,0.25,0.25,0.25,0.25,-0.5,-0.5,-0.5,-0.5,-0.5,-0.5,-0.5,-0.5,-0.5,-0.5,-0.5,linear,100,0.025,0,0.5,TRUE,6,poolmodel,0.3819,-0.12992591597277325,0.022152064859782793,0,10000
10,250,0,325,650,975,1300,1625,1950,2275,2600,2925,2,0,1,0.25,0.25,0.25,0.25,0.25,0.25,0.25,0.25,0.25,0.25,-0.5,-0.5,-0.5,-0.5,-0.5,-0.5,-0.5,-0.5,-0.5,-0.5,-0.5,linear,100,0.025,0,0.5,TRUE,6,sepmodel,0.7941,-5.581801291467801e-4,0.008155000134430693,0,10000
10,250,0,325,650,975,1300,1625,1950,2275,2600,2925,2,0,1,0.25,0.25,0.25,0.25,0.25,0.25,0.25,0.25,0.25,0.25,-0.5,-0.5,-0.5,-0.5,-0.5,-0.5,-0.5,-0.5,-0.5,-0.5,-0.5,linear,100,0.025,0,0.5,TRUE,7,fixmodel,0.8373,3.5496104404413693e-4,0.007257432116109285,0,10000
10,250,0,325,650,975,1300,1625,1950,2275,2600,2925,2,0,1,0.25,0.25,0.25,0.25,0.25,0.25,0.25,0.25,0.25,0.25,-0.5,-0.5,-0.5,-0.5,-0.5,-0.5,-0.5,-0.5,-0.5,-0.5,-0.5,linear,100,0.025,0,0.5,TRUE,7,poolmodel,0.2748,-0.1537678510049346,0.02878913939466575,0,10000
10,250,0,325,650,975,1300,1625,1950,2275,2600,2925,2,0,1,0.25,0.25,0.25,0.25,0.25,0.25,0.25,0.25,0.25,0.25,-0.5,-0.5,-0.5,-0.5,-0.5,-0.5,-0.5,-0.5,-0.5,-0.5,-0.5,linear,100,0.025,0,0.5,TRUE,7,sepmodel,0.7938,-2.666712610694245e-5,0.008038895109741968,0,10000
10,250,0,325,650,975,1300,1625,1950,2275,2600,2925,2,0,1,0.25,0.25,0.25,0.25,0.25,0.25,0.25,0.25,0.25,0.25,-0.5,-0.5,-0.5,-0.5,-0.5,-0.5,-0.5,-0.5,-0.5,-0.5,-0.5,linear,100,0.025,0,0.5,TRUE,8,fixmodel,0.839,-2.958210023954881e-4,0.007084898751667108,0,10000
10,250,0,325,650,975,1300,1625,1950,2275,2600,2925,2,0,1,0.25,0.25,0.25,0.25,0.25,0.25,0.25,0.25,0.25,0.25,-0.5,-0.5,-0.5,-0.5,-0.5,-0.5,-0.5,-0.5,-0.5,-0.5,-0.5,linear,100,0.025,0,0.5,TRUE,8,poolmodel,0.1651,-0.17916376752919078,0.0370940677620991,0,10000
10,250,0,325,650,975,1300,1625,1950,2275,2600,2925,2,0,1,0.25,0.25,0.25,0.25,0.25,0.25,0.25,0.25,0.25,0.25,-0.5,-0.5,-0.5,-0.5,-0.5,-0.5,-0.5,-0.5,-0.5,-0.5,-0.5,linear,100,0.025,0,0.5,TRUE,8,sepmodel,0.7925,-4.832544695164426e-4,0.007910811850682114,0,10000
10,250,0,325,650,975,1300,1625,1950,2275,2600,2925,2,0,1,0.25,0.25,0.25,0.25,0.25,0.25,0.25,0.25,0.25,0.25,-0.5,-0.5,-0.5,-0.5,-0.5,-0.5,-0.5,-0.5,-0.5,-0.5,-0.5,linear,100,0.025,0,0.5,TRUE,9,fixmodel,0.8367,-0.0012994162784260794,0.007162596824506233,0,10000
10,250,0,325,650,975,1300,1625,1950,2275,2600,2925,2,0,1,0.25,0.25,0.25,0.25,0.25,0.25,0.25,0.25,0.25,0.25,-0.5,-0.5,-0.5,-0.5,-0.5,-0.5,-0.5,-0.5,-0.5,-0.5,-0.5,linear,100,0.025,0,0.5,TRUE,9,poolmodel,0.0923,-0.20344735449762893,0.04628399390006805,0,10000
10,250,0,325,650,975,1300,1625,1950,2275,2600,2925,2,0,1,0.25,0.25,0.25,0.25,0.25,0.25,0.25,0.25,0.25,0.25,-0.5,-0.5,-0.5,-0.5,-0.5,-0.5,-0.5,-0.5,-0.5,-0.5,-0.5,linear,100,0.025,0,0.5,TRUE,9,sepmodel,0.7912,-0.0010917119180086632,0.00797049065502373,0,10000
10,250,0,325,650,975,1300,1625,1950,2275,2600,2925,2,0,1,0.25,0.25,0.25,0.25,0.25,0.25,0.25,0.25,0.25,0.25,-0.5,-0.5,-0.5,-0.5,-0.5,-0.5,-0.5,-0.5,-0.5,-0.5,-0.5,linear,100,0.025,0,0.5,TRUE,10,fixmodel,0.8431,-1.85750649006708e-4,0.007034833250134284,0,10000
10,250,0,325,650,975,1300,1625,1950,2275,2600,2925,2,0,1,0.25,0.25,0.25,0.25,0.25,0.25,0.25,0.25,0.25,0.25,-0.5,-0.5,-0.5,-0.5,-0.5,-0.5,-0.5,-0.5,-0.5,-0.5,-0.5,linear,100,0.025,0,0.5,TRUE,10,poolmodel,0.0578,-0.22020514070531125,0.05326804825330417,0,10000
10,250,0,325,650,975,1300,1625,1950,2275,2600,2925,2,0,1,0.25,0.25,0.25,0.25,0.25,0.25,0.25,0.25,0.25,0.25,-0.5,-0.5,-0.5,-0.5,-0.5,-0.5,-0.5,-0.5,-0.5,-0.5,-0.5,linear,100,0.025,0,0.5,TRUE,10,sepmodel,0.7974,-1.2906282325752486e-4,0.007893073382036101,0,10000
10,250,0,350,700,1050,1400,1750,2100,2450,2800,3150,2,0,1,0.25,0.25,0.25,0.25,0.25,0.25,0.25,0.25,0.25,0.25,-0.5,-0.5,-0.5,-0.5,-0.5,-0.5,-0.5,-0.5,-0.5,-0.5,-0.5,linear,100,0.025,0,0.5,TRUE,2,fixmodel,0.8193,2.1511486509743607e-4,0.007546910454956251,0,10000
10,250,0,350,700,1050,1400,1750,2100,2450,2800,3150,2,0,1,0.25,0.25,0.25,0.25,0.25,0.25,0.25,0.25,0.25,0.25,-0.5,-0.5,-0.5,-0.5,-0.5,-0.5,-0.5,-0.5,-0.5,-0.5,-0.5,linear,100,0.025,0,0.5,TRUE,2,poolmodel,0.7968,-0.027456374735737848,0.007105189491424496,0,10000
10,250,0,350,700,1050,1400,1750,2100,2450,2800,3150,2,0,1,0.25,0.25,0.25,0.25,0.25,0.25,0.25,0.25,0.25,0.25,-0.5,-0.5,-0.5,-0.5,-0.5,-0.5,-0.5,-0.5,-0.5,-0.5,-0.5,linear,100,0.025,0,0.5,TRUE,2,sepmodel,0.7968,1.6903152293647495e-4,0.008033079850428306,0,10000
10,250,0,350,700,1050,1400,1750,2100,2450,2800,3150,2,0,1,0.25,0.25,0.25,0.25,0.25,0.25,0.25,0.25,0.25,0.25,-0.5,-0.5,-0.5,-0.5,-0.5,-0.5,-0.5,-0.5,-0.5,-0.5,-0.5,linear,100,0.025,0,0.5,TRUE,3,fixmodel,0.8305,0.0017045620598931347,0.007453285933319583,0,10000
10,250,0,350,700,1050,1400,1750,2100,2450,2800,3150,2,0,1,0.25,0.25,0.25,0.25,0.25,0.25,0.25,0.25,0.25,0.25,-0.5,-0.5,-0.5,-0.5,-0.5,-0.5,-0.5,-0.5,-0.5,-0.5,-0.5,linear,100,0.025,0,0.5,TRUE,3,poolmodel,0.7346,-0.05266420897216791,0.008580300902599546,0,10000
10,250,0,350,700,1050,1400,1750,2100,2450,2800,3150,2,0,1,0.25,0.25,0.25,0.25,0.25,0.25,0.25,0.25,0.25,0.25,-0.5,-0.5,-0.5,-0.5,-0.5,-0.5,-0.5,-0.5,-0.5,-0.5,-0.5,linear,100,0.025,0,0.5,TRUE,3,sepmodel,0.7983,0.001356447922847126,0.008076072506075978,0,10000
10,250,0,350,700,1050,1400,1750,2100,2450,2800,3150,2,0,1,0.25,0.25,0.25,0.25,0.25,0.25,0.25,0.25,0.25,0.25,-0.5,-0.5,-0.5,-0.5,-0.5,-0.5,-0.5,-0.5,-0.5,-0.5,-0.5,linear,100,0.025,0,0.5,TRUE,4,fixmodel,0.8254,-1.1155817763455331e-4,0.007389804527789363,0,10000
10,250,0,350,700,1050,1400,1750,2100,2450,2800,3150,2,0,1,0.25,0.25,0.25,0.25,0.25,0.25,0.25,0.25,0.25,0.25,-0.5,-0.5,-0.5,-0.5,-0.5,-0.5,-0.5,-0.5,-0.5,-0.5,-0.5,linear,100,0.025,0,0.5,TRUE,4,poolmodel,0.6301,-0.0794177640263529,0.011652915132146554,0,10000
10,250,0,350,700,1050,1400,1750,2100,2450,2800,3150,2,0,1,0.25,0.25,0.25,0.25,0.25,0.25,0.25,0.25,0.25,0.25,-0.5,-0.5,-0.5,-0.5,-0.5,-0.5,-0.5,-0.5,-0.5,-0.5,-0.5,linear,100,0.025,0,0.5,TRUE,4,sepmodel,0.7975,-2.2810347845834476e-4,0.008006188277561603,0,10000
10,250,0,350,700,1050,1400,1750,2100,2450,2800,3150,2,0,1,0.25,0.25,0.25,0.25,0.25,0.25,0.25,0.25,0.25,0.25,-0.5,-0.5,-0.5,-0.5,-0.5,-0.5,-0.5,-0.5,-0.5,-0.5,-0.5,linear,100,0.025,0,0.5,TRUE,5,fixmodel,0.8336,-2.3327657352650212e-4,0.007166978509993648,0,10000
10,250,0,350,700,1050,1400,1750,2100,2450,2800,3150,2,0,1,0.25,0.25,0.25,0.25,0.25,0.25,0.25,0.25,0.25,0.25,-0.5,-0.5,-0.5,-0.5,-0.5,-0.5,-0.5,-0.5,-0.5,-0.5,-0.5,linear,100,0.025,0,0.5,TRUE,5,poolmodel,0.5154,-0.10439411801156574,0.01610208051417631,0,10000
10,250,0,350,700,1050,1400,1750,2100,2450,2800,3150,2,0,1,0.25,0.25,0.25,0.25,0.25,0.25,0.25,0.25,0.25,0.25,-0.5,-0.5,-0.5,-0.5,-0.5,-0.5,-0.5,-0.5,-0.5,-0.5,-0.5,linear,100,0.025,0,0.5,TRUE,5,sepmodel,0.7982,-8.666881093616348e-4,0.007756247555585352,0,10000
10,250,0,350,700,1050,1400,1750,2100,2450,2800,3150,2,0,1,0.25,0.25,0.25,0.25,0.25,0.25,0.25,0.25,0.25,0.25,-0.5,-0.5,-0.5,-0.5,-0.5,-0.5,-0.5,-0.5,-0.5,-0.5,-0.5,linear,100,0.025,0,0.5,TRUE,6,fixmodel,0.8346,8.678137375679392e-4,0.0073914270197360955,0,10000
