pavlakrotka/NCC_FreqModels/simulations/results/results_setting_1_pow.csv
num_arms,n_arm,d1,d2,d3,d4,d5,d6,d7,d8,d9,d10,period_blocks,mu0,sigma,theta1,theta2,theta3,theta4,theta5,theta6,theta7,theta8,theta9,theta10,lambda0,lambda1,lambda2,lambda3,lambda4,lambda5,lambda6,lambda7,lambda8,lambda9,lambda10,trend,unit_size,alpha,trend_mean,trend_var,ncc,study_arm,model,reject_h0,bias,MSE,failed,nsim
10,250,0,0,0,0,0,0,0,0,0,0,2,0,1,0.25,0.25,0.25,0.25,0.25,0.25,0.25,0.25,0.25,0.25,-0.5,-0.5,-0.5,-0.5,-0.5,-0.5,-0.5,-0.5,-0.5,-0.5,-0.5,linear,100,0.025,0,0.5,TRUE,2,fixmodel,0.7941,5.01984861952285e-4,0.007954697331524424,0,10000
10,250,0,0,0,0,0,0,0,0,0,0,2,0,1,0.25,0.25,0.25,0.25,0.25,0.25,0.25,0.25,0.25,0.25,-0.5,-0.5,-0.5,-0.5,-0.5,-0.5,-0.5,-0.5,-0.5,-0.5,-0.5,linear,100,0.025,0,0.5,TRUE,2,poolmodel,0.793,5.019848619471367e-4,0.007954697331524225,0,10000
10,250,0,0,0,0,0,0,0,0,0,0,2,0,1,0.25,0.25,0.25,0.25,0.25,0.25,0.25,0.25,0.25,0.25,-0.5,-0.5,-0.5,-0.5,-0.5,-0.5,-0.5,-0.5,-0.5,-0.5,-0.5,linear,100,0.025,0,0.5,TRUE,2,sepmodel,0.793,5.019848619471367e-4,0.007954697331524225,0,10000
10,250,0,0,0,0,0,0,0,0,0,0,2,0,1,0.25,0.25,0.25,0.25,0.25,0.25,0.25,0.25,0.25,0.25,-0.5,-0.5,-0.5,-0.5,-0.5,-0.5,-0.5,-0.5,-0.5,-0.5,-0.5,linear,100,0.025,0,0.5,TRUE,3,fixmodel,0.7923,6.278925212836772e-4,0.0079406933011375,0,10000
10,250,0,0,0,0,0,0,0,0,0,0,2,0,1,0.25,0.25,0.25,0.25,0.25,0.25,0.25,0.25,0.25,0.25,-0.5,-0.5,-0.5,-0.5,-0.5,-0.5,-0.5,-0.5,-0.5,-0.5,-0.5,linear,100,0.025,0,0.5,TRUE,3,poolmodel,0.7901,6.278925212829865e-4,0.007940693301137445,0,10000
10,250,0,0,0,0,0,0,0,0,0,0,2,0,1,0.25,0.25,0.25,0.25,0.25,0.25,0.25,0.25,0.25,0.25,-0.5,-0.5,-0.5,-0.5,-0.5,-0.5,-0.5,-0.5,-0.5,-0.5,-0.5,linear,100,0.025,0,0.5,TRUE,3,sepmodel,0.7901,6.278925212829865e-4,0.007940693301137445,0,10000
10,250,0,0,0,0,0,0,0,0,0,0,2,0,1,0.25,0.25,0.25,0.25,0.25,0.25,0.25,0.25,0.25,0.25,-0.5,-0.5,-0.5,-0.5,-0.5,-0.5,-0.5,-0.5,-0.5,-0.5,-0.5,linear,100,0.025,0,0.5,TRUE,4,fixmodel,0.7973,2.845092540254532e-4,0.007786707631633571,0,10000
10,250,0,0,0,0,0,0,0,0,0,0,2,0,1,0.25,0.25,0.25,0.25,0.25,0.25,0.25,0.25,0.25,0.25,-0.5,-0.5,-0.5,-0.5,-0.5,-0.5,-0.5,-0.5,-0.5,-0.5,-0.5,linear,100,0.025,0,0.5,TRUE,4,poolmodel,0.7967,2.8450925402362165e-4,0.0077867076316335245,0,10000
10,250,0,0,0,0,0,0,0,0,0,0,2,0,1,0.25,0.25,0.25,0.25,0.25,0.25,0.25,0.25,0.25,0.25,-0.5,-0.5,-0.5,-0.5,-0.5,-0.5,-0.5,-0.5,-0.5,-0.5,-0.5,linear,100,0.025,0,0.5,TRUE,4,sepmodel,0.7967,2.8450925402362165e-4,0.0077867076316335245,0,10000
10,250,0,0,0,0,0,0,0,0,0,0,2,0,1,0.25,0.25,0.25,0.25,0.25,0.25,0.25,0.25,0.25,0.25,-0.5,-0.5,-0.5,-0.5,-0.5,-0.5,-0.5,-0.5,-0.5,-0.5,-0.5,linear,100,0.025,0,0.5,TRUE,5,fixmodel,0.7895,5.366150501742211e-4,0.008050358487913458,0,10000
10,250,0,0,0,0,0,0,0,0,0,0,2,0,1,0.25,0.25,0.25,0.25,0.25,0.25,0.25,0.25,0.25,0.25,-0.5,-0.5,-0.5,-0.5,-0.5,-0.5,-0.5,-0.5,-0.5,-0.5,-0.5,linear,100,0.025,0,0.5,TRUE,5,poolmodel,0.7878,5.366150501732571e-4,0.008050358487913448,0,10000
10,250,0,0,0,0,0,0,0,0,0,0,2,0,1,0.25,0.25,0.25,0.25,0.25,0.25,0.25,0.25,0.25,0.25,-0.5,-0.5,-0.5,-0.5,-0.5,-0.5,-0.5,-0.5,-0.5,-0.5,-0.5,linear,100,0.025,0,0.5,TRUE,5,sepmodel,0.7878,5.366150501732571e-4,0.008050358487913448,0,10000
10,250,0,0,0,0,0,0,0,0,0,0,2,0,1,0.25,0.25,0.25,0.25,0.25,0.25,0.25,0.25,0.25,0.25,-0.5,-0.5,-0.5,-0.5,-0.5,-0.5,-0.5,-0.5,-0.5,-0.5,-0.5,linear,100,0.025,0,0.5,TRUE,6,fixmodel,0.7989,0.001005823646043143,0.007962315166855449,0,10000
10,250,0,0,0,0,0,0,0,0,0,0,2,0,1,0.25,0.25,0.25,0.25,0.25,0.25,0.25,0.25,0.25,0.25,-0.5,-0.5,-0.5,-0.5,-0.5,-0.5,-0.5,-0.5,-0.5,-0.5,-0.5,linear,100,0.025,0,0.5,TRUE,6,poolmodel,0.7965,0.001005823646042192,0.007962315166855449,0,10000
10,250,0,0,0,0,0,0,0,0,0,0,2,0,1,0.25,0.25,0.25,0.25,0.25,0.25,0.25,0.25,0.25,0.25,-0.5,-0.5,-0.5,-0.5,-0.5,-0.5,-0.5,-0.5,-0.5,-0.5,-0.5,linear,100,0.025,0,0.5,TRUE,6,sepmodel,0.7965,0.001005823646042192,0.007962315166855449,0,10000
10,250,0,0,0,0,0,0,0,0,0,0,2,0,1,0.25,0.25,0.25,0.25,0.25,0.25,0.25,0.25,0.25,0.25,-0.5,-0.5,-0.5,-0.5,-0.5,-0.5,-0.5,-0.5,-0.5,-0.5,-0.5,linear,100,0.025,0,0.5,TRUE,7,fixmodel,0.7907,2.2021367688877558e-4,0.007848696920719291,0,10000
10,250,0,0,0,0,0,0,0,0,0,0,2,0,1,0.25,0.25,0.25,0.25,0.25,0.25,0.25,0.25,0.25,0.25,-0.5,-0.5,-0.5,-0.5,-0.5,-0.5,-0.5,-0.5,-0.5,-0.5,-0.5,linear,100,0.025,0,0.5,TRUE,7,poolmodel,0.7899,2.2021367688782555e-4,0.007848696920719276,0,10000
10,250,0,0,0,0,0,0,0,0,0,0,2,0,1,0.25,0.25,0.25,0.25,0.25,0.25,0.25,0.25,0.25,0.25,-0.5,-0.5,-0.5,-0.5,-0.5,-0.5,-0.5,-0.5,-0.5,-0.5,-0.5,linear,100,0.025,0,0.5,TRUE,7,sepmodel,0.7899,2.2021367688782555e-4,0.007848696920719276,0,10000
10,250,0,0,0,0,0,0,0,0,0,0,2,0,1,0.25,0.25,0.25,0.25,0.25,0.25,0.25,0.25,0.25,0.25,-0.5,-0.5,-0.5,-0.5,-0.5,-0.5,-0.5,-0.5,-0.5,-0.5,-0.5,linear,100,0.025,0,0.5,TRUE,8,fixmodel,0.7948,3.760554321207063e-5,0.00791115284511817,0,10000
10,250,0,0,0,0,0,0,0,0,0,0,2,0,1,0.25,0.25,0.25,0.25,0.25,0.25,0.25,0.25,0.25,0.25,-0.5,-0.5,-0.5,-0.5,-0.5,-0.5,-0.5,-0.5,-0.5,-0.5,-0.5,linear,100,0.025,0,0.5,TRUE,8,poolmodel,0.7964,3.7605543211169226e-5,0.007911152845118162,0,10000
10,250,0,0,0,0,0,0,0,0,0,0,2,0,1,0.25,0.25,0.25,0.25,0.25,0.25,0.25,0.25,0.25,0.25,-0.5,-0.5,-0.5,-0.5,-0.5,-0.5,-0.5,-0.5,-0.5,-0.5,-0.5,linear,100,0.025,0,0.5,TRUE,8,sepmodel,0.7964,3.7605543211169226e-5,0.007911152845118162,0,10000
10,250,0,0,0,0,0,0,0,0,0,0,2,0,1,0.25,0.25,0.25,0.25,0.25,0.25,0.25,0.25,0.25,0.25,-0.5,-0.5,-0.5,-0.5,-0.5,-0.5,-0.5,-0.5,-0.5,-0.5,-0.5,linear,100,0.025,0,0.5,TRUE,9,fixmodel,0.7971,0.0014773408965567184,0.008026401033662827,0,10000
10,250,0,0,0,0,0,0,0,0,0,0,2,0,1,0.25,0.25,0.25,0.25,0.25,0.25,0.25,0.25,0.25,0.25,-0.5,-0.5,-0.5,-0.5,-0.5,-0.5,-0.5,-0.5,-0.5,-0.5,-0.5,linear,100,0.025,0,0.5,TRUE,9,poolmodel,0.7943,0.0014773408965558302,0.008026401033662816,0,10000
10,250,0,0,0,0,0,0,0,0,0,0,2,0,1,0.25,0.25,0.25,0.25,0.25,0.25,0.25,0.25,0.25,0.25,-0.5,-0.5,-0.5,-0.5,-0.5,-0.5,-0.5,-0.5,-0.5,-0.5,-0.5,linear,100,0.025,0,0.5,TRUE,9,sepmodel,0.7943,0.0014773408965558302,0.008026401033662816,0,10000
10,250,0,0,0,0,0,0,0,0,0,0,2,0,1,0.25,0.25,0.25,0.25,0.25,0.25,0.25,0.25,0.25,0.25,-0.5,-0.5,-0.5,-0.5,-0.5,-0.5,-0.5,-0.5,-0.5,-0.5,-0.5,linear,100,0.025,0,0.5,TRUE,10,fixmodel,0.7944,3.584107917569554e-4,0.00781731227629017,0,10000
10,250,0,0,0,0,0,0,0,0,0,0,2,0,1,0.25,0.25,0.25,0.25,0.25,0.25,0.25,0.25,0.25,0.25,-0.5,-0.5,-0.5,-0.5,-0.5,-0.5,-0.5,-0.5,-0.5,-0.5,-0.5,linear,100,0.025,0,0.5,TRUE,10,poolmodel,0.7934,3.5841079175602433e-4,0.007817312276290154,0,10000
10,250,0,0,0,0,0,0,0,0,0,0,2,0,1,0.25,0.25,0.25,0.25,0.25,0.25,0.25,0.25,0.25,0.25,-0.5,-0.5,-0.5,-0.5,-0.5,-0.5,-0.5,-0.5,-0.5,-0.5,-0.5,linear,100,0.025,0,0.5,TRUE,10,sepmodel,0.7934,3.5841079175602433e-4,0.007817312276290154,0,10000
10,250,0,25,50,75,100,125,150,175,200,225,2,0,1,0.25,0.25,0.25,0.25,0.25,0.25,0.25,0.25,0.25,0.25,-0.5,-0.5,-0.5,-0.5,-0.5,-0.5,-0.5,-0.5,-0.5,-0.5,-0.5,linear,100,0.025,0,0.5,TRUE,2,fixmodel,0.7927,-0.001027693662542911,0.008002088445541369,0,10000
10,250,0,25,50,75,100,125,150,175,200,225,2,0,1,0.25,0.25,0.25,0.25,0.25,0.25,0.25,0.25,0.25,0.25,-0.5,-0.5,-0.5,-0.5,-0.5,-0.5,-0.5,-0.5,-0.5,-0.5,-0.5,linear,100,0.025,0,0.5,TRUE,2,poolmodel,0.7561,-0.011740131323966155,0.008045585105164033,0,10000
10,250,0,25,50,75,100,125,150,175,200,225,2,0,1,0.25,0.25,0.25,0.25,0.25,0.25,0.25,0.25,0.25,0.25,-0.5,-0.5,-0.5,-0.5,-0.5,-0.5,-0.5,-0.5,-0.5,-0.5,-0.5,linear,100,0.025,0,0.5,TRUE,2,sepmodel,0.7864,-0.0010525611623093778,0.00808440725312918,0,10000
10,250,0,25,50,75,100,125,150,175,200,225,2,0,1,0.25,0.25,0.25,0.25,0.25,0.25,0.25,0.25,0.25,0.25,-0.5,-0.5,-0.5,-0.5,-0.5,-0.5,-0.5,-0.5,-0.5,-0.5,-0.5,linear,100,0.025,0,0.5,TRUE,3,fixmodel,0.7996,-7.889071638863025e-4,0.007948760166038602,0,10000
10,250,0,25,50,75,100,125,150,175,200,225,2,0,1,0.25,0.25,0.25,0.25,0.25,0.25,0.25,0.25,0.25,0.25,-0.5,-0.5,-0.5,-0.5,-0.5,-0.5,-0.5,-0.5,-0.5,-0.5,-0.5,linear,100,0.025,0,0.5,TRUE,3,poolmodel,0.7449,-0.01847153604024168,0.00816540540584845,0,10000
10,250,0,25,50,75,100,125,150,175,200,225,2,0,1,0.25,0.25,0.25,0.25,0.25,0.25,0.25,0.25,0.25,0.25,-0.5,-0.5,-0.5,-0.5,-0.5,-0.5,-0.5,-0.5,-0.5,-0.5,-0.5,linear,100,0.025,0,0.5,TRUE,3,sepmodel,0.7897,-7.510370153831508e-4,0.0081232782094902,0,10000
10,250,0,25,50,75,100,125,150,175,200,225,2,0,1,0.25,0.25,0.25,0.25,0.25,0.25,0.25,0.25,0.25,0.25,-0.5,-0.5,-0.5,-0.5,-0.5,-0.5,-0.5,-0.5,-0.5,-0.5,-0.5,linear,100,0.025,0,0.5,TRUE,4,fixmodel,0.7996,-0.0012190159434125214,0.00784548528456407,0,10000
10,250,0,25,50,75,100,125,150,175,200,225,2,0,1,0.25,0.25,0.25,0.25,0.25,0.25,0.25,0.25,0.25,0.25,-0.5,-0.5,-0.5,-0.5,-0.5,-0.5,-0.5,-0.5,-0.5,-0.5,-0.5,linear,100,0.025,0,0.5,TRUE,4,poolmodel,0.7213,-0.025364673845738043,0.008332235073222078,0,10000
10,250,0,25,50,75,100,125,150,175,200,225,2,0,1,0.25,0.25,0.25,0.25,0.25,0.25,0.25,0.25,0.25,0.25,-0.5,-0.5,-0.5,-0.5,-0.5,-0.5,-0.5,-0.5,-0.5,-0.5,-0.5,linear,100,0.025,0,0.5,TRUE,4,sepmodel,0.7815,-0.001355917126453817,0.008101988631615513,0,10000
10,250,0,25,50,75,100,125,150,175,200,225,2,0,1,0.25,0.25,0.25,0.25,0.25,0.25,0.25,0.25,0.25,0.25,-0.5,-0.5,-0.5,-0.5,-0.5,-0.5,-0.5,-0.5,-0.5,-0.5,-0.5,linear,100,0.025,0,0.5,TRUE,5,fixmodel,0.8078,1.958247605355789e-5,0.007823285601147279,0,10000
10,250,0,25,50,75,100,125,150,175,200,225,2,0,1,0.25,0.25,0.25,0.25,0.25,0.25,0.25,0.25,0.25,0.25,-0.5,-0.5,-0.5,-0.5,-0.5,-0.5,-0.5,-0.5,-0.5,-0.5,-0.5,linear,100,0.025,0,0.5,TRUE,5,poolmodel,0.7068,-0.028846518281660682,0.008499652295200534,0,10000
10,250,0,25,50,75,100,125,150,175,200,225,2,0,1,0.25,0.25,0.25,0.25,0.25,0.25,0.25,0.25,0.25,0.25,-0.5,-0.5,-0.5,-0.5,-0.5,-0.5,-0.5,-0.5,-0.5,-0.5,-0.5,linear,100,0.025,0,0.5,TRUE,5,sepmodel,0.7923,-7.196730970610485e-5,0.008149472802122608,0,10000
10,250,0,25,50,75,100,125,150,175,200,225,2,0,1,0.25,0.25,0.25,0.25,0.25,0.25,0.25,0.25,0.25,0.25,-0.5,-0.5,-0.5,-0.5,-0.5,-0.5,-0.5,-0.5,-0.5,-0.5,-0.5,linear,100,0.025,0,0.5,TRUE,6,fixmodel,0.8111,-0.001057176842273169,0.007749201204919643,0,10000
10,250,0,25,50,75,100,125,150,175,200,225,2,0,1,0.25,0.25,0.25,0.25,0.25,0.25,0.25,0.25,0.25,0.25,-0.5,-0.5,-0.5,-0.5,-0.5,-0.5,-0.5,-0.5,-0.5,-0.5,-0.5,linear,100,0.025,0,0.5,TRUE,6,poolmodel,0.6966,-0.033767757446670946,0.008711843622205295,0,10000
10,250,0,25,50,75,100,125,150,175,200,225,2,0,1,0.25,0.25,0.25,0.25,0.25,0.25,0.25,0.25,0.25,0.25,-0.5,-0.5,-0.5,-0.5,-0.5,-0.5,-0.5,-0.5,-0.5,-0.5,-0.5,linear,100,0.025,0,0.5,TRUE,6,sepmodel,0.7873,-0.0012915245832967207,0.008103553653194933,0,10000
10,250,0,25,50,75,100,125,150,175,200,225,2,0,1,0.25,0.25,0.25,0.25,0.25,0.25,0.25,0.25,0.25,0.25,-0.5,-0.5,-0.5,-0.5,-0.5,-0.5,-0.5,-0.5,-0.5,-0.5,-0.5,linear,100,0.025,0,0.5,TRUE,7,fixmodel,0.8088,-6.730132502330474e-4,0.00784671902712978,0,10000
10,250,0,25,50,75,100,125,150,175,200,225,2,0,1,0.25,0.25,0.25,0.25,0.25,0.25,0.25,0.25,0.25,0.25,-0.5,-0.5,-0.5,-0.5,-0.5,-0.5,-0.5,-0.5,-0.5,-0.5,-0.5,linear,100,0.025,0,0.5,TRUE,7,poolmodel,0.6818,-0.037239166690734474,0.009048600108499923,0,10000
10,250,0,25,50,75,100,125,150,175,200,225,2,0,1,0.25,0.25,0.25,0.25,0.25,0.25,0.25,0.25,0.25,0.25,-0.5,-0.5,-0.5,-0.5,-0.5,-0.5,-0.5,-0.5,-0.5,-0.5,-0.5,linear,100,0.025,0,0.5,TRUE,7,sepmodel,0.7854,-9.352261510955926e-4,0.008224995345870265,0,10000
10,250,0,25,50,75,100,125,150,175,200,225,2,0,1,0.25,0.25,0.25,0.25,0.25,0.25,0.25,0.25,0.25,0.25,-0.5,-0.5,-0.5,-0.5,-0.5,-0.5,-0.5,-0.5,-0.5,-0.5,-0.5,linear,100,0.025,0,0.5,TRUE,8,fixmodel,0.8106,-1.5111716580388008e-4,0.007602151513797796,0,10000
10,250,0,25,50,75,100,125,150,175,200,225,2,0,1,0.25,0.25,0.25,0.25,0.25,0.25,0.25,0.25,0.25,0.25,-0.5,-0.5,-0.5,-0.5,-0.5,-0.5,-0.5,-0.5,-0.5,-0.5,-0.5,linear,100,0.025,0,0.5,TRUE,8,poolmodel,0.6774,-0.03966439002544618,0.008971341925811246,0,10000
10,250,0,25,50,75,100,125,150,175,200,225,2,0,1,0.25,0.25,0.25,0.25,0.25,0.25,0.25,0.25,0.25,0.25,-0.5,-0.5,-0.5,-0.5,-0.5,-0.5,-0.5,-0.5,-0.5,-0.5,-0.5,linear,100,0.025,0,0.5,TRUE,8,sepmodel,0.7868,-4.4023184620134887e-4,0.007972530256741854,0,10000
10,250,0,25,50,75,100,125,150,175,200,225,2,0,1,0.25,0.25,0.25,0.25,0.25,0.25,0.25,0.25,0.25,0.25,-0.5,-0.5,-0.5,-0.5,-0.5,-0.5,-0.5,-0.5,-0.5,-0.5,-0.5,linear,100,0.025,0,0.5,TRUE,9,fixmodel,0.8147,-8.163631274735176e-4,0.007465918544229372,0,10000
10,250,0,25,50,75,100,125,150,175,200,225,2,0,1,0.25,0.25,0.25,0.25,0.25,0.25,0.25,0.25,0.25,0.25,-0.5,-0.5,-0.5,-0.5,-0.5,-0.5,-0.5,-0.5,-0.5,-0.5,-0.5,linear,100,0.025,0,0.5,TRUE,9,poolmodel,0.6615,-0.043224444658107035,0.009169947872519141,0,10000
10,250,0,25,50,75,100,125,150,175,200,225,2,0,1,0.25,0.25,0.25,0.25,0.25,0.25,0.25,0.25,0.25,0.25,-0.5,-0.5,-0.5,-0.5,-0.5,-0.5,-0.5,-0.5,-0.5,-0.5,-0.5,linear,100,0.025,0,0.5,TRUE,9,sepmodel,0.7849,-9.781284809163662e-4,0.00792500572750575,0,10000
10,250,0,25,50,75,100,125,150,175,200,225,2,0,1,0.25,0.25,0.25,0.25,0.25,0.25,0.25,0.25,0.25,0.25,-0.5,-0.5,-0.5,-0.5,-0.5,-0.5,-0.5,-0.5,-0.5,-0.5,-0.5,linear,100,0.025,0,0.5,TRUE,10,fixmodel,0.818,-0.0011064254842968046,0.007544480006302484,0,10000
10,250,0,25,50,75,100,125,150,175,200,225,2,0,1,0.25,0.25,0.25,0.25,0.25,0.25,0.25,0.25,0.25,0.25,-0.5,-0.5,-0.5,-0.5,-0.5,-0.5,-0.5,-0.5,-0.5,-0.5,-0.5,linear,100,0.025,0,0.5,TRUE,10,poolmodel,0.6543,-0.04543257770938089,0.009398213445702143,0,10000
10,250,0,25,50,75,100,125,150,175,200,225,2,0,1,0.25,0.25,0.25,0.25,0.25,0.25,0.25,0.25,0.25,0.25,-0.5,-0.5,-0.5,-0.5,-0.5,-0.5,-0.5,-0.5,-0.5,-0.5,-0.5,linear,100,0.025,0,0.5,TRUE,10,sepmodel,0.7903,-0.0012808577233597125,0.00802528601672967,0,10000
10,250,0,50,100,150,200,250,300,350,400,450,2,0,1,0.25,0.25,0.25,0.25,0.25,0.25,0.25,0.25,0.25,0.25,-0.5,-0.5,-0.5,-0.5,-0.5,-0.5,-0.5,-0.5,-0.5,-0.5,-0.5,linear,100,0.025,0,0.5,TRUE,2,fixmodel,0.8072,-3.307582323382507e-4,0.007816138383497106,0,10000
10,250,0,50,100,150,200,250,300,350,400,450,2,0,1,0.25,0.25,0.25,0.25,0.25,0.25,0.25,0.25,0.25,0.25,-0.5,-0.5,-0.5,-0.5,-0.5,-0.5,-0.5,-0.5,-0.5,-0.5,-0.5,linear,100,0.025,0,0.5,TRUE,2,poolmodel,0.757,-0.016901966198389032,0.007889815183821165,0,10000
10,250,0,50,100,150,200,250,300,350,400,450,2,0,1,0.25,0.25,0.25,0.25,0.25,0.25,0.25,0.25,0.25,0.25,-0.5,-0.5,-0.5,-0.5,-0.5,-0.5,-0.5,-0.5,-0.5,-0.5,-0.5,linear,100,0.025,0,0.5,TRUE,2,sepmodel,0.7962,-2.1198582742297246e-4,0.007937773472580992,0,10000
10,250,0,50,100,150,200,250,300,350,400,450,2,0,1,0.25,0.25,0.25,0.25,0.25,0.25,0.25,0.25,0.25,0.25,-0.5,-0.5,-0.5,-0.5,-0.5,-0.5,-0.5,-0.5,-0.5,-0.5,-0.5,linear,100,0.025,0,0.5,TRUE,3,fixmodel,0.8147,8.507517816275216e-4,0.00764578355626958,0,10000
10,250,0,50,100,150,200,250,300,350,400,450,2,0,1,0.25,0.25,0.25,0.25,0.25,0.25,0.25,0.25,0.25,0.25,-0.5,-0.5,-0.5,-0.5,-0.5,-0.5,-0.5,-0.5,-0.5,-0.5,-0.5,linear,100,0.025,0,0.5,TRUE,3,poolmodel,0.7199,-0.029111359745123046,0.00824589309403658,0,10000
10,250,0,50,100,150,200,250,300,350,400,450,2,0,1,0.25,0.25,0.25,0.25,0.25,0.25,0.25,0.25,0.25,0.25,-0.5,-0.5,-0.5,-0.5,-0.5,-0.5,-0.5,-0.5,-0.5,-0.5,-0.5,linear,100,0.025,0,0.5,TRUE,3,sepmodel,0.7962,9.177617567140441e-4,0.007960872272870425,0,10000
10,250,0,50,100,150,200,250,300,350,400,450,2,0,1,0.25,0.25,0.25,0.25,0.25,0.25,0.25,0.25,0.25,0.25,-0.5,-0.5,-0.5,-0.5,-0.5,-0.5,-0.5,-0.5,-0.5,-0.5,-0.5,linear,100,0.025,0,0.5,TRUE,4,fixmodel,0.8183,6.857733387266363e-4,0.007597514565760634,0,10000
10,250,0,50,100,150,200,250,300,350,400,450,2,0,1,0.25,0.25,0.25,0.25,0.25,0.25,0.25,0.25,0.25,0.25,-0.5,-0.5,-0.5,-0.5,-0.5,-0.5,-0.5,-0.5,-0.5,-0.5,-0.5,linear,100,0.025,0,0.5,TRUE,4,poolmodel,0.68,-0.04035867170862306,0.008893778621662476,0,10000
10,250,0,50,100,150,200,250,300,350,400,450,2,0,1,0.25,0.25,0.25,0.25,0.25,0.25,0.25,0.25,0.25,0.25,-0.5,-0.5,-0.5,-0.5,-0.5,-0.5,-0.5,-0.5,-0.5,-0.5,-0.5,linear,100,0.025,0,0.5,TRUE,4,sepmodel,0.7911,6.089089327063522e-4,0.00803327976009528,0,10000
10,250,0,50,100,150,200,250,300,350,400,450,2,0,1,0.25,0.25,0.25,0.25,0.25,0.25,0.25,0.25,0.25,0.25,-0.5,-0.5,-0.5,-0.5,-0.5,-0.5,-0.5,-0.5,-0.5,-0.5,-0.5,linear,100,0.025,0,0.5,TRUE,5,fixmodel,0.8201,-7.279896757604569e-4,0.007564107116506914,0,10000
10,250,0,50,100,150,200,250,300,350,400,450,2,0,1,0.25,0.25,0.25,0.25,0.25,0.25,0.25,0.25,0.25,0.25,-0.5,-0.5,-0.5,-0.5,-0.5,-0.5,-0.5,-0.5,-0.5,-0.5,-0.5,linear,100,0.025,0,0.5,TRUE,5,poolmodel,0.6457,-0.05072693835194804,0.009838361975450956,0,10000
10,250,0,50,100,150,200,250,300,350,400,450,2,0,1,0.25,0.25,0.25,0.25,0.25,0.25,0.25,0.25,0.25,0.25,-0.5,-0.5,-0.5,-0.5,-0.5,-0.5,-0.5,-0.5,-0.5,-0.5,-0.5,linear,100,0.025,0,0.5,TRUE,5,sepmodel,0.7844,-7.348489797913843e-4,0.008074246757872014,0,10000
10,250,0,50,100,150,200,250,300,350,400,450,2,0,1,0.25,0.25,0.25,0.25,0.25,0.25,0.25,0.25,0.25,0.25,-0.5,-0.5,-0.5,-0.5,-0.5,-0.5,-0.5,-0.5,-0.5,-0.5,-0.5,linear,100,0.025,0,0.5,TRUE,6,fixmodel,0.8337,0.00147383656517776,0.00736055706129971,0,10000
10,250,0,50,100,150,200,250,300,350,400,450,2,0,1,0.25,0.25,0.25,0.25,0.25,0.25,0.25,0.25,0.25,0.25,-0.5,-0.5,-0.5,-0.5,-0.5,-0.5,-0.5,-0.5,-0.5,-0.5,-0.5,linear,100,0.025,0,0.5,TRUE,6,poolmodel,0.6237,-0.05587748160902745,0.010202909353140945,0,10000
10,250,0,50,100,150,200,250,300,350,400,450,2,0,1,0.25,0.25,0.25,0.25,0.25,0.25,0.25,0.25,0.25,0.25,-0.5,-0.5,-0.5,-0.5,-0.5,-0.5,-0.5,-0.5,-0.5,-0.5,-0.5,linear,100,0.025,0,0.5,TRUE,6,sepmodel,0.8026,0.0017179822292880552,0.007977066181530055,0,10000
10,250,0,50,100,150,200,250,300,350,400,450,2,0,1,0.25,0.25,0.25,0.25,0.25,0.25,0.25,0.25,0.25,0.25,-0.5,-0.5,-0.5,-0.5,-0.5,-0.5,-0.5,-0.5,-0.5,-0.5,-0.5,linear,100,0.025,0,0.5,TRUE,7,fixmodel,0.8285,6.827240123547504e-4,0.007432242439583332,0,10000
10,250,0,50,100,150,200,250,300,350,400,450,2,0,1,0.25,0.25,0.25,0.25,0.25,0.25,0.25,0.25,0.25,0.25,-0.5,-0.5,-0.5,-0.5,-0.5,-0.5,-0.5,-0.5,-0.5,-0.5,-0.5,linear,100,0.025,0,0.5,TRUE,7,poolmodel,0.5994,-0.06322917020411778,0.011115282666601783,0,10000
10,250,0,50,100,150,200,250,300,350,400,450,2,0,1,0.25,0.25,0.25,0.25,0.25,0.25,0.25,0.25,0.25,0.25,-0.5,-0.5,-0.5,-0.5,-0.5,-0.5,-0.5,-0.5,-0.5,-0.5,-0.5,linear,100,0.025,0,0.5,TRUE,7,sepmodel,0.7926,9.65606303680745e-4,0.008123393869571295,0,10000
10,250,0,50,100,150,200,250,300,350,400,450,2,0,1,0.25,0.25,0.25,0.25,0.25,0.25,0.25,0.25,0.25,0.25,-0.5,-0.5,-0.5,-0.5,-0.5,-0.5,-0.5,-0.5,-0.5,-0.5,-0.5,linear,100,0.025,0,0.5,TRUE,8,fixmodel,0.8267,3.785052459847932e-4,0.007478530290474682,0,10000
10,250,0,50,100,150,200,250,300,350,400,450,2,0,1,0.25,0.25,0.25,0.25,0.25,0.25,0.25,0.25,0.25,0.25,-0.5,-0.5,-0.5,-0.5,-0.5,-0.5,-0.5,-0.5,-0.5,-0.5,-0.5,linear,100,0.025,0,0.5,TRUE,8,poolmodel,0.5644,-0.07003614545568797,0.012087680211424097,0,10000
10,250,0,50,100,150,200,250,300,350,400,450,2,0,1,0.25,0.25,0.25,0.25,0.25,0.25,0.25,0.25,0.25,0.25,-0.5,-0.5,-0.5,-0.5,-0.5,-0.5,-0.5,-0.5,-0.5,-0.5,-0.5,linear,100,0.025,0,0.5,TRUE,8,sepmodel,0.7915,6.42059176510457e-4,0.008212648301505076,0,10000
10,250,0,50,100,150,200,250,300,350,400,450,2,0,1,0.25,0.25,0.25,0.25,0.25,0.25,0.25,0.25,0.25,0.25,-0.5,-0.5,-0.5,-0.5,-0.5,-0.5,-0.5,-0.5,-0.5,-0.5,-0.5,linear,100,0.025,0,0.5,TRUE,9,fixmodel,0.8323,6.976140224925261e-4,0.0073640799854521495,0,10000
10,250,0,50,100,150,200,250,300,350,400,450,2,0,1,0.25,0.25,0.25,0.25,0.25,0.25,0.25,0.25,0.25,0.25,-0.5,-0.5,-0.5,-0.5,-0.5,-0.5,-0.5,-0.5,-0.5,-0.5,-0.5,linear,100,0.025,0,0.5,TRUE,9,poolmodel,0.5493,-0.07435855167451329,0.012517703321502713,0,10000
10,250,0,50,100,150,200,250,300,350,400,450,2,0,1,0.25,0.25,0.25,0.25,0.25,0.25,0.25,0.25,0.25,0.25,-0.5,-0.5,-0.5,-0.5,-0.5,-0.5,-0.5,-0.5,-0.5,-0.5,-0.5,linear,100,0.025,0,0.5,TRUE,9,sepmodel,0.7931,0.0011069400467338768,0.008072148903007743,0,10000
10,250,0,50,100,150,200,250,300,350,400,450,2,0,1,0.25,0.25,0.25,0.25,0.25,0.25,0.25,0.25,0.25,0.25,-0.5,-0.5,-0.5,-0.5,-0.5,-0.5,-0.5,-0.5,-0.5,-0.5,-0.5,linear,100,0.025,0,0.5,TRUE,10,fixmodel,0.8394,0.0011032382608709196,0.007250686430040279,0,10000
10,250,0,50,100,150,200,250,300,350,400,450,2,0,1,0.25,0.25,0.25,0.25,0.25,0.25,0.25,0.25,0.25,0.25,-0.5,-0.5,-0.5,-0.5,-0.5,-0.5,-0.5,-0.5,-0.5,-0.5,-0.5,linear,100,0.025,0,0.5,TRUE,10,poolmodel,0.5249,-0.07856299589585311,0.01309482558984356,0,10000
10,250,0,50,100,150,200,250,300,350,400,450,2,0,1,0.25,0.25,0.25,0.25,0.25,0.25,0.25,0.25,0.25,0.25,-0.5,-0.5,-0.5,-0.5,-0.5,-0.5,-0.5,-0.5,-0.5,-0.5,-0.5,linear,100,0.025,0,0.5,TRUE,10,sepmodel,0.7981,0.0014910494868450607,0.008057624302119247,0,10000
10,250,0,75,150,225,300,375,450,525,600,675,2,0,1,0.25,0.25,0.25,0.25,0.25,0.25,0.25,0.25,0.25,0.25,-0.5,-0.5,-0.5,-0.5,-0.5,-0.5,-0.5,-0.5,-0.5,-0.5,-0.5,linear,100,0.025,0,0.5,TRUE,2,fixmodel,0.8013,-0.0013395662999069215,0.007803460388338113,0,10000
10,250,0,75,150,225,300,375,450,525,600,675,2,0,1,0.25,0.25,0.25,0.25,0.25,0.25,0.25,0.25,0.25,0.25,-0.5,-0.5,-0.5,-0.5,-0.5,-0.5,-0.5,-0.5,-0.5,-0.5,-0.5,linear,100,0.025,0,0.5,TRUE,2,poolmodel,0.7434,-0.022328891077603438,0.008049403768053097,0,10000
10,250,0,75,150,225,300,375,450,525,600,675,2,0,1,0.25,0.25,0.25,0.25,0.25,0.25,0.25,0.25,0.25,0.25,-0.5,-0.5,-0.5,-0.5,-0.5,-0.5,-0.5,-0.5,-0.5,-0.5,-0.5,linear,100,0.025,0,0.5,TRUE,2,sepmodel,0.7852,-0.0012633039826943544,0.008076503774101301,0,10000
10,250,0,75,150,225,300,375,450,525,600,675,2,0,1,0.25,0.25,0.25,0.25,0.25,0.25,0.25,0.25,0.25,0.25,-0.5,-0.5,-0.5,-0.5,-0.5,-0.5,-0.5,-0.5,-0.5,-0.5,-0.5,linear,100,0.025,0,0.5,TRUE,3,fixmodel,0.8142,-6.25496877108043e-4,0.007527888709446587,0,10000
10,250,0,75,150,225,300,375,450,525,600,675,2,0,1,0.25,0.25,0.25,0.25,0.25,0.25,0.25,0.25,0.25,0.25,-0.5,-0.5,-0.5,-0.5,-0.5,-0.5,-0.5,-0.5,-0.5,-0.5,-0.5,linear,100,0.025,0,0.5,TRUE,3,poolmodel,0.6915,-0.03938982230445113,0.008707839642906714,0,10000
10,250,0,75,150,225,300,375,450,525,600,675,2,0,1,0.25,0.25,0.25,0.25,0.25,0.25,0.25,0.25,0.25,0.25,-0.5,-0.5,-0.5,-0.5,-0.5,-0.5,-0.5,-0.5,-0.5,-0.5,-0.5,linear,100,0.025,0,0.5,TRUE,3,sepmodel,0.7864,-5.145200351940696e-4,0.008000498982499032,0,10000
10,250,0,75,150,225,300,375,450,525,600,675,2,0,1,0.25,0.25,0.25,0.25,0.25,0.25,0.25,0.25,0.25,0.25,-0.5,-0.5,-0.5,-0.5,-0.5,-0.5,-0.5,-0.5,-0.5,-0.5,-0.5,linear,100,0.025,0,0.5,TRUE,4,fixmodel,0.825,-0.0018371696999710354,0.007214778165641052,0,10000
10,250,0,75,150,225,300,375,450,525,600,675,2,0,1,0.25,0.25,0.25,0.25,0.25,0.25,0.25,0.25,0.25,0.25,-0.5,-0.5,-0.5,-0.5,-0.5,-0.5,-0.5,-0.5,-0.5,-0.5,-0.5,linear,100,0.025,0,0.5,TRUE,4,poolmodel,0.6323,-0.0557138959116884,0.009967042237806768,0,10000
10,250,0,75,150,225,300,375,450,525,600,675,2,0,1,0.25,0.25,0.25,0.25,0.25,0.25,0.25,0.25,0.25,0.25,-0.5,-0.5,-0.5,-0.5,-0.5,-0.5,-0.5,-0.5,-0.5,-0.5,-0.5,linear,100,0.025,0,0.5,TRUE,4,sepmodel,0.7848,-0.0018938425865693436,0.00786393444956494,0,10000
10,250,0,75,150,225,300,375,450,525,600,675,2,0,1,0.25,0.25,0.25,0.25,0.25,0.25,0.25,0.25,0.25,0.25,-0.5,-0.5,-0.5,-0.5,-0.5,-0.5,-0.5,-0.5,-0.5,-0.5,-0.5,linear,100,0.025,0,0.5,TRUE,5,fixmodel,0.8299,-0.002047065695415457,0.007132908750972692,0,10000
10,250,0,75,150,225,300,375,450,525,600,675,2,0,1,0.25,0.25,0.25,0.25,0.25,0.25,0.25,0.25,0.25,0.25,-0.5,-0.5,-0.5,-0.5,-0.5,-0.5,-0.5,-0.5,-0.5,-0.5,-0.5,linear,100,0.025,0,0.5,TRUE,5,poolmodel,0.579,-0.06856821233686564,0.011442178579451913,0,10000
10,250,0,75,150,225,300,375,450,525,600,675,2,0,1,0.25,0.25,0.25,0.25,0.25,0.25,0.25,0.25,0.25,0.25,-0.5,-0.5,-0.5,-0.5,-0.5,-0.5,-0.5,-0.5,-0.5,-0.5,-0.5,linear,100,0.025,0,0.5,TRUE,5,sepmodel,0.7879,-0.0020474952412604212,0.007883737867278593,0,10000
10,250,0,75,150,225,300,375,450,525,600,675,2,0,1,0.25,0.25,0.25,0.25,0.25,0.25,0.25,0.25,0.25,0.25,-0.5,-0.5,-0.5,-0.5,-0.5,-0.5,-0.5,-0.5,-0.5,-0.5,-0.5,linear,100,0.025,0,0.5,TRUE,6,fixmodel,0.8359,-0.0010055897621346363,0.00729693279918412,0,10000
10,250,0,75,150,225,300,375,450,525,600,675,2,0,1,0.25,0.25,0.25,0.25,0.25,0.25,0.25,0.25,0.25,0.25,-0.5,-0.5,-0.5,-0.5,-0.5,-0.5,-0.5,-0.5,-0.5,-0.5,-0.5,linear,100,0.025,0,0.5,TRUE,6,poolmodel,0.5371,-0.07896299662279163,0.013118730723622107,0,10000
10,250,0,75,150,225,300,375,450,525,600,675,2,0,1,0.25,0.25,0.25,0.25,0.25,0.25,0.25,0.25,0.25,0.25,-0.5,-0.5,-0.5,-0.5,-0.5,-0.5,-0.5,-0.5,-0.5,-0.5,-0.5,linear,100,0.025,0,0.5,TRUE,6,sepmodel,0.7872,-7.720244755541246e-4,0.008142675684356698,0,10000
10,250,0,75,150,225,300,375,450,525,600,675,2,0,1,0.25,0.25,0.25,0.25,0.25,0.25,0.25,0.25,0.25,0.25,-0.5,-0.5,-0.5,-0.5,-0.5,-0.5,-0.5,-0.5,-0.5,-0.5,-0.5,linear,100,0.025,0,0.5,TRUE,7,fixmodel,0.8423,8.269409227886568e-6,0.007043377519853777,0,10000
10,250,0,75,150,225,300,375,450,525,600,675,2,0,1,0.25,0.25,0.25,0.25,0.25,0.25,0.25,0.25,0.25,0.25,-0.5,-0.5,-0.5,-0.5,-0.5,-0.5,-0.5,-0.5,-0.5,-0.5,-0.5,linear,100,0.025,0,0.5,TRUE,7,poolmodel,0.501,-0.08691407681572469,0.014202559455548486,0,10000
10,250,0,75,150,225,300,375,450,525,600,675,2,0,1,0.25,0.25,0.25,0.25,0.25,0.25,0.25,0.25,0.25,0.25,-0.5,-0.5,-0.5,-0.5,-0.5,-0.5,-0.5,-0.5,-0.5,-0.5,-0.5,linear,100,0.025,0,0.5,TRUE,7,sepmodel,0.7902,3.280595657346798e-4,0.008013377003928759,0,10000
10,250,0,75,150,225,300,375,450,525,600,675,2,0,1,0.25,0.25,0.25,0.25,0.25,0.25,0.25,0.25,0.25,0.25,-0.5,-0.5,-0.5,-0.5,-0.5,-0.5,-0.5,-0.5,-0.5,-0.5,-0.5,linear,100,0.025,0,0.5,TRUE,8,fixmodel,0.8454,-5.489162487027656e-4,0.007019502186800636,0,10000
10,250,0,75,150,225,300,375,450,525,600,675,2,0,1,0.25,0.25,0.25,0.25,0.25,0.25,0.25,0.25,0.25,0.25,-0.5,-0.5,-0.5,-0.5,-0.5,-0.5,-0.5,-0.5,-0.5,-0.5,-0.5,linear,100,0.025,0,0.5,TRUE,8,poolmodel,0.4591,-0.09634789472038519,0.015889949850937588,0,10000
10,250,0,75,150,225,300,375,450,525,600,675,2,0,1,0.25,0.25,0.25,0.25,0.25,0.25,0.25,0.25,0.25,0.25,-0.5,-0.5,-0.5,-0.5,-0.5,-0.5,-0.5,-0.5,-0.5,-0.5,-0.5,linear,100,0.025,0,0.5,TRUE,8,sepmodel,0.7915,-1.8947573478134662e-4,0.007974975477054357,0,10000
10,250,0,75,150,225,300,375,450,525,600,675,2,0,1,0.25,0.25,0.25,0.25,0.25,0.25,0.25,0.25,0.25,0.25,-0.5,-0.5,-0.5,-0.5,-0.5,-0.5,-0.5,-0.5,-0.5,-0.5,-0.5,linear,100,0.025,0,0.5,TRUE,9,fixmodel,0.8437,-4.1350708399087895e-4,0.007068718270341282,0,10000
10,250,0,75,150,225,300,375,450,525,600,675,2,0,1,0.25,0.25,0.25,0.25,0.25,0.25,0.25,0.25,0.25,0.25,-0.5,-0.5,-0.5,-0.5,-0.5,-0.5,-0.5,-0.5,-0.5,-0.5,-0.5,linear,100,0.025,0,0.5,TRUE,9,poolmodel,0.4366,-0.10326137471663444,0.01733727757528035,0,10000
10,250,0,75,150,225,300,375,450,525,600,675,2,0,1,0.25,0.25,0.25,0.25,0.25,0.25,0.25,0.25,0.25,0.25,-0.5,-0.5,-0.5,-0.5,-0.5,-0.5,-0.5,-0.5,-0.5,-0.5,-0.5,linear,100,0.025,0,0.5,TRUE,9,sepmodel,0.7882,-4.693739400621179e-5,0.008098049642762195,0,10000
10,250,0,75,150,225,300,375,450,525,600,675,2,0,1,0.25,0.25,0.25,0.25,0.25,0.25,0.25,0.25,0.25,0.25,-0.5,-0.5,-0.5,-0.5,-0.5,-0.5,-0.5,-0.5,-0.5,-0.5,-0.5,linear,100,0.025,0,0.5,TRUE,10,fixmodel,0.8472,-0.0015930053939968828,0.007002883850630435,0,10000
10,250,0,75,150,225,300,375,450,525,600,675,2,0,1,0.25,0.25,0.25,0.25,0.25,0.25,0.25,0.25,0.25,0.25,-0.5,-0.5,-0.5,-0.5,-0.5,-0.5,-0.5,-0.5,-0.5,-0.5,-0.5,linear,100,0.025,0,0.5,TRUE,10,poolmodel,0.3901,-0.11138822632113639,0.01900059337693968,0,10000
10,250,0,75,150,225,300,375,450,525,600,675,2,0,1,0.25,0.25,0.25,0.25,0.25,0.25,0.25,0.25,0.25,0.25,-0.5,-0.5,-0.5,-0.5,-0.5,-0.5,-0.5,-0.5,-0.5,-0.5,-0.5,linear,100,0.025,0,0.5,TRUE,10,sepmodel,0.7906,-0.001309250596014803,0.008028366557866333,0,10000
10,250,0,100,200,300,400,500,600,700,800,900,2,0,1,0.25,0.25,0.25,0.25,0.25,0.25,0.25,0.25,0.25,0.25,-0.5,-0.5,-0.5,-0.5,-0.5,-0.5,-0.5,-0.5,-0.5,-0.5,-0.5,linear,100,0.025,0,0.5,TRUE,2,fixmodel,0.8146,-3.65209861512004e-5,0.007695581845057022,0,10000
10,250,0,100,200,300,400,500,600,700,800,900,2,0,1,0.25,0.25,0.25,0.25,0.25,0.25,0.25,0.25,0.25,0.25,-0.5,-0.5,-0.5,-0.5,-0.5,-0.5,-0.5,-0.5,-0.5,-0.5,-0.5,linear,100,0.025,0,0.5,TRUE,2,poolmodel,0.7523,-0.02338847752901395,0.007898626102464794,0,10000
10,250,0,100,200,300,400,500,600,700,800,900,2,0,1,0.25,0.25,0.25,0.25,0.25,0.25,0.25,0.25,0.25,0.25,-0.5,-0.5,-0.5,-0.5,-0.5,-0.5,-0.5,-0.5,-0.5,-0.5,-0.5,linear,100,0.025,0,0.5,TRUE,2,sepmodel,0.7972,3.5239983729351825e-4,0.008033072610917657,0,10000
10,250,0,100,200,300,400,500,600,700,800,900,2,0,1,0.25,0.25,0.25,0.25,0.25,0.25,0.25,0.25,0.25,0.25,-0.5,-0.5,-0.5,-0.5,-0.5,-0.5,-0.5,-0.5,-0.5,-0.5,-0.5,linear,100,0.025,0,0.5,TRUE,3,fixmodel,0.8303,0.0010712187329401507,0.0074106165255886985,0,10000
10,250,0,100,200,300,400,500,600,700,800,900,2,0,1,0.25,0.25,0.25,0.25,0.25,0.25,0.25,0.25,0.25,0.25,-0.5,-0.5,-0.5,-0.5,-0.5,-0.5,-0.5,-0.5,-0.5,-0.5,-0.5,linear,100,0.025,0,0.5,TRUE,3,poolmodel,0.6903,-0.044066264984665406,0.008881681024499004,0,10000
10,250,0,100,200,300,400,500,600,700,800,900,2,0,1,0.25,0.25,0.25,0.25,0.25,0.25,0.25,0.25,0.25,0.25,-0.5,-0.5,-0.5,-0.5,-0.5,-0.5,-0.5,-0.5,-0.5,-0.5,-0.5,linear,100,0.025,0,0.5,TRUE,3,sepmodel,0.8026,0.0014739849405957604,0.007972982472848692,0,10000
10,250,0,100,200,300,400,500,600,700,800,900,2,0,1,0.25,0.25,0.25,0.25,0.25,0.25,0.25,0.25,0.25,0.25,-0.5,-0.5,-0.5,-0.5,-0.5,-0.5,-0.5,-0.5,-0.5,-0.5,-0.5,linear,100,0.025,0,0.5,TRUE,4,fixmodel,0.8363,4.80184299779885e-4,0.007233501767290551,0,10000
10,250,0,100,200,300,400,500,600,700,800,900,2,0,1,0.25,0.25,0.25,0.25,0.25,0.25,0.25,0.25,0.25,0.25,-0.5,-0.5,-0.5,-0.5,-0.5,-0.5,-0.5,-0.5,-0.5,-0.5,-0.5,linear,100,0.025,0,0.5,TRUE,4,poolmodel,0.6132,-0.06332522882917443,0.010774010464386367,0,10000
10,250,0,100,200,300,400,500,600,700,800,900,2,0,1,0.25,0.25,0.25,0.25,0.25,0.25,0.25,0.25,0.25,0.25,-0.5,-0.5,-0.5,-0.5,-0.5,-0.5,-0.5,-0.5,-0.5,-0.5,-0.5,linear,100,0.025,0,0.5,TRUE,4,sepmodel,0.8001,7.365778694431046e-4,0.00793373437993035,0,10000
10,250,0,100,200,300,400,500,600,700,800,900,2,0,1,0.25,0.25,0.25,0.25,0.25,0.25,0.25,0.25,0.25,0.25,-0.5,-0.5,-0.5,-0.5,-0.5,-0.5,-0.5,-0.5,-0.5,-0.5,-0.5,linear,100,0.025,0,0.5,TRUE,5,fixmodel,0.85,0.001172719538167477,0.0069538313873747344,0,10000
10,250,0,100,200,300,400,500,600,700,800,900,2,0,1,0.25,0.25,0.25,0.25,0.25,0.25,0.25,0.25,0.25,0.25,-0.5,-0.5,-0.5,-0.5,-0.5,-0.5,-0.5,-0.5,-0.5,-0.5,-0.5,linear,100,0.025,0,0.5,TRUE,5,poolmodel,0.545,-0.07871685477765149,0.012690136798323275,0,10000
10,250,0,100,200,300,400,500,600,700,800,900,2,0,1,0.25,0.25,0.25,0.25,0.25,0.25,0.25,0.25,0.25,0.25,-0.5,-0.5,-0.5,-0.5,-0.5,-0.5,-0.5,-0.5,-0.5,-0.5,-0.5,linear,100,0.025,0,0.5,TRUE,5,sepmodel,0.802,0.0012020192302919115,0.007721365429607945,0,10000
10,250,0,100,200,300,400,500,600,700,800,900,2,0,1,0.25,0.25,0.25,0.25,0.25,0.25,0.25,0.25,0.25,0.25,-0.5,-0.5,-0.5,-0.5,-0.5,-0.5,-0.5,-0.5,-0.5,-0.5,-0.5,linear,100,0.025,0,0.5,TRUE,6,fixmodel,0.8488,5.103085319910167e-4,0.007036532439839311,0,10000
10,250,0,100,200,300,400,500,600,700,800,900,2,0,1,0.25,0.25,0.25,0.25,0.25,0.25,0.25,0.25,0.25,0.25,-0.5,-0.5,-0.5,-0.5,-0.5,-0.5,-0.5,-0.5,-0.5,-0.5,-0.5,linear,100,0.025,0,0.5,TRUE,6,poolmodel,0.4782,-0.09344304075895794,0.015249151986606252,0,10000
10,250,0,100,200,300,400,500,600,700,800,900,2,0,1,0.25,0.25,0.25,0.25,0.25,0.25,0.25,0.25,0.25,0.25,-0.5,-0.5,-0.5,-0.5,-0.5,-0.5,-0.5,-0.5,-0.5,-0.5,-0.5,linear,100,0.025,0,0.5,TRUE,6,sepmodel,0.7968,6.810032051782934e-4,0.007901584453719015,0,10000
10,250,0,100,200,300,400,500,600,700,800,900,2,0,1,0.25,0.25,0.25,0.25,0.25,0.25,0.25,0.25,0.25,0.25,-0.5,-0.5,-0.5,-0.5,-0.5,-0.5,-0.5,-0.5,-0.5,-0.5,-0.5,linear,100,0.025,0,0.5,TRUE,7,fixmodel,0.8494,2.0020686930425148e-5,0.006940034253204849,0,10000
10,250,0,100,200,300,400,500,600,700,800,900,2,0,1,0.25,0.25,0.25,0.25,0.25,0.25,0.25,0.25,0.25,0.25,-0.5,-0.5,-0.5,-0.5,-0.5,-0.5,-0.5,-0.5,-0.5,-0.5,-0.5,linear,100,0.025,0,0.5,TRUE,7,poolmodel,0.4276,-0.10571512942112295,0.017587697780006465,0,10000
10,250,0,100,200,300,400,500,600,700,800,900,2,0,1,0.25,0.25,0.25,0.25,0.25,0.25,0.25,0.25,0.25,0.25,-0.5,-0.5,-0.5,-0.5,-0.5,-0.5,-0.5,-0.5,-0.5,-0.5,-0.5,linear,100,0.025,0,0.5,TRUE,7,sepmodel,0.7939,4.002167285720143e-4,0.00794703055867291,0,10000
10,250,0,100,200,300,400,500,600,700,800,900,2,0,1,0.25,0.25,0.25,0.25,0.25,0.25,0.25,0.25,0.25,0.25,-0.5,-0.5,-0.5,-0.5,-0.5,-0.5,-0.5,-0.5,-0.5,-0.5,-0.5,linear,100,0.025,0,0.5,TRUE,8,fixmodel,0.8467,6.218726780160376e-4,0.007022350790069244,0,10000
10,250,0,100,200,300,400,500,600,700,800,900,2,0,1,0.25,0.25,0.25,0.25,0.25,0.25,0.25,0.25,0.25,0.25,-0.5,-0.5,-0.5,-0.5,-0.5,-0.5,-0.5,-0.5,-0.5,-0.5,-0.5,linear,100,0.025,0,0.5,TRUE,8,poolmodel,0.3874,-0.11584062743327206,0.019876516112479346,0,10000
10,250,0,100,200,300,400,500,600,700,800,900,2,0,1,0.25,0.25,0.25,0.25,0.25,0.25,0.25,0.25,0.25,0.25,-0.5,-0.5,-0.5,-0.5,-0.5,-0.5,-0.5,-0.5,-0.5,-0.5,-0.5,linear,100,0.025,0,0.5,TRUE,8,sepmodel,0.793,0.0011281307741669178,0.008045701876684202,0,10000
10,250,0,100,200,300,400,500,600,700,800,900,2,0,1,0.25,0.25,0.25,0.25,0.25,0.25,0.25,0.25,0.25,0.25,-0.5,-0.5,-0.5,-0.5,-0.5,-0.5,-0.5,-0.5,-0.5,-0.5,-0.5,linear,100,0.025,0,0.5,TRUE,9,fixmodel,0.8598,0.0016647973721591201,0.0069561319954459366,0,10000
10,250,0,100,200,300,400,500,600,700,800,900,2,0,1,0.25,0.25,0.25,0.25,0.25,0.25,0.25,0.25,0.25,0.25,-0.5,-0.5,-0.5,-0.5,-0.5,-0.5,-0.5,-0.5,-0.5,-0.5,-0.5,linear,100,0.025,0,0.5,TRUE,9,poolmodel,0.3504,-0.12370353380251144,0.021743301528407654,0,10000
10,250,0,100,200,300,400,500,600,700,800,900,2,0,1,0.25,0.25,0.25,0.25,0.25,0.25,0.25,0.25,0.25,0.25,-0.5,-0.5,-0.5,-0.5,-0.5,-0.5,-0.5,-0.5,-0.5,-0.5,-0.5,linear,100,0.025,0,0.5,TRUE,9,sepmodel,0.8014,0.0021507493600535802,0.008037872409452704,0,10000
10,250,0,100,200,300,400,500,600,700,800,900,2,0,1,0.25,0.25,0.25,0.25,0.25,0.25,0.25,0.25,0.25,0.25,-0.5,-0.5,-0.5,-0.5,-0.5,-0.5,-0.5,-0.5,-0.5,-0.5,-0.5,linear,100,0.025,0,0.5,TRUE,10,fixmodel,0.8591,7.211555814236881e-4,0.006781227937789007,0,10000
10,250,0,100,200,300,400,500,600,700,800,900,2,0,1,0.25,0.25,0.25,0.25,0.25,0.25,0.25,0.25,0.25,0.25,-0.5,-0.5,-0.5,-0.5,-0.5,-0.5,-0.5,-0.5,-0.5,-0.5,-0.5,linear,100,0.025,0,0.5,TRUE,10,poolmodel,0.3118,-0.13244712750480084,0.023784188604519717,0,10000
10,250,0,100,200,300,400,500,600,700,800,900,2,0,1,0.25,0.25,0.25,0.25,0.25,0.25,0.25,0.25,0.25,0.25,-0.5,-0.5,-0.5,-0.5,-0.5,-0.5,-0.5,-0.5,-0.5,-0.5,-0.5,linear,100,0.025,0,0.5,TRUE,10,sepmodel,0.7993,0.001356402269748585,0.007804494586009055,0,10000
10,250,0,125,250,375,500,625,750,875,1000,1125,2,0,1,0.25,0.25,0.25,0.25,0.25,0.25,0.25,0.25,0.25,0.25,-0.5,-0.5,-0.5,-0.5,-0.5,-0.5,-0.5,-0.5,-0.5,-0.5,-0.5,linear,100,0.025,0,0.5,TRUE,2,fixmodel,0.811,-0.0010422443831136488,0.007615947900957548,0,10000
10,250,0,125,250,375,500,625,750,875,1000,1125,2,0,1,0.25,0.25,0.25,0.25,0.25,0.25,0.25,0.25,0.25,0.25,-0.5,-0.5,-0.5,-0.5,-0.5,-0.5,-0.5,-0.5,-0.5,-0.5,-0.5,linear,100,0.025,0,0.5,TRUE,2,poolmodel,0.7488,-0.02578576479999209,0.007855334815474653,0,10000
10,250,0,125,250,375,500,625,750,875,1000,1125,2,0,1,0.25,0.25,0.25,0.25,0.25,0.25,0.25,0.25,0.25,0.25,-0.5,-0.5,-0.5,-0.5,-0.5,-0.5,-0.5,-0.5,-0.5,-0.5,-0.5,linear,100,0.025,0,0.5,TRUE,2,sepmodel,0.7884,-0.0011875200020868405,0.008032717557358734,0,10000
10,250,0,125,250,375,500,625,750,875,1000,1125,2,0,1,0.25,0.25,0.25,0.25,0.25,0.25,0.25,0.25,0.25,0.25,-0.5,-0.5,-0.5,-0.5,-0.5,-0.5,-0.5,-0.5,-0.5,-0.5,-0.5,linear,100,0.025,0,0.5,TRUE,3,fixmodel,0.8297,-0.001289003073010526,0.007215581783337283,0,10000
10,250,0,125,250,375,500,625,750,875,1000,1125,2,0,1,0.25,0.25,0.25,0.25,0.25,0.25,0.25,0.25,0.25,0.25,-0.5,-0.5,-0.5,-0.5,-0.5,-0.5,-0.5,-0.5,-0.5,-0.5,-0.5,linear,100,0.025,0,0.5,TRUE,3,poolmodel,0.6706,-0.05049386275583004,0.009212290744637286,0,10000
10,250,0,125,250,375,500,625,750,875,1000,1125,2,0,1,0.25,0.25,0.25,0.25,0.25,0.25,0.25,0.25,0.25,0.25,-0.5,-0.5,-0.5,-0.5,-0.5,-0.5,-0.5,-0.5,-0.5,-0.5,-0.5,linear,100,0.025,0,0.5,TRUE,3,sepmodel,0.7927,-0.0013284381096049871,0.007829844050141989,0,10000
10,250,0,125,250,375,500,625,750,875,1000,1125,2,0,1,0.25,0.25,0.25,0.25,0.25,0.25,0.25,0.25,0.25,0.25,-0.5,-0.5,-0.5,-0.5,-0.5,-0.5,-0.5,-0.5,-0.5,-0.5,-0.5,linear,100,0.025,0,0.5,TRUE,4,fixmodel,0.8374,-6.590961623112367e-4,0.007104550145729895,0,10000
10,250,0,125,250,375,500,625,750,875,1000,1125,2,0,1,0.25,0.25,0.25,0.25,0.25,0.25,0.25,0.25,0.25,0.25,-0.5,-0.5,-0.5,-0.5,-0.5,-0.5,-0.5,-0.5,-0.5,-0.5,-0.5,linear,100,0.025,0,0.5,TRUE,4,poolmodel,0.589,-0.07151799908327618,0.011616846649710104,0,10000
10,250,0,125,250,375,500,625,750,875,1000,1125,2,0,1,0.25,0.25,0.25,0.25,0.25,0.25,0.25,0.25,0.25,0.25,-0.5,-0.5,-0.5,-0.5,-0.5,-0.5,-0.5,-0.5,-0.5,-0.5,-0.5,linear,100,0.025,0,0.5,TRUE,4,sepmodel,0.7916,-4.6706013357736406e-4,0.007939243046432991,0,10000
10,250,0,125,250,375,500,625,750,875,1000,1125,2,0,1,0.25,0.25,0.25,0.25,0.25,0.25,0.25,0.25,0.25,0.25,-0.5,-0.5,-0.5,-0.5,-0.5,-0.5,-0.5,-0.5,-0.5,-0.5,-0.5,linear,100,0.025,0,0.5,TRUE,5,fixmodel,0.8378,-2.830707994960032e-4,0.007213044121171699,0,10000
10,250,0,125,250,375,500,625,750,875,1000,1125,2,0,1,0.25,0.25,0.25,0.25,0.25,0.25,0.25,0.25,0.25,0.25,-0.5,-0.5,-0.5,-0.5,-0.5,-0.5,-0.5,-0.5,-0.5,-0.5,-0.5,linear,100,0.025,0,0.5,TRUE,5,poolmodel,0.5133,-0.08996595125665519,0.014656137510904487,0,10000
10,250,0,125,250,375,500,625,750,875,1000,1125,2,0,1,0.25,0.25,0.25,0.25,0.25,0.25,0.25,0.25,0.25,0.25,-0.5,-0.5,-0.5,-0.5,-0.5,-0.5,-0.5,-0.5,-0.5,-0.5,-0.5,linear,100,0.025,0,0.5,TRUE,5,sepmodel,0.7947,9.79959042952743e-6,0.0081663078937415,0,10000
10,250,0,125,250,375,500,625,750,875,1000,1125,2,0,1,0.25,0.25,0.25,0.25,0.25,0.25,0.25,0.25,0.25,0.25,-0.5,-0.5,-0.5,-0.5,-0.5,-0.5,-0.5,-0.5,-0.5,-0.5,-0.5,linear,100,0.025,0,0.5,TRUE,6,fixmodel,0.8468,-9.736569009973081e-4,0.007044372591438104,0,10000
10,250,0,125,250,375,500,625,750,875,1000,1125,2,0,1,0.25,0.25,0.25,0.25,0.25,0.25,0.25,0.25,0.25,0.25,-0.5,-0.5,-0.5,-0.5,-0.5,-0.5,-0.5,-0.5,-0.5,-0.5,-0.5,linear,100,0.025,0,0.5,TRUE,6,poolmodel,0.4271,-0.10707395435810287,0.017940888082791154,0,10000
10,250,0,125,250,375,500,625,750,875,1000,1125,2,0,1,0.25,0.25,0.25,0.25,0.25,0.25,0.25,0.25,0.25,0.25,-0.5,-0.5,-0.5,-0.5,-0.5,-0.5,-0.5,-0.5,-0.5,-0.5,-0.5,linear,100,0.025,0,0.5,TRUE,6,sepmodel,0.7911,-7.695659137833195e-4,0.008096681542885323,0,10000
10,250,0,125,250,375,500,625,750,875,1000,1125,2,0,1,0.25,0.25,0.25,0.25,0.25,0.25,0.25,0.25,0.25,0.25,-0.5,-0.5,-0.5,-0.5,-0.5,-0.5,-0.5,-0.5,-0.5,-0.5,-0.5,linear,100,0.025,0,0.5,TRUE,7,fixmodel,0.8568,2.9451076420115293e-4,0.006763501653238064,0,10000
10,250,0,125,250,375,500,625,750,875,1000,1125,2,0,1,0.25,0.25,0.25,0.25,0.25,0.25,0.25,0.25,0.25,0.25,-0.5,-0.5,-0.5,-0.5,-0.5,-0.5,-0.5,-0.5,-0.5,-0.5,-0.5,linear,100,0.025,0,0.5,TRUE,7,poolmodel,0.3663,-0.11987369395869521,0.020448550844500757,0,10000
10,250,0,125,250,375,500,625,750,875,1000,1125,2,0,1,0.25,0.25,0.25,0.25,0.25,0.25,0.25,0.25,0.25,0.25,-0.5,-0.5,-0.5,-0.5,-0.5,-0.5,-0.5,-0.5,-0.5,-0.5,-0.5,linear,100,0.025,0,0.5,TRUE,7,sepmodel,0.7991,2.5782714827971096e-4,0.007916656440104305,0,10000
10,250,0,125,250,375,500,625,750,875,1000,1125,2,0,1,0.25,0.25,0.25,0.25,0.25,0.25,0.25,0.25,0.25,0.25,-0.5,-0.5,-0.5,-0.5,-0.5,-0.5,-0.5,-0.5,-0.5,-0.5,-0.5,linear,100,0.025,0,0.5,TRUE,8,fixmodel,0.859,1.0153669460705151e-4,0.006775520420266054,0,10000
10,250,0,125,250,375,500,625,750,875,1000,1125,2,0,1,0.25,0.25,0.25,0.25,0.25,0.25,0.25,0.25,0.25,0.25,-0.5,-0.5,-0.5,-0.5,-0.5,-0.5,-0.5,-0.5,-0.5,-0.5,-0.5,linear,100,0.025,0,0.5,TRUE,8,poolmodel,0.3108,-0.13257644810682814,0.023704611525963513,0,10000
10,250,0,125,250,375,500,625,750,875,1000,1125,2,0,1,0.25,0.25,0.25,0.25,0.25,0.25,0.25,0.25,0.25,0.25,-0.5,-0.5,-0.5,-0.5,-0.5,-0.5,-0.5,-0.5,-0.5,-0.5,-0.5,linear,100,0.025,0,0.5,TRUE,8,sepmodel,0.7967,-1.797174548970133e-4,0.00796022348098931,0,10000
10,250,0,125,250,375,500,625,750,875,1000,1125,2,0,1,0.25,0.25,0.25,0.25,0.25,0.25,0.25,0.25,0.25,0.25,-0.5,-0.5,-0.5,-0.5,-0.5,-0.5,-0.5,-0.5,-0.5,-0.5,-0.5,linear,100,0.025,0,0.5,TRUE,9,fixmodel,0.8527,-6.529808591048731e-4,0.006807149150013894,0,10000
10,250,0,125,250,375,500,625,750,875,1000,1125,2,0,1,0.25,0.25,0.25,0.25,0.25,0.25,0.25,0.25,0.25,0.25,-0.5,-0.5,-0.5,-0.5,-0.5,-0.5,-0.5,-0.5,-0.5,-0.5,-0.5,linear,100,0.025,0,0.5,TRUE,9,poolmodel,0.2726,-0.14375646431921418,0.02673046845748022,0,10000
10,250,0,125,250,375,500,625,750,875,1000,1125,2,0,1,0.25,0.25,0.25,0.25,0.25,0.25,0.25,0.25,0.25,0.25,-0.5,-0.5,-0.5,-0.5,-0.5,-0.5,-0.5,-0.5,-0.5,-0.5,-0.5,linear,100,0.025,0,0.5,TRUE,9,sepmodel,0.7876,-8.501722243718792e-4,0.008126775702568914,0,10000
10,250,0,125,250,375,500,625,750,875,1000,1125,2,0,1,0.25,0.25,0.25,0.25,0.25,0.25,0.25,0.25,0.25,0.25,-0.5,-0.5,-0.5,-0.5,-0.5,-0.5,-0.5,-0.5,-0.5,-0.5,-0.5,linear,100,0.025,0,0.5,TRUE,10,fixmodel,0.8649,9.239596868852843e-4,0.0067993502324662095,0,10000
10,250,0,125,250,375,500,625,750,875,1000,1125,2,0,1,0.25,0.25,0.25,0.25,0.25,0.25,0.25,0.25,0.25,0.25,-0.5,-0.5,-0.5,-0.5,-0.5,-0.5,-0.5,-0.5,-0.5,-0.5,-0.5,linear,100,0.025,0,0.5,TRUE,10,poolmodel,0.2409,-0.15080218426016748,0.02885487243157046,0,10000
10,250,0,125,250,375,500,625,750,875,1000,1125,2,0,1,0.25,0.25,0.25,0.25,0.25,0.25,0.25,0.25,0.25,0.25,-0.5,-0.5,-0.5,-0.5,-0.5,-0.5,-0.5,-0.5,-0.5,-0.5,-0.5,linear,100,0.025,0,0.5,TRUE,10,sepmodel,0.7961,7.21088942230565e-4,0.008101272560580033,0,10000
10,250,0,150,300,450,600,750,900,1050,1200,1350,2,0,1,0.25,0.25,0.25,0.25,0.25,0.25,0.25,0.25,0.25,0.25,-0.5,-0.5,-0.5,-0.5,-0.5,-0.5,-0.5,-0.5,-0.5,-0.5,-0.5,linear,100,0.025,0,0.5,TRUE,2,fixmodel,0.8228,4.069095834628257e-5,0.007466329389761077,0,10000
10,250,0,150,300,450,600,750,900,1050,1200,1350,2,0,1,0.25,0.25,0.25,0.25,0.25,0.25,0.25,0.25,0.25,0.25,-0.5,-0.5,-0.5,-0.5,-0.5,-0.5,-0.5,-0.5,-0.5,-0.5,-0.5,linear,100,0.025,0,0.5,TRUE,2,poolmodel,0.7668,-0.02419483787102091,0.007586295243948877,0,10000
10,250,0,150,300,450,600,750,900,1050,1200,1350,2,0,1,0.25,0.25,0.25,0.25,0.25,0.25,0.25,0.25,0.25,0.25,-0.5,-0.5,-0.5,-0.5,-0.5,-0.5,-0.5,-0.5,-0.5,-0.5,-0.5,linear,100,0.025,0,0.5,TRUE,2,sepmodel,0.798,-2.712113089720562e-4,0.00789687163358465,0,10000
10,250,0,150,300,450,600,750,900,1050,1200,1350,2,0,1,0.25,0.25,0.25,0.25,0.25,0.25,0.25,0.25,0.25,0.25,-0.5,-0.5,-0.5,-0.5,-0.5,-0.5,-0.5,-0.5,-0.5,-0.5,-0.5,linear,100,0.025,0,0.5,TRUE,3,fixmodel,0.8379,6.172335431449042e-4,0.007209069789462554,0,10000
10,250,0,150,300,450,600,750,900,1050,1200,1350,2,0,1,0.25,0.25,0.25,0.25,0.25,0.25,0.25,0.25,0.25,0.25,-0.5,-0.5,-0.5,-0.5,-0.5,-0.5,-0.5,-0.5,-0.5,-0.5,-0.5,linear,100,0.025,0,0.5,TRUE,3,poolmodel,0.6887,-0.04966727764802175,0.00902174725826825,0,10000
10,250,0,150,300,450,600,750,900,1050,1200,1350,2,0,1,0.25,0.25,0.25,0.25,0.25,0.25,0.25,0.25,0.25,0.25,-0.5,-0.5,-0.5,-0.5,-0.5,-0.5,-0.5,-0.5,-0.5,-0.5,-0.5,linear,100,0.025,0,0.5,TRUE,3,sepmodel,0.7996,4.0097971506024684e-4,0.007979316690754959,0,10000
10,250,0,150,300,450,600,750,900,1050,1200,1350,2,0,1,0.25,0.25,0.25,0.25,0.25,0.25,0.25,0.25,0.25,0.25,-0.5,-0.5,-0.5,-0.5,-0.5,-0.5,-0.5,-0.5,-0.5,-0.5,-0.5,linear,100,0.025,0,0.5,TRUE,4,fixmodel,0.835,-0.001374258293054185,0.007153842963077017,0,10000
10,250,0,150,300,450,600,750,900,1050,1200,1350,2,0,1,0.25,0.25,0.25,0.25,0.25,0.25,0.25,0.25,0.25,0.25,-0.5,-0.5,-0.5,-0.5,-0.5,-0.5,-0.5,-0.5,-0.5,-0.5,-0.5,linear,100,0.025,0,0.5,TRUE,4,poolmodel,0.5777,-0.0759054478989586,0.012164820362599381,0,10000
10,250,0,150,300,450,600,750,900,1050,1200,1350,2,0,1,0.25,0.25,0.25,0.25,0.25,0.25,0.25,0.25,0.25,0.25,-0.5,-0.5,-0.5,-0.5,-0.5,-0.5,-0.5,-0.5,-0.5,-0.5,-0.5,linear,100,0.025,0,0.5,TRUE,4,sepmodel,0.7888,-0.001495813055017414,0.00802813505499627,0,10000
10,250,0,150,300,450,600,750,900,1050,1200,1350,2,0,1,0.25,0.25,0.25,0.25,0.25,0.25,0.25,0.25,0.25,0.25,-0.5,-0.5,-0.5,-0.5,-0.5,-0.5,-0.5,-0.5,-0.5,-0.5,-0.5,linear,100,0.025,0,0.5,TRUE,5,fixmodel,0.8457,3.288557205016064e-4,0.00726295351490911,0,10000
10,250,0,150,300,450,600,750,900,1050,1200,1350,2,0,1,0.25,0.25,0.25,0.25,0.25,0.25,0.25,0.25,0.25,0.25,-0.5,-0.5,-0.5,-0.5,-0.5,-0.5,-0.5,-0.5,-0.5,-0.5,-0.5,linear,100,0.025,0,0.5,TRUE,5,poolmodel,0.4905,-0.09533794934437535,0.01554107361563234,0,10000
10,250,0,150,300,450,600,750,900,1050,1200,1350,2,0,1,0.25,0.25,0.25,0.25,0.25,0.25,0.25,0.25,0.25,0.25,-0.5,-0.5,-0.5,-0.5,-0.5,-0.5,-0.5,-0.5,-0.5,-0.5,-0.5,linear,100,0.025,0,0.5,TRUE,5,sepmodel,0.7903,5.89594984057025e-6,0.008185870334083582,0,10000
10,250,0,150,300,450,600,750,900,1050,1200,1350,2,0,1,0.25,0.25,0.25,0.25,0.25,0.25,0.25,0.25,0.25,0.25,-0.5,-0.5,-0.5,-0.5,-0.5,-0.5,-0.5,-0.5,-0.5,-0.5,-0.5,linear,100,0.025,0,0.5,TRUE,6,fixmodel,0.8496,-2.089709345249429e-4,0.007001017652836148,0,10000
10,250,0,150,300,450,600,750,900,1050,1200,1350,2,0,1,0.25,0.25,0.25,0.25,0.25,0.25,0.25,0.25,0.25,0.25,-0.5,-0.5,-0.5,-0.5,-0.5,-0.5,-0.5,-0.5,-0.5,-0.5,-0.5,linear,100,0.025,0,0.5,TRUE,6,poolmodel,0.3987,-0.1142950361673123,0.019191548873954377,0,10000
10,250,0,150,300,450,600,750,900,1050,1200,1350,2,0,1,0.25,0.25,0.25,0.25,0.25,0.25,0.25,0.25,0.25,0.25,-0.5,-0.5,-0.5,-0.5,-0.5,-0.5,-0.5,-0.5,-0.5,-0.5,-0.5,linear,100,0.025,0,0.5,TRUE,6,sepmodel,0.793,-4.779741945149494e-4,0.008052289467843384,0,10000
10,250,0,150,300,450,600,750,900,1050,1200,1350,2,0,1,0.25,0.25,0.25,0.25,0.25,0.25,0.25,0.25,0.25,0.25,-0.5,-0.5,-0.5,-0.5,-0.5,-0.5,-0.5,-0.5,-0.5,-0.5,-0.5,linear,100,0.025,0,0.5,TRUE,7,fixmodel,0.8466,-0.0016901430939588553,0.007042152249020722,0,10000
10,250,0,150,300,450,600,750,900,1050,1200,1350,2,0,1,0.25,0.25,0.25,0.25,0.25,0.25,0.25,0.25,0.25,0.25,-0.5,-0.5,-0.5,-0.5,-0.5,-0.5,-0.5,-0.5,-0.5,-0.5,-0.5,linear,100,0.025,0,0.5,TRUE,7,poolmodel,0.3287,-0.1317471663082131,0.023541884123836336,0,10000
10,250,0,150,300,450,600,750,900,1050,1200,1350,2,0,1,0.25,0.25,0.25,0.25,0.25,0.25,0.25,0.25,0.25,0.25,-0.5,-0.5,-0.5,-0.5,-0.5,-0.5,-0.5,-0.5,-0.5,-0.5,-0.5,linear,100,0.025,0,0.5,TRUE,7,sepmodel,0.787,-0.0020279444478675814,0.00810097417584138,0,10000
10,250,0,150,300,450,600,750,900,1050,1200,1350,2,0,1,0.25,0.25,0.25,0.25,0.25,0.25,0.25,0.25,0.25,0.25,-0.5,-0.5,-0.5,-0.5,-0.5,-0.5,-0.5,-0.5,-0.5,-0.5,-0.5,linear,100,0.025,0,0.5,TRUE,8,fixmodel,0.8549,-6.285632813966982e-4,0.006822335095043455,0,10000
10,250,0,150,300,450,600,750,900,1050,1200,1350,2,0,1,0.25,0.25,0.25,0.25,0.25,0.25,0.25,0.25,0.25,0.25,-0.5,-0.5,-0.5,-0.5,-0.5,-0.5,-0.5,-0.5,-0.5,-0.5,-0.5,linear,100,0.025,0,0.5,TRUE,8,poolmodel,0.2687,-0.14465935996746102,0.026848828731243626,0,10000
10,250,0,150,300,450,600,750,900,1050,1200,1350,2,0,1,0.25,0.25,0.25,0.25,0.25,0.25,0.25,0.25,0.25,0.25,-0.5,-0.5,-0.5,-0.5,-0.5,-0.5,-0.5,-0.5,-0.5,-0.5,-0.5,linear,100,0.025,0,0.5,TRUE,8,sepmodel,0.7963,-9.460390492942413e-4,0.007849304199895438,0,10000
10,250,0,150,300,450,600,750,900,1050,1200,1350,2,0,1,0.25,0.25,0.25,0.25,0.25,0.25,0.25,0.25,0.25,0.25,-0.5,-0.5,-0.5,-0.5,-0.5,-0.5,-0.5,-0.5,-0.5,-0.5,-0.5,linear,100,0.025,0,0.5,TRUE,9,fixmodel,0.8625,-2.0534029582375092e-4,0.0067027552506752,0,10000
10,250,0,150,300,450,600,750,900,1050,1200,1350,2,0,1,0.25,0.25,0.25,0.25,0.25,0.25,0.25,0.25,0.25,0.25,-0.5,-0.5,-0.5,-0.5,-0.5,-0.5,-0.5,-0.5,-0.5,-0.5,-0.5,linear,100,0.025,0,0.5,TRUE,9,poolmodel,0.221,-0.15640589122367357,0.03029581272535387,0,10000
10,250,0,150,300,450,600,750,900,1050,1200,1350,2,0,1,0.25,0.25,0.25,0.25,0.25,0.25,0.25,0.25,0.25,0.25,-0.5,-0.5,-0.5,-0.5,-0.5,-0.5,-0.5,-0.5,-0.5,-0.5,-0.5,linear,100,0.025,0,0.5,TRUE,9,sepmodel,0.7987,-5.816490154133297e-4,0.007888260465784577,0,10000
10,250,0,150,300,450,600,750,900,1050,1200,1350,2,0,1,0.25,0.25,0.25,0.25,0.25,0.25,0.25,0.25,0.25,0.25,-0.5,-0.5,-0.5,-0.5,-0.5,-0.5,-0.5,-0.5,-0.5,-0.5,-0.5,linear,100,0.025,0,0.5,TRUE,10,fixmodel,0.8614,3.9159862186683824e-4,0.0068947413162942514,0,10000
10,250,0,150,300,450,600,750,900,1050,1200,1350,2,0,1,0.25,0.25,0.25,0.25,0.25,0.25,0.25,0.25,0.25,0.25,-0.5,-0.5,-0.5,-0.5,-0.5,-0.5,-0.5,-0.5,-0.5,-0.5,-0.5,linear,100,0.025,0,0.5,TRUE,10,poolmodel,0.1862,-0.16658093293505907,0.03367679924093637,0,10000
10,250,0,150,300,450,600,750,900,1050,1200,1350,2,0,1,0.25,0.25,0.25,0.25,0.25,0.25,0.25,0.25,0.25,0.25,-0.5,-0.5,-0.5,-0.5,-0.5,-0.5,-0.5,-0.5,-0.5,-0.5,-0.5,linear,100,0.025,0,0.5,TRUE,10,sepmodel,0.7964,-2.5278184851256478e-5,0.008129471913513063,0,10000
10,250,0,175,350,525,700,875,1050,1225,1400,1575,2,0,1,0.25,0.25,0.25,0.25,0.25,0.25,0.25,0.25,0.25,0.25,-0.5,-0.5,-0.5,-0.5,-0.5,-0.5,-0.5,-0.5,-0.5,-0.5,-0.5,linear,100,0.025,0,0.5,TRUE,2,fixmodel,0.8209,-4.0059947790345966e-5,0.00749690625983493,0,10000
10,250,0,175,350,525,700,875,1050,1225,1400,1575,2,0,1,0.25,0.25,0.25,0.25,0.25,0.25,0.25,0.25,0.25,0.25,-0.5,-0.5,-0.5,-0.5,-0.5,-0.5,-0.5,-0.5,-0.5,-0.5,-0.5,linear,100,0.025,0,0.5,TRUE,2,poolmodel,0.7621,-0.02535649958792473,0.007579818680143322,0,10000
10,250,0,175,350,525,700,875,1050,1225,1400,1575,2,0,1,0.25,0.25,0.25,0.25,0.25,0.25,0.25,0.25,0.25,0.25,-0.5,-0.5,-0.5,-0.5,-0.5,-0.5,-0.5,-0.5,-0.5,-0.5,-0.5,linear,100,0.025,0,0.5,TRUE,2,sepmodel,0.7926,-1.5229867729614385e-4,0.007955346508563887,0,10000
10,250,0,175,350,525,700,875,1050,1225,1400,1575,2,0,1,0.25,0.25,0.25,0.25,0.25,0.25,0.25,0.25,0.25,0.25,-0.5,-0.5,-0.5,-0.5,-0.5,-0.5,-0.5,-0.5,-0.5,-0.5,-0.5,linear,100,0.025,0,0.5,TRUE,3,fixmodel,0.8335,-5.443245347407199e-4,0.007160457958629464,0,10000
10,250,0,175,350,525,700,875,1050,1225,1400,1575,2,0,1,0.25,0.25,0.25,0.25,0.25,0.25,0.25,0.25,0.25,0.25,-0.5,-0.5,-0.5,-0.5,-0.5,-0.5,-0.5,-0.5,-0.5,-0.5,-0.5,linear,100,0.025,0,0.5,TRUE,3,poolmodel,0.6808,-0.05268247123899056,0.009223963323680138,0,10000
10,250,0,175,350,525,700,875,1050,1225,1400,1575,2,0,1,0.25,0.25,0.25,0.25,0.25,0.25,0.25,0.25,0.25,0.25,-0.5,-0.5,-0.5,-0.5,-0.5,-0.5,-0.5,-0.5,-0.5,-0.5,-0.5,linear,100,0.025,0,0.5,TRUE,3,sepmodel,0.796,-6.880386852663636e-4,0.00787148562019908,0,10000
10,250,0,175,350,525,700,875,1050,1225,1400,1575,2,0,1,0.25,0.25,0.25,0.25,0.25,0.25,0.25,0.25,0.25,0.25,-0.5,-0.5,-0.5,-0.5,-0.5,-0.5,-0.5,-0.5,-0.5,-0.5,-0.5,linear,100,0.025,0,0.5,TRUE,4,fixmodel,0.8486,0.0010522767711481688,0.007152763137104394,0,10000
10,250,0,175,350,525,700,875,1050,1225,1400,1575,2,0,1,0.25,0.25,0.25,0.25,0.25,0.25,0.25,0.25,0.25,0.25,-0.5,-0.5,-0.5,-0.5,-0.5,-0.5,-0.5,-0.5,-0.5,-0.5,-0.5,linear,100,0.025,0,0.5,TRUE,4,poolmodel,0.5859,-0.07645096690484086,0.01218563958421679,0,10000
10,250,0,175,350,525,700,875,1050,1225,1400,1575,2,0,1,0.25,0.25,0.25,0.25,0.25,0.25,0.25,0.25,0.25,0.25,-0.5,-0.5,-0.5,-0.5,-0.5,-0.5,-0.5,-0.5,-0.5,-0.5,-0.5,linear,100,0.025,0,0.5,TRUE,4,sepmodel,0.7975,8.96935879153531e-4,0.007982963101043818,0,10000
10,250,0,175,350,525,700,875,1050,1225,1400,1575,2,0,1,0.25,0.25,0.25,0.25,0.25,0.25,0.25,0.25,0.25,0.25,-0.5,-0.5,-0.5,-0.5,-0.5,-0.5,-0.5,-0.5,-0.5,-0.5,-0.5,linear,100,0.025,0,0.5,TRUE,5,fixmodel,0.8496,-2.1942450599316885e-4,0.006820761910164898,0,10000
10,250,0,175,350,525,700,875,1050,1225,1400,1575,2,0,1,0.25,0.25,0.25,0.25,0.25,0.25,0.25,0.25,0.25,0.25,-0.5,-0.5,-0.5,-0.5,-0.5,-0.5,-0.5,-0.5,-0.5,-0.5,-0.5,linear,100,0.025,0,0.5,TRUE,5,poolmodel,0.4772,-0.10019029908389755,0.015960267217908518,0,10000
10,250,0,175,350,525,700,875,1050,1225,1400,1575,2,0,1,0.25,0.25,0.25,0.25,0.25,0.25,0.25,0.25,0.25,0.25,-0.5,-0.5,-0.5,-0.5,-0.5,-0.5,-0.5,-0.5,-0.5,-0.5,-0.5,linear,100,0.025,0,0.5,TRUE,5,sepmodel,0.7992,-1.8877301727307036e-4,0.007693989727908789,0,10000
10,250,0,175,350,525,700,875,1050,1225,1400,1575,2,0,1,0.25,0.25,0.25,0.25,0.25,0.25,0.25,0.25,0.25,0.25,-0.5,-0.5,-0.5,-0.5,-0.5,-0.5,-0.5,-0.5,-0.5,-0.5,-0.5,linear,100,0.025,0,0.5,TRUE,6,fixmodel,0.8506,-0.0016430530912434193,0.006734942975586049,0,10000
10,250,0,175,350,525,700,875,1050,1225,1400,1575,2,0,1,0.25,0.25,0.25,0.25,0.25,0.25,0.25,0.25,0.25,0.25,-0.5,-0.5,-0.5,-0.5,-0.5,-0.5,-0.5,-0.5,-0.5,-0.5,-0.5,linear,100,0.025,0,0.5,TRUE,6,poolmodel,0.3787,-0.12132045148087585,0.020570797272419866,0,10000
10,250,0,175,350,525,700,875,1050,1225,1400,1575,2,0,1,0.25,0.25,0.25,0.25,0.25,0.25,0.25,0.25,0.25,0.25,-0.5,-0.5,-0.5,-0.5,-0.5,-0.5,-0.5,-0.5,-0.5,-0.5,-0.5,linear,100,0.025,0,0.5,TRUE,6,sepmodel,0.7927,-0.0018724077989058228,0.0077960755815231425,0,10000
10,250,0,175,350,525,700,875,1050,1225,1400,1575,2,0,1,0.25,0.25,0.25,0.25,0.25,0.25,0.25,0.25,0.25,0.25,-0.5,-0.5,-0.5,-0.5,-0.5,-0.5,-0.5,-0.5,-0.5,-0.5,-0.5,linear,100,0.025,0,0.5,TRUE,7,fixmodel,0.8564,-1.9256997172107483e-4,0.006827132161824816,0,10000
10,250,0,175,350,525,700,875,1050,1225,1400,1575,2,0,1,0.25,0.25,0.25,0.25,0.25,0.25,0.25,0.25,0.25,0.25,-0.5,-0.5,-0.5,-0.5,-0.5,-0.5,-0.5,-0.5,-0.5,-0.5,-0.5,linear,100,0.025,0,0.5,TRUE,7,poolmodel,0.2957,-0.1394604366631544,0.02535382995693117,0,10000
10,250,0,175,350,525,700,875,1050,1225,1400,1575,2,0,1,0.25,0.25,0.25,0.25,0.25,0.25,0.25,0.25,0.25,0.25,-0.5,-0.5,-0.5,-0.5,-0.5,-0.5,-0.5,-0.5,-0.5,-0.5,-0.5,linear,100,0.025,0,0.5,TRUE,7,sepmodel,0.8001,-2.633699911719194e-4,0.007921231156051943,0,10000
10,250,0,175,350,525,700,875,1050,1225,1400,1575,2,0,1,0.25,0.25,0.25,0.25,0.25,0.25,0.25,0.25,0.25,0.25,-0.5,-0.5,-0.5,-0.5,-0.5,-0.5,-0.5,-0.5,-0.5,-0.5,-0.5,linear,100,0.025,0,0.5,TRUE,8,fixmodel,0.8533,-1.1915119980946881e-4,0.006921565855986879,0,10000
10,250,0,175,350,525,700,875,1050,1225,1400,1575,2,0,1,0.25,0.25,0.25,0.25,0.25,0.25,0.25,0.25,0.25,0.25,-0.5,-0.5,-0.5,-0.5,-0.5,-0.5,-0.5,-0.5,-0.5,-0.5,-0.5,linear,100,0.025,0,0.5,TRUE,8,poolmodel,0.2314,-0.15569522809544223,0.030138266530978085,0,10000
10,250,0,175,350,525,700,875,1050,1225,1400,1575,2,0,1,0.25,0.25,0.25,0.25,0.25,0.25,0.25,0.25,0.25,0.25,-0.5,-0.5,-0.5,-0.5,-0.5,-0.5,-0.5,-0.5,-0.5,-0.5,-0.5,linear,100,0.025,0,0.5,TRUE,8,sepmodel,0.7926,-1.8735857046113194e-4,0.008201600242740397,0,10000
10,250,0,175,350,525,700,875,1050,1225,1400,1575,2,0,1,0.25,0.25,0.25,0.25,0.25,0.25,0.25,0.25,0.25,0.25,-0.5,-0.5,-0.5,-0.5,-0.5,-0.5,-0.5,-0.5,-0.5,-0.5,-0.5,linear,100,0.025,0,0.5,TRUE,9,fixmodel,0.8581,1.5940076021282574e-4,0.006794882274779675,0,10000
10,250,0,175,350,525,700,875,1050,1225,1400,1575,2,0,1,0.25,0.25,0.25,0.25,0.25,0.25,0.25,0.25,0.25,0.25,-0.5,-0.5,-0.5,-0.5,-0.5,-0.5,-0.5,-0.5,-0.5,-0.5,-0.5,linear,100,0.025,0,0.5,TRUE,9,poolmodel,0.1818,-0.16892636739476938,0.034255949165021164,0,10000
10,250,0,175,350,525,700,875,1050,1225,1400,1575,2,0,1,0.25,0.25,0.25,0.25,0.25,0.25,0.25,0.25,0.25,0.25,-0.5,-0.5,-0.5,-0.5,-0.5,-0.5,-0.5,-0.5,-0.5,-0.5,-0.5,linear,100,0.025,0,0.5,TRUE,9,sepmodel,0.7954,1.2034855731522699e-4,0.008068622334553884,0,10000
10,250,0,175,350,525,700,875,1050,1225,1400,1575,2,0,1,0.25,0.25,0.25,0.25,0.25,0.25,0.25,0.25,0.25,0.25,-0.5,-0.5,-0.5,-0.5,-0.5,-0.5,-0.5,-0.5,-0.5,-0.5,-0.5,linear,100,0.025,0,0.5,TRUE,10,fixmodel,0.8582,-8.454817616834234e-4,0.0067288040605479795,0,10000
10,250,0,175,350,525,700,875,1050,1225,1400,1575,2,0,1,0.25,0.25,0.25,0.25,0.25,0.25,0.25,0.25,0.25,0.25,-0.5,-0.5,-0.5,-0.5,-0.5,-0.5,-0.5,-0.5,-0.5,-0.5,-0.5,linear,100,0.025,0,0.5,TRUE,10,poolmodel,0.1414,-0.1813882663578304,0.03852100210998434,0,10000
10,250,0,175,350,525,700,875,1050,1225,1400,1575,2,0,1,0.25,0.25,0.25,0.25,0.25,0.25,0.25,0.25,0.25,0.25,-0.5,-0.5,-0.5,-0.5,-0.5,-0.5,-0.5,-0.5,-0.5,-0.5,-0.5,linear,100,0.025,0,0.5,TRUE,10,sepmodel,0.7938,-8.149052491473914e-4,0.007954257567843542,0,10000
10,250,0,200,400,600,800,1000,1200,1400,1600,1800,2,0,1,0.25,0.25,0.25,0.25,0.25,0.25,0.25,0.25,0.25,0.25,-0.5,-0.5,-0.5,-0.5,-0.5,-0.5,-0.5,-0.5,-0.5,-0.5,-0.5,linear,100,0.025,0,0.5,TRUE,2,fixmodel,0.8249,4.753020358097718e-4,0.007422294880273046,0,10000
10,250,0,200,400,600,800,1000,1200,1400,1600,1800,2,0,1,0.25,0.25,0.25,0.25,0.25,0.25,0.25,0.25,0.25,0.25,-0.5,-0.5,-0.5,-0.5,-0.5,-0.5,-0.5,-0.5,-0.5,-0.5,-0.5,linear,100,0.025,0,0.5,TRUE,2,poolmodel,0.7671,-0.025833160870509207,0.007446788562858098,0,10000
10,250,0,200,400,600,800,1000,1200,1400,1600,1800,2,0,1,0.25,0.25,0.25,0.25,0.25,0.25,0.25,0.25,0.25,0.25,-0.5,-0.5,-0.5,-0.5,-0.5,-0.5,-0.5,-0.5,-0.5,-0.5,-0.5,linear,100,0.025,0,0.5,TRUE,2,sepmodel,0.7961,4.0519253814176544e-4,0.007959724470132722,0,10000
10,250,0,200,400,600,800,1000,1200,1400,1600,1800,2,0,1,0.25,0.25,0.25,0.25,0.25,0.25,0.25,0.25,0.25,0.25,-0.5,-0.5,-0.5,-0.5,-0.5,-0.5,-0.5,-0.5,-0.5,-0.5,-0.5,linear,100,0.025,0,0.5,TRUE,3,fixmodel,0.8379,-5.41245809497435e-4,0.007185515424811572,0,10000
10,250,0,200,400,600,800,1000,1200,1400,1600,1800,2,0,1,0.25,0.25,0.25,0.25,0.25,0.25,0.25,0.25,0.25,0.25,-0.5,-0.5,-0.5,-0.5,-0.5,-0.5,-0.5,-0.5,-0.5,-0.5,-0.5,linear,100,0.025,0,0.5,TRUE,3,poolmodel,0.6894,-0.05375905132816007,0.00921535873225184,0,10000
10,250,0,200,400,600,800,1000,1200,1400,1600,1800,2,0,1,0.25,0.25,0.25,0.25,0.25,0.25,0.25,0.25,0.25,0.25,-0.5,-0.5,-0.5,-0.5,-0.5,-0.5,-0.5,-0.5,-0.5,-0.5,-0.5,linear,100,0.025,0,0.5,TRUE,3,sepmodel,0.7953,-9.360388923856105e-4,0.007971027007015364,0,10000
10,250,0,200,400,600,800,1000,1200,1400,1600,1800,2,0,1,0.25,0.25,0.25,0.25,0.25,0.25,0.25,0.25,0.25,0.25,-0.5,-0.5,-0.5,-0.5,-0.5,-0.5,-0.5,-0.5,-0.5,-0.5,-0.5,linear,100,0.025,0,0.5,TRUE,4,fixmodel,0.841,0.0011730661664299696,0.007272409998371725,0,10000
10,250,0,200,400,600,800,1000,1200,1400,1600,1800,2,0,1,0.25,0.25,0.25,0.25,0.25,0.25,0.25,0.25,0.25,0.25,-0.5,-0.5,-0.5,-0.5,-0.5,-0.5,-0.5,-0.5,-0.5,-0.5,-0.5,linear,100,0.025,0,0.5,TRUE,4,poolmodel,0.5902,-0.07735261485786932,0.012276691956198776,0,10000
10,250,0,200,400,600,800,1000,1200,1400,1600,1800,2,0,1,0.25,0.25,0.25,0.25,0.25,0.25,0.25,0.25,0.25,0.25,-0.5,-0.5,-0.5,-0.5,-0.5,-0.5,-0.5,-0.5,-0.5,-0.5,-0.5,linear,100,0.025,0,0.5,TRUE,4,sepmodel,0.7955,4.951862366222727e-4,0.00818363773052993,0,10000
10,250,0,200,400,600,800,1000,1200,1400,1600,1800,2,0,1,0.25,0.25,0.25,0.25,0.25,0.25,0.25,0.25,0.25,0.25,-0.5,-0.5,-0.5,-0.5,-0.5,-0.5,-0.5,-0.5,-0.5,-0.5,-0.5,linear,100,0.025,0,0.5,TRUE,5,fixmodel,0.8432,-3.2980133004336315e-4,0.0070069162978488135,0,10000
10,250,0,200,400,600,800,1000,1200,1400,1600,1800,2,0,1,0.25,0.25,0.25,0.25,0.25,0.25,0.25,0.25,0.25,0.25,-0.5,-0.5,-0.5,-0.5,-0.5,-0.5,-0.5,-0.5,-0.5,-0.5,-0.5,linear,100,0.025,0,0.5,TRUE,5,poolmodel,0.4792,-0.10247154757797557,0.016412311580667256,0,10000
10,250,0,200,400,600,800,1000,1200,1400,1600,1800,2,0,1,0.25,0.25,0.25,0.25,0.25,0.25,0.25,0.25,0.25,0.25,-0.5,-0.5,-0.5,-0.5,-0.5,-0.5,-0.5,-0.5,-0.5,-0.5,-0.5,linear,100,0.025,0,0.5,TRUE,5,sepmodel,0.7915,-8.668282499631366e-4,0.008023465508599144,0,10000
10,250,0,200,400,600,800,1000,1200,1400,1600,1800,2,0,1,0.25,0.25,0.25,0.25,0.25,0.25,0.25,0.25,0.25,0.25,-0.5,-0.5,-0.5,-0.5,-0.5,-0.5,-0.5,-0.5,-0.5,-0.5,-0.5,linear,100,0.025,0,0.5,TRUE,6,fixmodel,0.8505,2.0981804936654779e-4,0.007099933304695653,0,10000
10,250,0,200,400,600,800,1000,1200,1400,1600,1800,2,0,1,0.25,0.25,0.25,0.25,0.25,0.25,0.25,0.25,0.25,0.25,-0.5,-0.5,-0.5,-0.5,-0.5,-0.5,-0.5,-0.5,-0.5,-0.5,-0.5,linear,100,0.025,0,0.5,TRUE,6,poolmodel,0.3632,-0.1262643249855067,0.021829156304176794,0,10000
10,250,0,200,400,600,800,1000,1200,1400,1600,1800,2,0,1,0.25,0.25,0.25,0.25,0.25,0.25,0.25,0.25,0.25,0.25,-0.5,-0.5,-0.5,-0.5,-0.5,-0.5,-0.5,-0.5,-0.5,-0.5,-0.5,linear,100,0.025,0,0.5,TRUE,6,sepmodel,0.7943,-1.3905150165145744e-4,0.00816208025705203,0,10000
10,250,0,200,400,600,800,1000,1200,1400,1600,1800,2,0,1,0.25,0.25,0.25,0.25,0.25,0.25,0.25,0.25,0.25,0.25,-0.5,-0.5,-0.5,-0.5,-0.5,-0.5,-0.5,-0.5,-0.5,-0.5,-0.5,linear,100,0.025,0,0.5,TRUE,7,fixmodel,0.8546,-5.816256429018847e-4,0.0067823690495135095,0,10000
10,250,0,200,400,600,800,1000,1200,1400,1600,1800,2,0,1,0.25,0.25,0.25,0.25,0.25,0.25,0.25,0.25,0.25,0.25,-0.5,-0.5,-0.5,-0.5,-0.5,-0.5,-0.5,-0.5,-0.5,-0.5,-0.5,linear,100,0.025,0,0.5,TRUE,7,poolmodel,0.2619,-0.14741161566491134,0.027282582601592272,0,10000
10,250,0,200,400,600,800,1000,1200,1400,1600,1800,2,0,1,0.25,0.25,0.25,0.25,0.25,0.25,0.25,0.25,0.25,0.25,-0.5,-0.5,-0.5,-0.5,-0.5,-0.5,-0.5,-0.5,-0.5,-0.5,-0.5,linear,100,0.025,0,0.5,TRUE,7,sepmodel,0.7883,-8.789512837911964e-4,0.007954183406450748,0,10000
10,250,0,200,400,600,800,1000,1200,1400,1600,1800,2,0,1,0.25,0.25,0.25,0.25,0.25,0.25,0.25,0.25,0.25,0.25,-0.5,-0.5,-0.5,-0.5,-0.5,-0.5,-0.5,-0.5,-0.5,-0.5,-0.5,linear,100,0.025,0,0.5,TRUE,8,fixmodel,0.8536,-6.714865078713909e-5,0.006897880273590742,0,10000
10,250,0,200,400,600,800,1000,1200,1400,1600,1800,2,0,1,0.25,0.25,0.25,0.25,0.25,0.25,0.25,0.25,0.25,0.25,-0.5,-0.5,-0.5,-0.5,-0.5,-0.5,-0.5,-0.5,-0.5,-0.5,-0.5,linear,100,0.025,0,0.5,TRUE,8,poolmodel,0.1996,-0.16519061735398943,0.03299641097471578,0,10000
10,250,0,200,400,600,800,1000,1200,1400,1600,1800,2,0,1,0.25,0.25,0.25,0.25,0.25,0.25,0.25,0.25,0.25,0.25,-0.5,-0.5,-0.5,-0.5,-0.5,-0.5,-0.5,-0.5,-0.5,-0.5,-0.5,linear,100,0.025,0,0.5,TRUE,8,sepmodel,0.7936,-3.1420274561825266e-4,0.008097835972688679,0,10000
10,250,0,200,400,600,800,1000,1200,1400,1600,1800,2,0,1,0.25,0.25,0.25,0.25,0.25,0.25,0.25,0.25,0.25,0.25,-0.5,-0.5,-0.5,-0.5,-0.5,-0.5,-0.5,-0.5,-0.5,-0.5,-0.5,linear,100,0.025,0,0.5,TRUE,9,fixmodel,0.862,2.591367018725648e-5,0.006779225951397533,0,10000
10,250,0,200,400,600,800,1000,1200,1400,1600,1800,2,0,1,0.25,0.25,0.25,0.25,0.25,0.25,0.25,0.25,0.25,0.25,-0.5,-0.5,-0.5,-0.5,-0.5,-0.5,-0.5,-0.5,-0.5,-0.5,-0.5,linear,100,0.025,0,0.5,TRUE,9,poolmodel,0.1441,-0.1804762659332556,0.03811067620396149,0,10000
10,250,0,200,400,600,800,1000,1200,1400,1600,1800,2,0,1,0.25,0.25,0.25,0.25,0.25,0.25,0.25,0.25,0.25,0.25,-0.5,-0.5,-0.5,-0.5,-0.5,-0.5,-0.5,-0.5,-0.5,-0.5,-0.5,linear,100,0.025,0,0.5,TRUE,9,sepmodel,0.7966,-1.497633340191405e-4,0.008167660487779206,0,10000
10,250,0,200,400,600,800,1000,1200,1400,1600,1800,2,0,1,0.25,0.25,0.25,0.25,0.25,0.25,0.25,0.25,0.25,0.25,-0.5,-0.5,-0.5,-0.5,-0.5,-0.5,-0.5,-0.5,-0.5,-0.5,-0.5,linear,100,0.025,0,0.5,TRUE,10,fixmodel,0.8612,5.795256127257208e-4,0.006760248771722751,0,10000
10,250,0,200,400,600,800,1000,1200,1400,1600,1800,2,0,1,0.25,0.25,0.25,0.25,0.25,0.25,0.25,0.25,0.25,0.25,-0.5,-0.5,-0.5,-0.5,-0.5,-0.5,-0.5,-0.5,-0.5,-0.5,-0.5,linear,100,0.025,0,0.5,TRUE,10,poolmodel,0.116,-0.19200679418724537,0.04238547011108719,0,10000
10,250,0,200,400,600,800,1000,1200,1400,1600,1800,2,0,1,0.25,0.25,0.25,0.25,0.25,0.25,0.25,0.25,0.25,0.25,-0.5,-0.5,-0.5,-0.5,-0.5,-0.5,-0.5,-0.5,-0.5,-0.5,-0.5,linear,100,0.025,0,0.5,TRUE,10,sepmodel,0.7938,2.712397519577091e-4,0.00809195545199554,0,10000
10,250,0,225,450,675,900,1125,1350,1575,1800,2025,2,0,1,0.25,0.25,0.25,0.25,0.25,0.25,0.25,0.25,0.25,0.25,-0.5,-0.5,-0.5,-0.5,-0.5,-0.5,-0.5,-0.5,-0.5,-0.5,-0.5,linear,100,0.025,0,0.5,TRUE,2,fixmodel,0.8198,-4.6244377928686935e-4,0.007520200785635389,0,10000
10,250,0,225,450,675,900,1125,1350,1575,1800,2025,2,0,1,0.25,0.25,0.25,0.25,0.25,0.25,0.25,0.25,0.25,0.25,-0.5,-0.5,-0.5,-0.5,-0.5,-0.5,-0.5,-0.5,-0.5,-0.5,-0.5,linear,100,0.025,0,0.5,TRUE,2,poolmodel,0.7679,-0.027458423199336772,0.007517002489806334,0,10000
10,250,0,225,450,675,900,1125,1350,1575,1800,2025,2,0,1,0.25,0.25,0.25,0.25,0.25,0.25,0.25,0.25,0.25,0.25,-0.5,-0.5,-0.5,-0.5,-0.5,-0.5,-0.5,-0.5,-0.5,-0.5,-0.5,linear,100,0.025,0,0.5,TRUE,2,sepmodel,0.7959,-5.798208619476089e-5,0.00806515750985286,0,10000
10,250,0,225,450,675,900,1125,1350,1575,1800,2025,2,0,1,0.25,0.25,0.25,0.25,0.25,0.25,0.25,0.25,0.25,0.25,-0.5,-0.5,-0.5,-0.5,-0.5,-0.5,-0.5,-0.5,-0.5,-0.5,-0.5,linear,100,0.025,0,0.5,TRUE,3,fixmodel,0.8389,-5.493995398918222e-4,0.007045911084415417,0,10000
10,250,0,225,450,675,900,1125,1350,1575,1800,2025,2,0,1,0.25,0.25,0.25,0.25,0.25,0.25,0.25,0.25,0.25,0.25,-0.5,-0.5,-0.5,-0.5,-0.5,-0.5,-0.5,-0.5,-0.5,-0.5,-0.5,linear,100,0.025,0,0.5,TRUE,3,poolmodel,0.7017,-0.0539242390335536,0.008943865913536162,0,10000
10,250,0,225,450,675,900,1125,1350,1575,1800,2025,2,0,1,0.25,0.25,0.25,0.25,0.25,0.25,0.25,0.25,0.25,0.25,-0.5,-0.5,-0.5,-0.5,-0.5,-0.5,-0.5,-0.5,-0.5,-0.5,-0.5,linear,100,0.025,0,0.5,TRUE,3,sepmodel,0.8,-2.633006940123979e-4,0.0078005832488813745,0,10000
10,250,0,225,450,675,900,1125,1350,1575,1800,2025,2,0,1,0.25,0.25,0.25,0.25,0.25,0.25,0.25,0.25,0.25,0.25,-0.5,-0.5,-0.5,-0.5,-0.5,-0.5,-0.5,-0.5,-0.5,-0.5,-0.5,linear,100,0.025,0,0.5,TRUE,4,fixmodel,0.8385,-0.0011250420799587646,0.00713157667989622,0,10000
10,250,0,225,450,675,900,1125,1350,1575,1800,2025,2,0,1,0.25,0.25,0.25,0.25,0.25,0.25,0.25,0.25,0.25,0.25,-0.5,-0.5,-0.5,-0.5,-0.5,-0.5,-0.5,-0.5,-0.5,-0.5,-0.5,linear,100,0.025,0,0.5,TRUE,4,poolmodel,0.5917,-0.07827599728199548,0.012200131189170748,0,10000
10,250,0,225,450,675,900,1125,1350,1575,1800,2025,2,0,1,0.25,0.25,0.25,0.25,0.25,0.25,0.25,0.25,0.25,0.25,-0.5,-0.5,-0.5,-0.5,-0.5,-0.5,-0.5,-0.5,-0.5,-0.5,-0.5,linear,100,0.025,0,0.5,TRUE,4,sepmodel,0.7938,-0.0014208277234334283,0.007921192788062371,0,10000
10,250,0,225,450,675,900,1125,1350,1575,1800,2025,2,0,1,0.25,0.25,0.25,0.25,0.25,0.25,0.25,0.25,0.25,0.25,-0.5,-0.5,-0.5,-0.5,-0.5,-0.5,-0.5,-0.5,-0.5,-0.5,-0.5,linear,100,0.025,0,0.5,TRUE,5,fixmodel,0.849,-5.821547961591714e-5,0.006941157088219588,0,10000
10,250,0,225,450,675,900,1125,1350,1575,1800,2025,2,0,1,0.25,0.25,0.25,0.25,0.25,0.25,0.25,0.25,0.25,0.25,-0.5,-0.5,-0.5,-0.5,-0.5,-0.5,-0.5,-0.5,-0.5,-0.5,-0.5,linear,100,0.025,0,0.5,TRUE,5,poolmodel,0.4668,-0.10436164466895119,0.016646816477097825,0,10000
10,250,0,225,450,675,900,1125,1350,1575,1800,2025,2,0,1,0.25,0.25,0.25,0.25,0.25,0.25,0.25,0.25,0.25,0.25,-0.5,-0.5,-0.5,-0.5,-0.5,-0.5,-0.5,-0.5,-0.5,-0.5,-0.5,linear,100,0.025,0,0.5,TRUE,5,sepmodel,0.7969,-5.312627603575613e-4,0.007819745441544122,0,10000
10,250,0,225,450,675,900,1125,1350,1575,1800,2025,2,0,1,0.25,0.25,0.25,0.25,0.25,0.25,0.25,0.25,0.25,0.25,-0.5,-0.5,-0.5,-0.5,-0.5,-0.5,-0.5,-0.5,-0.5,-0.5,-0.5,linear,100,0.025,0,0.5,TRUE,6,fixmodel,0.8488,-7.539121066880621e-4,0.006944177633974151,0,10000
10,250,0,225,450,675,900,1125,1350,1575,1800,2025,2,0,1,0.25,0.25,0.25,0.25,0.25,0.25,0.25,0.25,0.25,0.25,-0.5,-0.5,-0.5,-0.5,-0.5,-0.5,-0.5,-0.5,-0.5,-0.5,-0.5,linear,100,0.025,0,0.5,TRUE,6,poolmodel,0.3539,-0.129353407218275,0.022390879456088926,0,10000
10,250,0,225,450,675,900,1125,1350,1575,1800,2025,2,0,1,0.25,0.25,0.25,0.25,0.25,0.25,0.25,0.25,0.25,0.25,-0.5,-0.5,-0.5,-0.5,-0.5,-0.5,-0.5,-0.5,-0.5,-0.5,-0.5,linear,100,0.025,0,0.5,TRUE,6,sepmodel,0.7931,-4.3999330778527964e-4,0.007949546477810045,0,10000
10,250,0,225,450,675,900,1125,1350,1575,1800,2025,2,0,1,0.25,0.25,0.25,0.25,0.25,0.25,0.25,0.25,0.25,0.25,-0.5,-0.5,-0.5,-0.5,-0.5,-0.5,-0.5,-0.5,-0.5,-0.5,-0.5,linear,100,0.025,0,0.5,TRUE,7,fixmodel,0.8397,-0.0017226962314315613,0.007224809018966838,0,10000
10,250,0,225,450,675,900,1125,1350,1575,1800,2025,2,0,1,0.25,0.25,0.25,0.25,0.25,0.25,0.25,0.25,0.25,0.25,-0.5,-0.5,-0.5,-0.5,-0.5,-0.5,-0.5,-0.5,-0.5,-0.5,-0.5,linear,100,0.025,0,0.5,TRUE,7,poolmodel,0.2497,-0.15295465872794736,0.029138317720117612,0,10000
10,250,0,225,450,675,900,1125,1350,1575,1800,2025,2,0,1,0.25,0.25,0.25,0.25,0.25,0.25,0.25,0.25,0.25,0.25,-0.5,-0.5,-0.5,-0.5,-0.5,-0.5,-0.5,-0.5,-0.5,-0.5,-0.5,linear,100,0.025,0,0.5,TRUE,7,sepmodel,0.7839,-0.0011537077986290927,0.008278905625880713,0,10000
10,250,0,225,450,675,900,1125,1350,1575,1800,2025,2,0,1,0.25,0.25,0.25,0.25,0.25,0.25,0.25,0.25,0.25,0.25,-0.5,-0.5,-0.5,-0.5,-0.5,-0.5,-0.5,-0.5,-0.5,-0.5,-0.5,linear,100,0.025,0,0.5,TRUE,8,fixmodel,0.8604,8.695234790818407e-4,0.006850870135052139,0,10000
10,250,0,225,450,675,900,1125,1350,1575,1800,2025,2,0,1,0.25,0.25,0.25,0.25,0.25,0.25,0.25,0.25,0.25,0.25,-0.5,-0.5,-0.5,-0.5,-0.5,-0.5,-0.5,-0.5,-0.5,-0.5,-0.5,linear,100,0.025,0,0.5,TRUE,8,poolmodel,0.1786,-0.17029115174942835,0.034477165745056285,0,10000
10,250,0,225,450,675,900,1125,1350,1575,1800,2025,2,0,1,0.25,0.25,0.25,0.25,0.25,0.25,0.25,0.25,0.25,0.25,-0.5,-0.5,-0.5,-0.5,-0.5,-0.5,-0.5,-0.5,-0.5,-0.5,-0.5,linear,100,0.025,0,0.5,TRUE,8,sepmodel,0.804,0.0010169857147693307,0.007925288532141085,0,10000
10,250,0,225,450,675,900,1125,1350,1575,1800,2025,2,0,1,0.25,0.25,0.25,0.25,0.25,0.25,0.25,0.25,0.25,0.25,-0.5,-0.5,-0.5,-0.5,-0.5,-0.5,-0.5,-0.5,-0.5,-0.5,-0.5,linear,100,0.025,0,0.5,TRUE,9,fixmodel,0.8564,3.02143867742124e-4,0.0068180517674185604,0,10000
10,250,0,225,450,675,900,1125,1350,1575,1800,2025,2,0,1,0.25,0.25,0.25,0.25,0.25,0.25,0.25,0.25,0.25,0.25,-0.5,-0.5,-0.5,-0.5,-0.5,-0.5,-0.5,-0.5,-0.5,-0.5,-0.5,linear,100,0.025,0,0.5,TRUE,9,poolmodel,0.1314,-0.18771669616527592,0.040687414435670144,0,10000
10,250,0,225,450,675,900,1125,1350,1575,1800,2025,2,0,1,0.25,0.25,0.25,0.25,0.25,0.25,0.25,0.25,0.25,0.25,-0.5,-0.5,-0.5,-0.5,-0.5,-0.5,-0.5,-0.5,-0.5,-0.5,-0.5,linear,100,0.025,0,0.5,TRUE,9,sepmodel,0.8008,6.039976394594145e-4,0.00792848778467457,0,10000
10,250,0,225,450,675,900,1125,1350,1575,1800,2025,2,0,1,0.25,0.25,0.25,0.25,0.25,0.25,0.25,0.25,0.25,0.25,-0.5,-0.5,-0.5,-0.5,-0.5,-0.5,-0.5,-0.5,-0.5,-0.5,-0.5,linear,100,0.025,0,0.5,TRUE,10,fixmodel,0.8608,8.091384052960357e-4,0.006802888678581093,0,10000
10,250,0,225,450,675,900,1125,1350,1575,1800,2025,2,0,1,0.25,0.25,0.25,0.25,0.25,0.25,0.25,0.25,0.25,0.25,-0.5,-0.5,-0.5,-0.5,-0.5,-0.5,-0.5,-0.5,-0.5,-0.5,-0.5,linear,100,0.025,0,0.5,TRUE,10,poolmodel,0.0989,-0.200588696065942,0.04568262423393233,0,10000
10,250,0,225,450,675,900,1125,1350,1575,1800,2025,2,0,1,0.25,0.25,0.25,0.25,0.25,0.25,0.25,0.25,0.25,0.25,-0.5,-0.5,-0.5,-0.5,-0.5,-0.5,-0.5,-0.5,-0.5,-0.5,-0.5,linear,100,0.025,0,0.5,TRUE,10,sepmodel,0.7992,0.001141940682667015,0.007983867237738787,0,10000
10,250,0,250,500,750,1000,1250,1500,1750,2000,2250,2,0,1,0.25,0.25,0.25,0.25,0.25,0.25,0.25,0.25,0.25,0.25,-0.5,-0.5,-0.5,-0.5,-0.5,-0.5,-0.5,-0.5,-0.5,-0.5,-0.5,linear,100,0.025,0,0.5,TRUE,2,fixmodel,0.8255,6.815222026471306e-4,0.007414185094554786,0,10000
10,250,0,250,500,750,1000,1250,1500,1750,2000,2250,2,0,1,0.25,0.25,0.25,0.25,0.25,0.25,0.25,0.25,0.25,0.25,-0.5,-0.5,-0.5,-0.5,-0.5,-0.5,-0.5,-0.5,-0.5,-0.5,-0.5,linear,100,0.025,0,0.5,TRUE,2,poolmodel,0.7761,-0.02750002578984747,0.007408678218605269,0,10000
10,250,0,250,500,750,1000,1250,1500,1750,2000,2250,2,0,1,0.25,0.25,0.25,0.25,0.25,0.25,0.25,0.25,0.25,0.25,-0.5,-0.5,-0.5,-0.5,-0.5,-0.5,-0.5,-0.5,-0.5,-0.5,-0.5,linear,100,0.025,0,0.5,TRUE,2,sepmodel,0.7965,4.596319944622128e-4,0.008029597043177709,0,10000
10,250,0,250,500,750,1000,1250,1500,1750,2000,2250,2,0,1,0.25,0.25,0.25,0.25,0.25,0.25,0.25,0.25,0.25,0.25,-0.5,-0.5,-0.5,-0.5,-0.5,-0.5,-0.5,-0.5,-0.5,-0.5,-0.5,linear,100,0.025,0,0.5,TRUE,3,fixmodel,0.8295,9.336271080917738e-4,0.007342972941057292,0,10000
10,250,0,250,500,750,1000,1250,1500,1750,2000,2250,2,0,1,0.25,0.25,0.25,0.25,0.25,0.25,0.25,0.25,0.25,0.25,-0.5,-0.5,-0.5,-0.5,-0.5,-0.5,-0.5,-0.5,-0.5,-0.5,-0.5,linear,100,0.025,0,0.5,TRUE,3,poolmodel,0.7025,-0.05324678157368299,0.009067187632841103,0,10000
10,250,0,250,500,750,1000,1250,1500,1750,2000,2250,2,0,1,0.25,0.25,0.25,0.25,0.25,0.25,0.25,0.25,0.25,0.25,-0.5,-0.5,-0.5,-0.5,-0.5,-0.5,-0.5,-0.5,-0.5,-0.5,-0.5,linear,100,0.025,0,0.5,TRUE,3,sepmodel,0.7952,6.649504608798592e-4,0.008008539600849816,0,10000
10,250,0,250,500,750,1000,1250,1500,1750,2000,2250,2,0,1,0.25,0.25,0.25,0.25,0.25,0.25,0.25,0.25,0.25,0.25,-0.5,-0.5,-0.5,-0.5,-0.5,-0.5,-0.5,-0.5,-0.5,-0.5,-0.5,linear,100,0.025,0,0.5,TRUE,4,fixmodel,0.8456,0.0029262397214118137,0.007320098892040185,0,10000
10,250,0,250,500,750,1000,1250,1500,1750,2000,2250,2,0,1,0.25,0.25,0.25,0.25,0.25,0.25,0.25,0.25,0.25,0.25,-0.5,-0.5,-0.5,-0.5,-0.5,-0.5,-0.5,-0.5,-0.5,-0.5,-0.5,linear,100,0.025,0,0.5,TRUE,4,poolmodel,0.6106,-0.0763625031472747,0.0118302674705556,0,10000
10,250,0,250,500,750,1000,1250,1500,1750,2000,2250,2,0,1,0.25,0.25,0.25,0.25,0.25,0.25,0.25,0.25,0.25,0.25,-0.5,-0.5,-0.5,-0.5,-0.5,-0.5,-0.5,-0.5,-0.5,-0.5,-0.5,linear,100,0.025,0,0.5,TRUE,4,sepmodel,0.8083,0.002714810032306957,0.008049250019983986,0,10000
10,250,0,250,500,750,1000,1250,1500,1750,2000,2250,2,0,1,0.25,0.25,0.25,0.25,0.25,0.25,0.25,0.25,0.25,0.25,-0.5,-0.5,-0.5,-0.5,-0.5,-0.5,-0.5,-0.5,-0.5,-0.5,-0.5,linear,100,0.025,0,0.5,TRUE,5,fixmodel,0.8519,0.0019744470215802595,0.006998625852091505,0,10000
10,250,0,250,500,750,1000,1250,1500,1750,2000,2250,2,0,1,0.25,0.25,0.25,0.25,0.25,0.25,0.25,0.25,0.25,0.25,-0.5,-0.5,-0.5,-0.5,-0.5,-0.5,-0.5,-0.5,-0.5,-0.5,-0.5,linear,100,0.025,0,0.5,TRUE,5,poolmodel,0.4897,-0.10336832618860879,0.016282768944555572,0,10000
10,250,0,250,500,750,1000,1250,1500,1750,2000,2250,2,0,1,0.25,0.25,0.25,0.25,0.25,0.25,0.25,0.25,0.25,0.25,-0.5,-0.5,-0.5,-0.5,-0.5,-0.5,-0.5,-0.5,-0.5,-0.5,-0.5,linear,100,0.025,0,0.5,TRUE,5,sepmodel,0.8018,0.0012806898077361553,0.007926429498551636,0,10000
10,250,0,250,500,750,1000,1250,1500,1750,2000,2250,2,0,1,0.25,0.25,0.25,0.25,0.25,0.25,0.25,0.25,0.25,0.25,-0.5,-0.5,-0.5,-0.5,-0.5,-0.5,-0.5,-0.5,-0.5,-0.5,-0.5,linear,100,0.025,0,0.5,TRUE,6,fixmodel,0.8483,1.963073011313599e-4,0.006972813956499114,0,10000
10,250,0,250,500,750,1000,1250,1500,1750,2000,2250,2,0,1,0.25,0.25,0.25,0.25,0.25,0.25,0.25,0.25,0.25,0.25,-0.5,-0.5,-0.5,-0.5,-0.5,-0.5,-0.5,-0.5,-0.5,-0.5,-0.5,linear,100,0.025,0,0.5,TRUE,6,poolmodel,0.3644,-0.12957372574632195,0.022373775211075614,0,10000
10,250,0,250,500,750,1000,1250,1500,1750,2000,2250,2,0,1,0.25,0.25,0.25,0.25,0.25,0.25,0.25,0.25,0.25,0.25,-0.5,-0.5,-0.5,-0.5,-0.5,-0.5,-0.5,-0.5,-0.5,-0.5,-0.5,linear,100,0.025,0,0.5,TRUE,6,sepmodel,0.7976,-3.534314787632441e-4,0.00786403365733885,0,10000
10,250,0,250,500,750,1000,1250,1500,1750,2000,2250,2,0,1,0.25,0.25,0.25,0.25,0.25,0.25,0.25,0.25,0.25,0.25,-0.5,-0.5,-0.5,-0.5,-0.5,-0.5,-0.5,-0.5,-0.5,-0.5,-0.5,linear,100,0.025,0,0.5,TRUE,7,fixmodel,0.8497,-4.1807348878960735e-4,0.006961579229269677,0,10000
10,250,0,250,500,750,1000,1250,1500,1750,2000,2250,2,0,1,0.25,0.25,0.25,0.25,0.25,0.25,0.25,0.25,0.25,0.25,-0.5,-0.5,-0.5,-0.5,-0.5,-0.5,-0.5,-0.5,-0.5,-0.5,-0.5,linear,100,0.025,0,0.5,TRUE,7,poolmodel,0.246,-0.15405137518093365,0.02923102670030762,0,10000
10,250,0,250,500,750,1000,1250,1500,1750,2000,2250,2,0,1,0.25,0.25,0.25,0.25,0.25,0.25,0.25,0.25,0.25,0.25,-0.5,-0.5,-0.5,-0.5,-0.5,-0.5,-0.5,-0.5,-0.5,-0.5,-0.5,linear,100,0.025,0,0.5,TRUE,7,sepmodel,0.7928,-9.899694157769643e-4,0.007939573130530364,0,10000
10,250,0,250,500,750,1000,1250,1500,1750,2000,2250,2,0,1,0.25,0.25,0.25,0.25,0.25,0.25,0.25,0.25,0.25,0.25,-0.5,-0.5,-0.5,-0.5,-0.5,-0.5,-0.5,-0.5,-0.5,-0.5,-0.5,linear,100,0.025,0,0.5,TRUE,8,fixmodel,0.8541,-7.477246288290308e-4,0.006811945492622955,0,10000
10,250,0,250,500,750,1000,1250,1500,1750,2000,2250,2,0,1,0.25,0.25,0.25,0.25,0.25,0.25,0.25,0.25,0.25,0.25,-0.5,-0.5,-0.5,-0.5,-0.5,-0.5,-0.5,-0.5,-0.5,-0.5,-0.5,linear,100,0.025,0,0.5,TRUE,8,poolmodel,0.1633,-0.17620585417349852,0.03632097366132096,0,10000
10,250,0,250,500,750,1000,1250,1500,1750,2000,2250,2,0,1,0.25,0.25,0.25,0.25,0.25,0.25,0.25,0.25,0.25,0.25,-0.5,-0.5,-0.5,-0.5,-0.5,-0.5,-0.5,-0.5,-0.5,-0.5,-0.5,linear,100,0.025,0,0.5,TRUE,8,sepmodel,0.7961,-0.0012624510043299424,0.007899677209682794,0,10000
10,250,0,250,500,750,1000,1250,1500,1750,2000,2250,2,0,1,0.25,0.25,0.25,0.25,0.25,0.25,0.25,0.25,0.25,0.25,-0.5,-0.5,-0.5,-0.5,-0.5,-0.5,-0.5,-0.5,-0.5,-0.5,-0.5,linear,100,0.025,0,0.5,TRUE,9,fixmodel,0.8509,1.4982406575316803e-5,0.006958482284591664,0,10000
10,250,0,250,500,750,1000,1250,1500,1750,2000,2250,2,0,1,0.25,0.25,0.25,0.25,0.25,0.25,0.25,0.25,0.25,0.25,-0.5,-0.5,-0.5,-0.5,-0.5,-0.5,-0.5,-0.5,-0.5,-0.5,-0.5,linear,100,0.025,0,0.5,TRUE,9,poolmodel,0.1174,-0.19371452095797131,0.0428944815828043,0,10000
10,250,0,250,500,750,1000,1250,1500,1750,2000,2250,2,0,1,0.25,0.25,0.25,0.25,0.25,0.25,0.25,0.25,0.25,0.25,-0.5,-0.5,-0.5,-0.5,-0.5,-0.5,-0.5,-0.5,-0.5,-0.5,-0.5,linear,100,0.025,0,0.5,TRUE,9,sepmodel,0.7926,-4.919260325367176e-4,0.008144367509641374,0,10000
10,250,0,250,500,750,1000,1250,1500,1750,2000,2250,2,0,1,0.25,0.25,0.25,0.25,0.25,0.25,0.25,0.25,0.25,0.25,-0.5,-0.5,-0.5,-0.5,-0.5,-0.5,-0.5,-0.5,-0.5,-0.5,-0.5,linear,100,0.025,0,0.5,TRUE,10,fixmodel,0.8545,2.5149884365346405e-4,0.006829762629938329,0,10000
10,250,0,250,500,750,1000,1250,1500,1750,2000,2250,2,0,1,0.25,0.25,0.25,0.25,0.25,0.25,0.25,0.25,0.25,0.25,-0.5,-0.5,-0.5,-0.5,-0.5,-0.5,-0.5,-0.5,-0.5,-0.5,-0.5,linear,100,0.025,0,0.5,TRUE,10,poolmodel,0.0802,-0.20865039123279214,0.04873362364499016,0,10000
10,250,0,250,500,750,1000,1250,1500,1750,2000,2250,2,0,1,0.25,0.25,0.25,0.25,0.25,0.25,0.25,0.25,0.25,0.25,-0.5,-0.5,-0.5,-0.5,-0.5,-0.5,-0.5,-0.5,-0.5,-0.5,-0.5,linear,100,0.025,0,0.5,TRUE,10,sepmodel,0.7926,6.891684219609322e-5,0.008018069281076458,0,10000
10,250,0,275,550,825,1100,1375,1650,1925,2200,2475,2,0,1,0.25,0.25,0.25,0.25,0.25,0.25,0.25,0.25,0.25,0.25,-0.5,-0.5,-0.5,-0.5,-0.5,-0.5,-0.5,-0.5,-0.5,-0.5,-0.5,linear,100,0.025,0,0.5,TRUE,2,fixmodel,0.8334,0.0011679427625888603,0.007496372085498287,0,10000
10,250,0,275,550,825,1100,1375,1650,1925,2200,2475,2,0,1,0.25,0.25,0.25,0.25,0.25,0.25,0.25,0.25,0.25,0.25,-0.5,-0.5,-0.5,-0.5,-0.5,-0.5,-0.5,-0.5,-0.5,-0.5,-0.5,linear,100,0.025,0,0.5,TRUE,2,poolmodel,0.7836,-0.02671725257739841,0.007395436803386474,0,10000
10,250,0,275,550,825,1100,1375,1650,1925,2200,2475,2,0,1,0.25,0.25,0.25,0.25,0.25,0.25,0.25,0.25,0.25,0.25,-0.5,-0.5,-0.5,-0.5,-0.5,-0.5,-0.5,-0.5,-0.5,-0.5,-0.5,linear,100,0.025,0,0.5,TRUE,2,sepmodel,0.8029,0.0012750068906134517,0.008102998327206935,0,10000
10,250,0,275,550,825,1100,1375,1650,1925,2200,2475,2,0,1,0.25,0.25,0.25,0.25,0.25,0.25,0.25,0.25,0.25,0.25,-0.5,-0.5,-0.5,-0.5,-0.5,-0.5,-0.5,-0.5,-0.5,-0.5,-0.5,linear,100,0.025,0,0.5,TRUE,3,fixmodel,0.833,8.555199494073064e-5,0.007198260950771735,0,10000
10,250,0,275,550,825,1100,1375,1650,1925,2200,2475,2,0,1,0.25,0.25,0.25,0.25,0.25,0.25,0.25,0.25,0.25,0.25,-0.5,-0.5,-0.5,-0.5,-0.5,-0.5,-0.5,-0.5,-0.5,-0.5,-0.5,linear,100,0.025,0,0.5,TRUE,3,poolmodel,0.7149,-0.05289010533199203,0.008820196707354544,0,10000
10,250,0,275,550,825,1100,1375,1650,1925,2200,2475,2,0,1,0.25,0.25,0.25,0.25,0.25,0.25,0.25,0.25,0.25,0.25,-0.5,-0.5,-0.5,-0.5,-0.5,-0.5,-0.5,-0.5,-0.5,-0.5,-0.5,linear,100,0.025,0,0.5,TRUE,3,sepmodel,0.79990000000000006,7.064286919020933e-5,0.00786422758471494,0,10000
10,250,0,275,550,825,1100,1375,1650,1925,2200,2475,2,0,1,0.25,0.25,0.25,0.25,0.25,0.25,0.25,0.25,0.25,0.25,-0.5,-0.5,-0.5,-0.5,-0.5,-0.5,-0.5,-0.5,-0.5,-0.5,-0.5,linear,100,0.025,0,0.5,TRUE,4,fixmodel,0.8392,5.646961176068004e-4,0.007409372146496368,0,10000
10,250,0,275,550,825,1100,1375,1650,1925,2200,2475,2,0,1,0.25,0.25,0.25,0.25,0.25,0.25,0.25,0.25,0.25,0.25,-0.5,-0.5,-0.5,-0.5,-0.5,-0.5,-0.5,-0.5,-0.5,-0.5,-0.5,linear,100,0.025,0,0.5,TRUE,4,poolmodel,0.6131,-0.07898718216133559,0.012139230113964856,0,10000
10,250,0,275,550,825,1100,1375,1650,1925,2200,2475,2,0,1,0.25,0.25,0.25,0.25,0.25,0.25,0.25,0.25,0.25,0.25,-0.5,-0.5,-0.5,-0.5,-0.5,-0.5,-0.5,-0.5,-0.5,-0.5,-0.5,linear,100,0.025,0,0.5,TRUE,4,sepmodel,0.7968,7.647835335037181e-4,0.00814604398580953,0,10000
10,250,0,275,550,825,1100,1375,1650,1925,2200,2475,2,0,1,0.25,0.25,0.25,0.25,0.25,0.25,0.25,0.25,0.25,0.25,-0.5,-0.5,-0.5,-0.5,-0.5,-0.5,-0.5,-0.5,-0.5,-0.5,-0.5,linear,100,0.025,0,0.5,TRUE,5,fixmodel,0.844,7.959807379226653e-4,0.007140911877291194,0,10000
10,250,0,275,550,825,1100,1375,1650,1925,2200,2475,2,0,1,0.25,0.25,0.25,0.25,0.25,0.25,0.25,0.25,0.25,0.25,-0.5,-0.5,-0.5,-0.5,-0.5,-0.5,-0.5,-0.5,-0.5,-0.5,-0.5,linear,100,0.025,0,0.5,TRUE,5,poolmodel,0.498,-0.10341652936015969,0.0162817449981142,0,10000
10,250,0,275,550,825,1100,1375,1650,1925,2200,2475,2,0,1,0.25,0.25,0.25,0.25,0.25,0.25,0.25,0.25,0.25,0.25,-0.5,-0.5,-0.5,-0.5,-0.5,-0.5,-0.5,-0.5,-0.5,-0.5,-0.5,linear,100,0.025,0,0.5,TRUE,5,sepmodel,0.7992,9.16119189274201e-4,0.007969995097722877,0,10000
10,250,0,275,550,825,1100,1375,1650,1925,2200,2475,2,0,1,0.25,0.25,0.25,0.25,0.25,0.25,0.25,0.25,0.25,0.25,-0.5,-0.5,-0.5,-0.5,-0.5,-0.5,-0.5,-0.5,-0.5,-0.5,-0.5,linear,100,0.025,0,0.5,TRUE,6,fixmodel,0.8481,-2.3603458264578962e-4,0.007076337783303021,0,10000
10,250,0,275,550,825,1100,1375,1650,1925,2200,2475,2,0,1,0.25,0.25,0.25,0.25,0.25,0.25,0.25,0.25,0.25,0.25,-0.5,-0.5,-0.5,-0.5,-0.5,-0.5,-0.5,-0.5,-0.5,-0.5,-0.5,linear,100,0.025,0,0.5,TRUE,6,poolmodel,0.3752,-0.13009249850450508,0.022359751736122306,0,10000
10,250,0,275,550,825,1100,1375,1650,1925,2200,2475,2,0,1,0.25,0.25,0.25,0.25,0.25,0.25,0.25,0.25,0.25,0.25,-0.5,-0.5,-0.5,-0.5,-0.5,-0.5,-0.5,-0.5,-0.5,-0.5,-0.5,linear,100,0.025,0,0.5,TRUE,6,sepmodel,0.7971,-1.8662261080821477e-4,0.007992003559899161,0,10000
10,250,0,275,550,825,1100,1375,1650,1925,2200,2475,2,0,1,0.25,0.25,0.25,0.25,0.25,0.25,0.25,0.25,0.25,0.25,-0.5,-0.5,-0.5,-0.5,-0.5,-0.5,-0.5,-0.5,-0.5,-0.5,-0.5,linear,100,0.025,0,0.5,TRUE,7,fixmodel,0.8447,6.674764883837508e-4,0.007145851575926801,0,10000
10,250,0,275,550,825,1100,1375,1650,1925,2200,2475,2,0,1,0.25,0.25,0.25,0.25,0.25,0.25,0.25,0.25,0.25,0.25,-0.5,-0.5,-0.5,-0.5,-0.5,-0.5,-0.5,-0.5,-0.5,-0.5,-0.5,linear,100,0.025,0,0.5,TRUE,7,poolmodel,0.2507,-0.1545950394544353,0.029361200518792343,0,10000
10,250,0,275,550,825,1100,1375,1650,1925,2200,2475,2,0,1,0.25,0.25,0.25,0.25,0.25,0.25,0.25,0.25,0.25,0.25,-0.5,-0.5,-0.5,-0.5,-0.5,-0.5,-0.5,-0.5,-0.5,-0.5,-0.5,linear,100,0.025,0,0.5,TRUE,7,sepmodel,0.7964,7.320663924620672e-4,0.008177237842471251,0,10000
10,250,0,275,550,825,1100,1375,1650,1925,2200,2475,2,0,1,0.25,0.25,0.25,0.25,0.25,0.25,0.25,0.25,0.25,0.25,-0.5,-0.5,-0.5,-0.5,-0.5,-0.5,-0.5,-0.5,-0.5,-0.5,-0.5,linear,100,0.025,0,0.5,TRUE,8,fixmodel,0.8484,8.613449364421809e-4,0.007102520096805291,0,10000
10,250,0,275,550,825,1100,1375,1650,1925,2200,2475,2,0,1,0.25,0.25,0.25,0.25,0.25,0.25,0.25,0.25,0.25,0.25,-0.5,-0.5,-0.5,-0.5,-0.5,-0.5,-0.5,-0.5,-0.5,-0.5,-0.5,linear,100,0.025,0,0.5,TRUE,8,poolmodel,0.1687,-0.17690192683160996,0.03655564827083823,0,10000
10,250,0,275,550,825,1100,1375,1650,1925,2200,2475,2,0,1,0.25,0.25,0.25,0.25,0.25,0.25,0.25,0.25,0.25,0.25,-0.5,-0.5,-0.5,-0.5,-0.5,-0.5,-0.5,-0.5,-0.5,-0.5,-0.5,linear,100,0.025,0,0.5,TRUE,8,sepmodel,0.7992,0.0011165194269912619,0.008102573881193344,0,10000
10,250,0,275,550,825,1100,1375,1650,1925,2200,2475,2,0,1,0.25,0.25,0.25,0.25,0.25,0.25,0.25,0.25,0.25,0.25,-0.5,-0.5,-0.5,-0.5,-0.5,-0.5,-0.5,-0.5,-0.5,-0.5,-0.5,linear,100,0.025,0,0.5,TRUE,9,fixmodel,0.8501,7.425890592356649e-4,0.0069476344101641165,0,10000
10,250,0,275,550,825,1100,1375,1650,1925,2200,2475,2,0,1,0.25,0.25,0.25,0.25,0.25,0.25,0.25,0.25,0.25,0.25,-0.5,-0.5,-0.5,-0.5,-0.5,-0.5,-0.5,-0.5,-0.5,-0.5,-0.5,linear,100,0.025,0,0.5,TRUE,9,poolmodel,0.1081,-0.19732641525689312,0.04404281816851713,0,10000
10,250,0,275,550,825,1100,1375,1650,1925,2200,2475,2,0,1,0.25,0.25,0.25,0.25,0.25,0.25,0.25,0.25,0.25,0.25,-0.5,-0.5,-0.5,-0.5,-0.5,-0.5,-0.5,-0.5,-0.5,-0.5,-0.5,linear,100,0.025,0,0.5,TRUE,9,sepmodel,0.8011,8.877215407804125e-4,0.007999743625715927,0,10000
10,250,0,275,550,825,1100,1375,1650,1925,2200,2475,2,0,1,0.25,0.25,0.25,0.25,0.25,0.25,0.25,0.25,0.25,0.25,-0.5,-0.5,-0.5,-0.5,-0.5,-0.5,-0.5,-0.5,-0.5,-0.5,-0.5,linear,100,0.025,0,0.5,TRUE,10,fixmodel,0.8566,0.0016148160826311756,0.007021724444326313,0,10000
10,250,0,275,550,825,1100,1375,1650,1925,2200,2475,2,0,1,0.25,0.25,0.25,0.25,0.25,0.25,0.25,0.25,0.25,0.25,-0.5,-0.5,-0.5,-0.5,-0.5,-0.5,-0.5,-0.5,-0.5,-0.5,-0.5,linear,100,0.025,0,0.5,TRUE,10,poolmodel,0.0734,-0.21245055309222716,0.05022441753059592,0,10000
10,250,0,275,550,825,1100,1375,1650,1925,2200,2475,2,0,1,0.25,0.25,0.25,0.25,0.25,0.25,0.25,0.25,0.25,0.25,-0.5,-0.5,-0.5,-0.5,-0.5,-0.5,-0.5,-0.5,-0.5,-0.5,-0.5,linear,100,0.025,0,0.5,TRUE,10,sepmodel,0.8027,0.0016158671534486529,0.008053213741328672,0,10000
10,250,0,300,600,900,1200,1500,1800,2100,2400,2700,2,0,1,0.25,0.25,0.25,0.25,0.25,0.25,0.25,0.25,0.25,0.25,-0.5,-0.5,-0.5,-0.5,-0.5,-0.5,-0.5,-0.5,-0.5,-0.5,-0.5,linear,100,0.025,0,0.5,TRUE,2,fixmodel,0.8273,0.002096699879150539,0.007545873266437371,0,10000
10,250,0,300,600,900,1200,1500,1800,2100,2400,2700,2,0,1,0.25,0.25,0.25,0.25,0.25,0.25,0.25,0.25,0.25,0.25,-0.5,-0.5,-0.5,-0.5,-0.5,-0.5,-0.5,-0.5,-0.5,-0.5,-0.5,linear,100,0.025,0,0.5,TRUE,2,poolmodel,0.7921,-0.026349423775201868,0.007207311459182606,0,10000
10,250,0,300,600,900,1200,1500,1800,2100,2400,2700,2,0,1,0.25,0.25,0.25,0.25,0.25,0.25,0.25,0.25,0.25,0.25,-0.5,-0.5,-0.5,-0.5,-0.5,-0.5,-0.5,-0.5,-0.5,-0.5,-0.5,linear,100,0.025,0,0.5,TRUE,2,sepmodel,0.8009,0.0020550565146576424,0.008040778649997114,0,10000
10,250,0,300,600,900,1200,1500,1800,2100,2400,2700,2,0,1,0.25,0.25,0.25,0.25,0.25,0.25,0.25,0.25,0.25,0.25,-0.5,-0.5,-0.5,-0.5,-0.5,-0.5,-0.5,-0.5,-0.5,-0.5,-0.5,linear,100,0.025,0,0.5,TRUE,3,fixmodel,0.8292,2.6223700923231475e-4,0.007316821164010095,0,10000
10,250,0,300,600,900,1200,1500,1800,2100,2400,2700,2,0,1,0.25,0.25,0.25,0.25,0.25,0.25,0.25,0.25,0.25,0.25,-0.5,-0.5,-0.5,-0.5,-0.5,-0.5,-0.5,-0.5,-0.5,-0.5,-0.5,linear,100,0.025,0,0.5,TRUE,3,poolmodel,0.7219,-0.05173360627756979,0.008481472590167136,0,10000
10,250,0,300,600,900,1200,1500,1800,2100,2400,2700,2,0,1,0.25,0.25,0.25,0.25,0.25,0.25,0.25,0.25,0.25,0.25,-0.5,-0.5,-0.5,-0.5,-0.5,-0.5,-0.5,-0.5,-0.5,-0.5,-0.5,linear,100,0.025,0,0.5,TRUE,3,sepmodel,0.8017,4.935240073989957e-4,0.007885074825844706,0,10000
10,250,0,300,600,900,1200,1500,1800,2100,2400,2700,2,0,1,0.25,0.25,0.25,0.25,0.25,0.25,0.25,0.25,0.25,0.25,-0.5,-0.5,-0.5,-0.5,-0.5,-0.5,-0.5,-0.5,-0.5,-0.5,-0.5,linear,100,0.025,0,0.5,TRUE,4,fixmodel,0.8336,4.429915597265352e-4,0.007239403102374216,0,10000
10,250,0,300,600,900,1200,1500,1800,2100,2400,2700,2,0,1,0.25,0.25,0.25,0.25,0.25,0.25,0.25,0.25,0.25,0.25,-0.5,-0.5,-0.5,-0.5,-0.5,-0.5,-0.5,-0.5,-0.5,-0.5,-0.5,linear,100,0.025,0,0.5,TRUE,4,poolmodel,0.6218,-0.07813166896792788,0.01182643965973417,0,10000
10,250,0,300,600,900,1200,1500,1800,2100,2400,2700,2,0,1,0.25,0.25,0.25,0.25,0.25,0.25,0.25,0.25,0.25,0.25,-0.5,-0.5,-0.5,-0.5,-0.5,-0.5,-0.5,-0.5,-0.5,-0.5,-0.5,linear,100,0.025,0,0.5,TRUE,4,sepmodel,0.7976,3.066746348656637e-4,0.008039043564935764,0,10000
10,250,0,300,600,900,1200,1500,1800,2100,2400,2700,2,0,1,0.25,0.25,0.25,0.25,0.25,0.25,0.25,0.25,0.25,0.25,-0.5,-0.5,-0.5,-0.5,-0.5,-0.5,-0.5,-0.5,-0.5,-0.5,-0.5,linear,100,0.025,0,0.5,TRUE,5,fixmodel,0.836,7.045591814222744e-4,0.007219953615542483,0,10000
10,250,0,300,600,900,1200,1500,1800,2100,2400,2700,2,0,1,0.25,0.25,0.25,0.25,0.25,0.25,0.25,0.25,0.25,0.25,-0.5,-0.5,-0.5,-0.5,-0.5,-0.5,-0.5,-0.5,-0.5,-0.5,-0.5,linear,100,0.025,0,0.5,TRUE,5,poolmodel,0.5096,-0.10308015105809146,0.016201686672716854,0,10000
10,250,0,300,600,900,1200,1500,1800,2100,2400,2700,2,0,1,0.25,0.25,0.25,0.25,0.25,0.25,0.25,0.25,0.25,0.25,-0.5,-0.5,-0.5,-0.5,-0.5,-0.5,-0.5,-0.5,-0.5,-0.5,-0.5,linear,100,0.025,0,0.5,TRUE,5,sepmodel,0.7968,7.824278774618997e-4,0.008003566783207775,0,10000
10,250,0,300,600,900,1200,1500,1800,2100,2400,2700,2,0,1,0.25,0.25,0.25,0.25,0.25,0.25,0.25,0.25,0.25,0.25,-0.5,-0.5,-0.5,-0.5,-0.5,-0.5,-0.5,-0.5,-0.5,-0.5,-0.5,linear,100,0.025,0,0.5,TRUE,6,fixmodel,0.8414,-2.0990750298689344e-4,0.007179731180884647,0,10000
10,250,0,300,600,900,1200,1500,1800,2100,2400,2700,2,0,1,0.25,0.25,0.25,0.25,0.25,0.25,0.25,0.25,0.25,0.25,-0.5,-0.5,-0.5,-0.5,-0.5,-0.5,-0.5,-0.5,-0.5,-0.5,-0.5,linear,100,0.025,0,0.5,TRUE,6,poolmodel,0.3773,-0.12874062404961106,0.02190465379806109,0,10000
10,250,0,300,600,900,1200,1500,1800,2100,2400,2700,2,0,1,0.25,0.25,0.25,0.25,0.25,0.25,0.25,0.25,0.25,0.25,-0.5,-0.5,-0.5,-0.5,-0.5,-0.5,-0.5,-0.5,-0.5,-0.5,-0.5,linear,100,0.025,0,0.5,TRUE,6,sepmodel,0.8006,4.767225656880936e-4,0.007953143427668424,0,10000
10,250,0,300,600,900,1200,1500,1800,2100,2400,2700,2,0,1,0.25,0.25,0.25,0.25,0.25,0.25,0.25,0.25,0.25,0.25,-0.5,-0.5,-0.5,-0.5,-0.5,-0.5,-0.5,-0.5,-0.5,-0.5,-0.5,linear,100,0.025,0,0.5,TRUE,7,fixmodel,0.8408,-6.373485619160041e-4,0.007107348367443193,0,10000
10,250,0,300,600,900,1200,1500,1800,2100,2400,2700,2,0,1,0.25,0.25,0.25,0.25,0.25,0.25,0.25,0.25,0.25,0.25,-0.5,-0.5,-0.5,-0.5,-0.5,-0.5,-0.5,-0.5,-0.5,-0.5,-0.5,linear,100,0.025,0,0.5,TRUE,7,poolmodel,0.2602,-0.15452663498041813,0.0290476364194998,0,10000
10,250,0,300,600,900,1200,1500,1800,2100,2400,2700,2,0,1,0.25,0.25,0.25,0.25,0.25,0.25,0.25,0.25,0.25,0.25,-0.5,-0.5,-0.5,-0.5,-0.5,-0.5,-0.5,-0.5,-0.5,-0.5,-0.5,linear,100,0.025,0,0.5,TRUE,7,sepmodel,0.7907,-5.461009902179148e-5,0.00799279040732936,0,10000
10,250,0,300,600,900,1200,1500,1800,2100,2400,2700,2,0,1,0.25,0.25,0.25,0.25,0.25,0.25,0.25,0.25,0.25,0.25,-0.5,-0.5,-0.5,-0.5,-0.5,-0.5,-0.5,-0.5,-0.5,-0.5,-0.5,linear,100,0.025,0,0.5,TRUE,8,fixmodel,0.8441,-8.026354371706636e-4,0.007091026074483579,0,10000
10,250,0,300,600,900,1200,1500,1800,2100,2400,2700,2,0,1,0.25,0.25,0.25,0.25,0.25,0.25,0.25,0.25,0.25,0.25,-0.5,-0.5,-0.5,-0.5,-0.5,-0.5,-0.5,-0.5,-0.5,-0.5,-0.5,linear,100,0.025,0,0.5,TRUE,8,poolmodel,0.1632,-0.1793872600263203,0.0373155343271118,0,10000
10,250,0,300,600,900,1200,1500,1800,2100,2400,2700,2,0,1,0.25,0.25,0.25,0.25,0.25,0.25,0.25,0.25,0.25,0.25,-0.5,-0.5,-0.5,-0.5,-0.5,-0.5,-0.5,-0.5,-0.5,-0.5,-0.5,linear,100,0.025,0,0.5,TRUE,8,sepmodel,0.7897,-6.929292053804882e-4,0.007953092446816037,0,10000
10,250,0,300,600,900,1200,1500,1800,2100,2400,2700,2,0,1,0.25,0.25,0.25,0.25,0.25,0.25,0.25,0.25,0.25,0.25,-0.5,-0.5,-0.5,-0.5,-0.5,-0.5,-0.5,-0.5,-0.5,-0.5,-0.5,linear,100,0.025,0,0.5,TRUE,9,fixmodel,0.8393,-0.001153898531638121,0.00718316150508027,0,10000
10,250,0,300,600,900,1200,1500,1800,2100,2400,2700,2,0,1,0.25,0.25,0.25,0.25,0.25,0.25,0.25,0.25,0.25,0.25,-0.5,-0.5,-0.5,-0.5,-0.5,-0.5,-0.5,-0.5,-0.5,-0.5,-0.5,linear,100,0.025,0,0.5,TRUE,9,poolmodel,0.0965,-0.20107384286747976,0.04550187352082534,0,10000
10,250,0,300,600,900,1200,1500,1800,2100,2400,2700,2,0,1,0.25,0.25,0.25,0.25,0.25,0.25,0.25,0.25,0.25,0.25,-0.5,-0.5,-0.5,-0.5,-0.5,-0.5,-0.5,-0.5,-0.5,-0.5,-0.5,linear,100,0.025,0,0.5,TRUE,9,sepmodel,0.7885,-0.0012106353455089796,0.008188054137918411,0,10000
10,250,0,300,600,900,1200,1500,1800,2100,2400,2700,2,0,1,0.25,0.25,0.25,0.25,0.25,0.25,0.25,0.25,0.25,0.25,-0.5,-0.5,-0.5,-0.5,-0.5,-0.5,-0.5,-0.5,-0.5,-0.5,-0.5,linear,100,0.025,0,0.5,TRUE,10,fixmodel,0.8478,6.548538207367643e-4,0.007097846276928417,0,10000
10,250,0,300,600,900,1200,1500,1800,2100,2400,2700,2,0,1,0.25,0.25,0.25,0.25,0.25,0.25,0.25,0.25,0.25,0.25,-0.5,-0.5,-0.5,-0.5,-0.5,-0.5,-0.5,-0.5,-0.5,-0.5,-0.5,linear,100,0.025,0,0.5,TRUE,10,poolmodel,0.0674,-0.21665427886654035,0.0519984525959161,0,10000
10,250,0,300,600,900,1200,1500,1800,2100,2400,2700,2,0,1,0.25,0.25,0.25,0.25,0.25,0.25,0.25,0.25,0.25,0.25,-0.5,-0.5,-0.5,-0.5,-0.5,-0.5,-0.5,-0.5,-0.5,-0.5,-0.5,linear,100,0.025,0,0.5,TRUE,10,sepmodel,0.7954,8.490814450734806e-4,0.008082320147738867,0,10000
10,250,0,325,650,975,1300,1625,1950,2275,2600,2925,2,0,1,0.25,0.25,0.25,0.25,0.25,0.25,0.25,0.25,0.25,0.25,-0.5,-0.5,-0.5,-0.5,-0.5,-0.5,-0.5,-0.5,-0.5,-0.5,-0.5,linear,100,0.025,0,0.5,TRUE,2,fixmodel,0.819,-8.442384570943241e-4,0.007608128124015849,0,10000
10,250,0,325,650,975,1300,1625,1950,2275,2600,2925,2,0,1,0.25,0.25,0.25,0.25,0.25,0.25,0.25,0.25,0.25,0.25,-0.5,-0.5,-0.5,-0.5,-0.5,-0.5,-0.5,-0.5,-0.5,-0.5,-0.5,linear,100,0.025,0,0.5,TRUE,2,poolmodel,0.7833,-0.02880121393710449,0.00742454069527209,0,10000
10,250,0,325,650,975,1300,1625,1950,2275,2600,2925,2,0,1,0.25,0.25,0.25,0.25,0.25,0.25,0.25,0.25,0.25,0.25,-0.5,-0.5,-0.5,-0.5,-0.5,-0.5,-0.5,-0.5,-0.5,-0.5,-0.5,linear,100,0.025,0,0.5,TRUE,2,sepmodel,0.789,-0.0010596727346969127,0.008174128460338059,0,10000
10,250,0,325,650,975,1300,1625,1950,2275,2600,2925,2,0,1,0.25,0.25,0.25,0.25,0.25,0.25,0.25,0.25,0.25,0.25,-0.5,-0.5,-0.5,-0.5,-0.5,-0.5,-0.5,-0.5,-0.5,-0.5,-0.5,linear,100,0.025,0,0.5,TRUE,3,fixmodel,0.8323,5.631490166198179e-4,0.0074581924336445185,0,10000
10,250,0,325,650,975,1300,1625,1950,2275,2600,2925,2,0,1,0.25,0.25,0.25,0.25,0.25,0.25,0.25,0.25,0.25,0.25,-0.5,-0.5,-0.5,-0.5,-0.5,-0.5,-0.5,-0.5,-0.5,-0.5,-0.5,linear,100,0.025,0,0.5,TRUE,3,poolmodel,0.7299,-0.05256026092844736,0.008663751059095838,0,10000
10,250,0,325,650,975,1300,1625,1950,2275,2600,2925,2,0,1,0.25,0.25,0.25,0.25,0.25,0.25,0.25,0.25,0.25,0.25,-0.5,-0.5,-0.5,-0.5,-0.5,-0.5,-0.5,-0.5,-0.5,-0.5,-0.5,linear,100,0.025,0,0.5,TRUE,3,sepmodel,0.8013,5.86489384722866e-4,0.008053824526820963,0,10000
10,250,0,325,650,975,1300,1625,1950,2275,2600,2925,2,0,1,0.25,0.25,0.25,0.25,0.25,0.25,0.25,0.25,0.25,0.25,-0.5,-0.5,-0.5,-0.5,-0.5,-0.5,-0.5,-0.5,-0.5,-0.5,-0.5,linear,100,0.025,0,0.5,TRUE,4,fixmodel,0.8327,3.5626389243352666e-4,0.007365672517645026,0,10000
10,250,0,325,650,975,1300,1625,1950,2275,2600,2925,2,0,1,0.25,0.25,0.25,0.25,0.25,0.25,0.25,0.25,0.25,0.25,-0.5,-0.5,-0.5,-0.5,-0.5,-0.5,-0.5,-0.5,-0.5,-0.5,-0.5,linear,100,0.025,0,0.5,TRUE,4,poolmodel,0.6302,-0.07840667754463587,0.011761043021935598,0,10000
10,250,0,325,650,975,1300,1625,1950,2275,2600,2925,2,0,1,0.25,0.25,0.25,0.25,0.25,0.25,0.25,0.25,0.25,0.25,-0.5,-0.5,-0.5,-0.5,-0.5,-0.5,-0.5,-0.5,-0.5,-0.5,-0.5,linear,100,0.025,0,0.5,TRUE,4,sepmodel,0.7955,6.570468089960124e-4,0.008028077929067214,0,10000
10,250,0,325,650,975,1300,1625,1950,2275,2600,2925,2,0,1,0.25,0.25,0.25,0.25,0.25,0.25,0.25,0.25,0.25,0.25,-0.5,-0.5,-0.5,-0.5,-0.5,-0.5,-0.5,-0.5,-0.5,-0.5,-0.5,linear,100,0.025,0,0.5,TRUE,5,fixmodel,0.8353,4.302936807208951e-4,0.007198085782736614,0,10000
10,250,0,325,650,975,1300,1625,1950,2275,2600,2925,2,0,1,0.25,0.25,0.25,0.25,0.25,0.25,0.25,0.25,0.25,0.25,-0.5,-0.5,-0.5,-0.5,-0.5,-0.5,-0.5,-0.5,-0.5,-0.5,-0.5,linear,100,0.025,0,0.5,TRUE,5,poolmodel,0.5139,-0.10369407784940467,0.016081149592954248,0,10000
10,250,0,325,650,975,1300,1625,1950,2275,2600,2925,2,0,1,0.25,0.25,0.25,0.25,0.25,0.25,0.25,0.25,0.25,0.25,-0.5,-0.5,-0.5,-0.5,-0.5,-0.5,-0.5,-0.5,-0.5,-0.5,-0.5,linear,100,0.025,0,0.5,TRUE,5,sepmodel,0.7946,2.0623775288404917e-4,0.00798265285562102,0,10000
10,250,0,325,650,975,1300,1625,1950,2275,2600,2925,2,0,1,0.25,0.25,0.25,0.25,0.25,0.25,0.25,0.25,0.25,0.25,-0.5,-0.5,-0.5,-0.5,-0.5,-0.5,-0.5,-0.5,-0.5,-0.5,-0.5,linear,100,0.025,0,0.5,TRUE,6,fixmodel,0.8384,5.662983229810498e-4,0.007202666757485676,0,10000
10,250,0,325,650,975,1300,1625,1950,2275,2600,2925,2,0,1,0.25,0.25,0.25,0.25,0.25,0.25,0.25,0.25,0.25,0.25,-0.5,-0.5,-0.5,-0.5,-0.5,-0.5,-0.5,-0.5,-0.5,-0.5,-0.5,linear,100,0.025,0,0.5,TRUE,6,poolmodel,0.3884,-0.12886129627704765,0.021898956692648675,0,10000
10,250,0,325,650,975,1300,1625,1950,2275,2600,2925,2,0,1,0.25,0.25,0.25,0.25,0.25,0.25,0.25,0.25,0.25,0.25,-0.5,-0.5,-0.5,-0.5,-0.5,-0.5,-0.5,-0.5,-0.5,-0.5,-0.5,linear,100,0.025,0,0.5,TRUE,6,sepmodel,0.805,7.04223034961355e-4,0.007997815921436521,0,10000
10,250,0,325,650,975,1300,1625,1950,2275,2600,2925,2,0,1,0.25,0.25,0.25,0.25,0.25,0.25,0.25,0.25,0.25,0.25,-0.5,-0.5,-0.5,-0.5,-0.5,-0.5,-0.5,-0.5,-0.5,-0.5,-0.5,linear,100,0.025,0,0.5,TRUE,7,fixmodel,0.8352,-6.389169351367877e-4,0.00722513276644073,0,10000
10,250,0,325,650,975,1300,1625,1950,2275,2600,2925,2,0,1,0.25,0.25,0.25,0.25,0.25,0.25,0.25,0.25,0.25,0.25,-0.5,-0.5,-0.5,-0.5,-0.5,-0.5,-0.5,-0.5,-0.5,-0.5,-0.5,linear,100,0.025,0,0.5,TRUE,7,poolmodel,0.2646,-0.1547238612500811,0.029040330214003852,0,10000
10,250,0,325,650,975,1300,1625,1950,2275,2600,2925,2,0,1,0.25,0.25,0.25,0.25,0.25,0.25,0.25,0.25,0.25,0.25,-0.5,-0.5,-0.5,-0.5,-0.5,-0.5,-0.5,-0.5,-0.5,-0.5,-0.5,linear,100,0.025,0,0.5,TRUE,7,sepmodel,0.794,-8.108034989669482e-4,0.008006638547074688,0,10000
10,250,0,325,650,975,1300,1625,1950,2275,2600,2925,2,0,1,0.25,0.25,0.25,0.25,0.25,0.25,0.25,0.25,0.25,0.25,-0.5,-0.5,-0.5,-0.5,-0.5,-0.5,-0.5,-0.5,-0.5,-0.5,-0.5,linear,100,0.025,0,0.5,TRUE,8,fixmodel,0.8379,-0.0012264083505627767,0.007109300728004173,0,10000
10,250,0,325,650,975,1300,1625,1950,2275,2600,2925,2,0,1,0.25,0.25,0.25,0.25,0.25,0.25,0.25,0.25,0.25,0.25,-0.5,-0.5,-0.5,-0.5,-0.5,-0.5,-0.5,-0.5,-0.5,-0.5,-0.5,linear,100,0.025,0,0.5,TRUE,8,poolmodel,0.1615,-0.18048037635502945,0.03750626839490466,0,10000
10,250,0,325,650,975,1300,1625,1950,2275,2600,2925,2,0,1,0.25,0.25,0.25,0.25,0.25,0.25,0.25,0.25,0.25,0.25,-0.5,-0.5,-0.5,-0.5,-0.5,-0.5,-0.5,-0.5,-0.5,-0.5,-0.5,linear,100,0.025,0,0.5,TRUE,8,sepmodel,0.7993,-0.0014554509547686544,0.007882203091152298,0,10000
10,250,0,325,650,975,1300,1625,1950,2275,2600,2925,2,0,1,0.25,0.25,0.25,0.25,0.25,0.25,0.25,0.25,0.25,0.25,-0.5,-0.5,-0.5,-0.5,-0.5,-0.5,-0.5,-0.5,-0.5,-0.5,-0.5,linear,100,0.025,0,0.5,TRUE,9,fixmodel,0.8426,-2.9483791192341156e-4,0.00698469595348471,0,10000
10,250,0,325,650,975,1300,1625,1950,2275,2600,2925,2,0,1,0.25,0.25,0.25,0.25,0.25,0.25,0.25,0.25,0.25,0.25,-0.5,-0.5,-0.5,-0.5,-0.5,-0.5,-0.5,-0.5,-0.5,-0.5,-0.5,linear,100,0.025,0,0.5,TRUE,9,poolmodel,0.0969,-0.20236949974241258,0.04578317484417625,0,10000
10,250,0,325,650,975,1300,1625,1950,2275,2600,2925,2,0,1,0.25,0.25,0.25,0.25,0.25,0.25,0.25,0.25,0.25,0.25,-0.5,-0.5,-0.5,-0.5,-0.5,-0.5,-0.5,-0.5,-0.5,-0.5,-0.5,linear,100,0.025,0,0.5,TRUE,9,sepmodel,0.8014,-3.0837468430332986e-4,0.007864119240654568,0,10000
10,250,0,325,650,975,1300,1625,1950,2275,2600,2925,2,0,1,0.25,0.25,0.25,0.25,0.25,0.25,0.25,0.25,0.25,0.25,-0.5,-0.5,-0.5,-0.5,-0.5,-0.5,-0.5,-0.5,-0.5,-0.5,-0.5,linear,100,0.025,0,0.5,TRUE,10,fixmodel,0.8325,-0.002103020986498672,0.007173862438436985,0,10000
10,250,0,325,650,975,1300,1625,1950,2275,2600,2925,2,0,1,0.25,0.25,0.25,0.25,0.25,0.25,0.25,0.25,0.25,0.25,-0.5,-0.5,-0.5,-0.5,-0.5,-0.5,-0.5,-0.5,-0.5,-0.5,-0.5,linear,100,0.025,0,0.5,TRUE,10,poolmodel,0.0555,-0.2218874092314508,0.05408179090121052,0,10000
10,250,0,325,650,975,1300,1625,1950,2275,2600,2925,2,0,1,0.25,0.25,0.25,0.25,0.25,0.25,0.25,0.25,0.25,0.25,-0.5,-0.5,-0.5,-0.5,-0.5,-0.5,-0.5,-0.5,-0.5,-0.5,-0.5,linear,100,0.025,0,0.5,TRUE,10,sepmodel,0.7918,-0.001787849094234438,0.007981352233273793,0,10000
10,250,0,350,700,1050,1400,1750,2100,2450,2800,3150,2,0,1,0.25,0.25,0.25,0.25,0.25,0.25,0.25,0.25,0.25,0.25,-0.5,-0.5,-0.5,-0.5,-0.5,-0.5,-0.5,-0.5,-0.5,-0.5,-0.5,linear,100,0.025,0,0.5,TRUE,2,fixmodel,0.8181,6.379358727294696e-4,0.007634208379100796,0,10000
10,250,0,350,700,1050,1400,1750,2100,2450,2800,3150,2,0,1,0.25,0.25,0.25,0.25,0.25,0.25,0.25,0.25,0.25,0.25,-0.5,-0.5,-0.5,-0.5,-0.5,-0.5,-0.5,-0.5,-0.5,-0.5,-0.5,linear,100,0.025,0,0.5,TRUE,2,poolmodel,0.7961,-0.02692748567314645,0.007192640232566608,0,10000
10,250,0,350,700,1050,1400,1750,2100,2450,2800,3150,2,0,1,0.25,0.25,0.25,0.25,0.25,0.25,0.25,0.25,0.25,0.25,-0.5,-0.5,-0.5,-0.5,-0.5,-0.5,-0.5,-0.5,-0.5,-0.5,-0.5,linear,100,0.025,0,0.5,TRUE,2,sepmodel,0.7945,0.0010303814814814636,0.008104868323717642,0,10000
10,250,0,350,700,1050,1400,1750,2100,2450,2800,3150,2,0,1,0.25,0.25,0.25,0.25,0.25,0.25,0.25,0.25,0.25,0.25,-0.5,-0.5,-0.5,-0.5,-0.5,-0.5,-0.5,-0.5,-0.5,-0.5,-0.5,linear,100,0.025,0,0.5,TRUE,3,fixmodel,0.8278,-1.814884805468892e-4,0.00748813849993776,0,10000
10,250,0,350,700,1050,1400,1750,2100,2450,2800,3150,2,0,1,0.25,0.25,0.25,0.25,0.25,0.25,0.25,0.25,0.25,0.25,-0.5,-0.5,-0.5,-0.5,-0.5,-0.5,-0.5,-0.5,-0.5,-0.5,-0.5,linear,100,0.025,0,0.5,TRUE,3,poolmodel,0.7349,-0.053690275646793566,0.00864095874435305,0,10000
10,250,0,350,700,1050,1400,1750,2100,2450,2800,3150,2,0,1,0.25,0.25,0.25,0.25,0.25,0.25,0.25,0.25,0.25,0.25,-0.5,-0.5,-0.5,-0.5,-0.5,-0.5,-0.5,-0.5,-0.5,-0.5,-0.5,linear,100,0.025,0,0.5,TRUE,3,sepmodel,0.7986,-1.1827694205878271e-4,0.00801429058384837,0,10000
10,250,0,350,700,1050,1400,1750,2100,2450,2800,3150,2,0,1,0.25,0.25,0.25,0.25,0.25,0.25,0.25,0.25,0.25,0.25,-0.5,-0.5,-0.5,-0.5,-0.5,-0.5,-0.5,-0.5,-0.5,-0.5,-0.5,linear,100,0.025,0,0.5,TRUE,4,fixmodel,0.8303,0.0011140237198246736,0.007277790174842373,0,10000
10,250,0,350,700,1050,1400,1750,2100,2450,2800,3150,2,0,1,0.25,0.25,0.25,0.25,0.25,0.25,0.25,0.25,0.25,0.25,-0.5,-0.5,-0.5,-0.5,-0.5,-0.5,-0.5,-0.5,-0.5,-0.5,-0.5,linear,100,0.025,0,0.5,TRUE,4,poolmodel,0.6479,-0.07721658477161876,0.011325095838279654,0,10000
10,250,0,350,700,1050,1400,1750,2100,2450,2800,3150,2,0,1,0.25,0.25,0.25,0.25,0.25,0.25,0.25,0.25,0.25,0.25,-0.5,-0.5,-0.5,-0.5,-0.5,-0.5,-0.5,-0.5,-0.5,-0.5,-0.5,linear,100,0.025,0,0.5,TRUE,4,sepmodel,0.8011,0.001002169498680065,0.007909977728160591,0,10000
10,250,0,350,700,1050,1400,1750,2100,2450,2800,3150,2,0,1,0.25,0.25,0.25,0.25,0.25,0.25,0.25,0.25,0.25,0.25,-0.5,-0.5,-0.5,-0.5,-0.5,-0.5,-0.5,-0.5,-0.5,-0.5,-0.5,linear,100,0.025,0,0.5,TRUE,5,fixmodel,0.8328,7.647022648094685e-4,0.007299973745304876,0,10000
10,250,0,350,700,1050,1400,1750,2100,2450,2800,3150,2,0,1,0.25,0.25,0.25,0.25,0.25,0.25,0.25,0.25,0.25,0.25,-0.5,-0.5,-0.5,-0.5,-0.5,-0.5,-0.5,-0.5,-0.5,-0.5,-0.5,linear,100,0.025,0,0.5,TRUE,5,poolmodel,0.522,-0.10327619938069646,0.016028072781356692,0,10000
10,250,0,350,700,1050,1400,1750,2100,2450,2800,3150,2,0,1,0.25,0.25,0.25,0.25,0.25,0.25,0.25,0.25,0.25,0.25,-0.5,-0.5,-0.5,-0.5,-0.5,-0.5,-0.5,-0.5,-0.5,-0.5,-0.5,linear,100,0.025,0,0.5,TRUE,5,sepmodel,0.8005,9.225658753358814e-4,0.00802797271118271,0,10000
10,250,0,350,700,1050,1400,1750,2100,2450,2800,3150,2,0,1,0.25,0.25,0.25,0.25,0.25,0.25,0.25,0.25,0.25,0.25,-0.5,-0.5,-0.5,-0.5,-0.5,-0.5,-0.5,-0.5,-0.5,-0.5,-0.5,linear,100,0.025,0,0.5,TRUE,6,fixmodel,0.8344,4.655371514285206e-4,0.007370812612828376,0,10000
