pavlakrotka/NCC_FreqModels/simulations/results/results_setting_1_pow.csv
num_arms,n_arm,d1,d2,d3,d4,d5,d6,d7,d8,d9,d10,period_blocks,mu0,sigma,theta1,theta2,theta3,theta4,theta5,theta6,theta7,theta8,theta9,theta10,lambda0,lambda1,lambda2,lambda3,lambda4,lambda5,lambda6,lambda7,lambda8,lambda9,lambda10,trend,unit_size,alpha,trend_mean,trend_var,ncc,study_arm,model,reject_h0,bias,MSE,failed,nsim
10,250,0,0,0,0,0,0,0,0,0,0,2,0,1,0.25,0.25,0.25,0.25,0.25,0.25,0.25,0.25,0.25,0.25,-0.5,-0.5,-0.5,-0.5,-0.5,-0.5,-0.5,-0.5,-0.5,-0.5,-0.5,linear,100,0.025,0,0.5,TRUE,2,fixmodel,0.7943,7.682710419503701e-4,0.008126652752506791,0,10000
10,250,0,0,0,0,0,0,0,0,0,0,2,0,1,0.25,0.25,0.25,0.25,0.25,0.25,0.25,0.25,0.25,0.25,-0.5,-0.5,-0.5,-0.5,-0.5,-0.5,-0.5,-0.5,-0.5,-0.5,-0.5,linear,100,0.025,0,0.5,TRUE,2,poolmodel,0.7926,7.682710419580422e-4,0.008126652752507237,0,10000
10,250,0,0,0,0,0,0,0,0,0,0,2,0,1,0.25,0.25,0.25,0.25,0.25,0.25,0.25,0.25,0.25,0.25,-0.5,-0.5,-0.5,-0.5,-0.5,-0.5,-0.5,-0.5,-0.5,-0.5,-0.5,linear,100,0.025,0,0.5,TRUE,2,sepmodel,0.7926,7.682710419580422e-4,0.008126652752507237,0,10000
10,250,0,0,0,0,0,0,0,0,0,0,2,0,1,0.25,0.25,0.25,0.25,0.25,0.25,0.25,0.25,0.25,0.25,-0.5,-0.5,-0.5,-0.5,-0.5,-0.5,-0.5,-0.5,-0.5,-0.5,-0.5,linear,100,0.025,0,0.5,TRUE,3,fixmodel,0.7882,3.118951861764291e-5,0.008107563678252978,0,10000
10,250,0,0,0,0,0,0,0,0,0,0,2,0,1,0.25,0.25,0.25,0.25,0.25,0.25,0.25,0.25,0.25,0.25,-0.5,-0.5,-0.5,-0.5,-0.5,-0.5,-0.5,-0.5,-0.5,-0.5,-0.5,linear,100,0.025,0,0.5,TRUE,3,poolmodel,0.7871,3.118951861821247e-5,0.008107563678253021,0,10000
10,250,0,0,0,0,0,0,0,0,0,0,2,0,1,0.25,0.25,0.25,0.25,0.25,0.25,0.25,0.25,0.25,0.25,-0.5,-0.5,-0.5,-0.5,-0.5,-0.5,-0.5,-0.5,-0.5,-0.5,-0.5,linear,100,0.025,0,0.5,TRUE,3,sepmodel,0.7871,3.118951861821247e-5,0.008107563678253021,0,10000
10,250,0,0,0,0,0,0,0,0,0,0,2,0,1,0.25,0.25,0.25,0.25,0.25,0.25,0.25,0.25,0.25,0.25,-0.5,-0.5,-0.5,-0.5,-0.5,-0.5,-0.5,-0.5,-0.5,-0.5,-0.5,linear,100,0.025,0,0.5,TRUE,4,fixmodel,0.7933,7.083681504919166e-5,0.00804001568159055,0,10000
10,250,0,0,0,0,0,0,0,0,0,0,2,0,1,0.25,0.25,0.25,0.25,0.25,0.25,0.25,0.25,0.25,0.25,-0.5,-0.5,-0.5,-0.5,-0.5,-0.5,-0.5,-0.5,-0.5,-0.5,-0.5,linear,100,0.025,0,0.5,TRUE,4,poolmodel,0.7939,7.08368150515209e-5,0.008040015681590644,0,10000
10,250,0,0,0,0,0,0,0,0,0,0,2,0,1,0.25,0.25,0.25,0.25,0.25,0.25,0.25,0.25,0.25,0.25,-0.5,-0.5,-0.5,-0.5,-0.5,-0.5,-0.5,-0.5,-0.5,-0.5,-0.5,linear,100,0.025,0,0.5,TRUE,4,sepmodel,0.7939,7.08368150515209e-5,0.008040015681590644,0,10000
10,250,0,0,0,0,0,0,0,0,0,0,2,0,1,0.25,0.25,0.25,0.25,0.25,0.25,0.25,0.25,0.25,0.25,-0.5,-0.5,-0.5,-0.5,-0.5,-0.5,-0.5,-0.5,-0.5,-0.5,-0.5,linear,100,0.025,0,0.5,TRUE,5,fixmodel,0.7947,0.0014868983521016605,0.008044094710670482,0,10000
10,250,0,0,0,0,0,0,0,0,0,0,2,0,1,0.25,0.25,0.25,0.25,0.25,0.25,0.25,0.25,0.25,0.25,-0.5,-0.5,-0.5,-0.5,-0.5,-0.5,-0.5,-0.5,-0.5,-0.5,-0.5,linear,100,0.025,0,0.5,TRUE,5,poolmodel,0.7945,0.001486898352102887,0.008044094710670507,0,10000
10,250,0,0,0,0,0,0,0,0,0,0,2,0,1,0.25,0.25,0.25,0.25,0.25,0.25,0.25,0.25,0.25,0.25,-0.5,-0.5,-0.5,-0.5,-0.5,-0.5,-0.5,-0.5,-0.5,-0.5,-0.5,linear,100,0.025,0,0.5,TRUE,5,sepmodel,0.7945,0.001486898352102887,0.008044094710670507,0,10000
10,250,0,0,0,0,0,0,0,0,0,0,2,0,1,0.25,0.25,0.25,0.25,0.25,0.25,0.25,0.25,0.25,0.25,-0.5,-0.5,-0.5,-0.5,-0.5,-0.5,-0.5,-0.5,-0.5,-0.5,-0.5,linear,100,0.025,0,0.5,TRUE,6,fixmodel,0.7957,6.32875504979576e-4,0.008032467997736974,0,10000
10,250,0,0,0,0,0,0,0,0,0,0,2,0,1,0.25,0.25,0.25,0.25,0.25,0.25,0.25,0.25,0.25,0.25,-0.5,-0.5,-0.5,-0.5,-0.5,-0.5,-0.5,-0.5,-0.5,-0.5,-0.5,linear,100,0.025,0,0.5,TRUE,6,poolmodel,0.7949,6.328755049808724e-4,0.008032467997736985,0,10000
10,250,0,0,0,0,0,0,0,0,0,0,2,0,1,0.25,0.25,0.25,0.25,0.25,0.25,0.25,0.25,0.25,0.25,-0.5,-0.5,-0.5,-0.5,-0.5,-0.5,-0.5,-0.5,-0.5,-0.5,-0.5,linear,100,0.025,0,0.5,TRUE,6,sepmodel,0.7949,6.328755049808724e-4,0.008032467997736985,0,10000
10,250,0,0,0,0,0,0,0,0,0,0,2,0,1,0.25,0.25,0.25,0.25,0.25,0.25,0.25,0.25,0.25,0.25,-0.5,-0.5,-0.5,-0.5,-0.5,-0.5,-0.5,-0.5,-0.5,-0.5,-0.5,linear,100,0.025,0,0.5,TRUE,7,fixmodel,0.7862,5.820667162599368e-4,0.008186544428911825,0,10000
10,250,0,0,0,0,0,0,0,0,0,0,2,0,1,0.25,0.25,0.25,0.25,0.25,0.25,0.25,0.25,0.25,0.25,-0.5,-0.5,-0.5,-0.5,-0.5,-0.5,-0.5,-0.5,-0.5,-0.5,-0.5,linear,100,0.025,0,0.5,TRUE,7,poolmodel,0.7853,5.820667162612397e-4,0.008186544428911844,0,10000
10,250,0,0,0,0,0,0,0,0,0,0,2,0,1,0.25,0.25,0.25,0.25,0.25,0.25,0.25,0.25,0.25,0.25,-0.5,-0.5,-0.5,-0.5,-0.5,-0.5,-0.5,-0.5,-0.5,-0.5,-0.5,linear,100,0.025,0,0.5,TRUE,7,sepmodel,0.7853,5.820667162612397e-4,0.008186544428911844,0,10000
10,250,0,0,0,0,0,0,0,0,0,0,2,0,1,0.25,0.25,0.25,0.25,0.25,0.25,0.25,0.25,0.25,0.25,-0.5,-0.5,-0.5,-0.5,-0.5,-0.5,-0.5,-0.5,-0.5,-0.5,-0.5,linear,100,0.025,0,0.5,TRUE,8,fixmodel,0.7939,5.939942952947865e-4,0.008061988217263436,0,10000
10,250,0,0,0,0,0,0,0,0,0,0,2,0,1,0.25,0.25,0.25,0.25,0.25,0.25,0.25,0.25,0.25,0.25,-0.5,-0.5,-0.5,-0.5,-0.5,-0.5,-0.5,-0.5,-0.5,-0.5,-0.5,linear,100,0.025,0,0.5,TRUE,8,poolmodel,0.7938,5.93994295296151e-4,0.008061988217263482,0,10000
10,250,0,0,0,0,0,0,0,0,0,0,2,0,1,0.25,0.25,0.25,0.25,0.25,0.25,0.25,0.25,0.25,0.25,-0.5,-0.5,-0.5,-0.5,-0.5,-0.5,-0.5,-0.5,-0.5,-0.5,-0.5,linear,100,0.025,0,0.5,TRUE,8,sepmodel,0.7938,5.93994295296151e-4,0.008061988217263482,0,10000
10,250,0,0,0,0,0,0,0,0,0,0,2,0,1,0.25,0.25,0.25,0.25,0.25,0.25,0.25,0.25,0.25,0.25,-0.5,-0.5,-0.5,-0.5,-0.5,-0.5,-0.5,-0.5,-0.5,-0.5,-0.5,linear,100,0.025,0,0.5,TRUE,9,fixmodel,0.786,-2.671987771646099e-4,0.008203764159971762,0,10000
10,250,0,0,0,0,0,0,0,0,0,0,2,0,1,0.25,0.25,0.25,0.25,0.25,0.25,0.25,0.25,0.25,0.25,-0.5,-0.5,-0.5,-0.5,-0.5,-0.5,-0.5,-0.5,-0.5,-0.5,-0.5,linear,100,0.025,0,0.5,TRUE,9,poolmodel,0.7853,-2.6719877716323753e-4,0.008203764159971792,0,10000
10,250,0,0,0,0,0,0,0,0,0,0,2,0,1,0.25,0.25,0.25,0.25,0.25,0.25,0.25,0.25,0.25,0.25,-0.5,-0.5,-0.5,-0.5,-0.5,-0.5,-0.5,-0.5,-0.5,-0.5,-0.5,linear,100,0.025,0,0.5,TRUE,9,sepmodel,0.7853,-2.6719877716323753e-4,0.008203764159971792,0,10000
10,250,0,0,0,0,0,0,0,0,0,0,2,0,1,0.25,0.25,0.25,0.25,0.25,0.25,0.25,0.25,0.25,0.25,-0.5,-0.5,-0.5,-0.5,-0.5,-0.5,-0.5,-0.5,-0.5,-0.5,-0.5,linear,100,0.025,0,0.5,TRUE,10,fixmodel,0.7995,0.0012924725724921472,0.007902800306085348,0,10000
10,250,0,0,0,0,0,0,0,0,0,0,2,0,1,0.25,0.25,0.25,0.25,0.25,0.25,0.25,0.25,0.25,0.25,-0.5,-0.5,-0.5,-0.5,-0.5,-0.5,-0.5,-0.5,-0.5,-0.5,-0.5,linear,100,0.025,0,0.5,TRUE,10,poolmodel,0.7965,0.0012924725724935157,0.007902800306085386,0,10000
10,250,0,0,0,0,0,0,0,0,0,0,2,0,1,0.25,0.25,0.25,0.25,0.25,0.25,0.25,0.25,0.25,0.25,-0.5,-0.5,-0.5,-0.5,-0.5,-0.5,-0.5,-0.5,-0.5,-0.5,-0.5,linear,100,0.025,0,0.5,TRUE,10,sepmodel,0.7965,0.0012924725724935157,0.007902800306085386,0,10000
10,250,0,25,50,75,100,125,150,175,200,225,2,0,1,0.25,0.25,0.25,0.25,0.25,0.25,0.25,0.25,0.25,0.25,-0.5,-0.5,-0.5,-0.5,-0.5,-0.5,-0.5,-0.5,-0.5,-0.5,-0.5,linear,100,0.025,0,0.5,TRUE,2,fixmodel,0.7956,-6.985935562258008e-4,0.007975913384317936,0,10000
10,250,0,25,50,75,100,125,150,175,200,225,2,0,1,0.25,0.25,0.25,0.25,0.25,0.25,0.25,0.25,0.25,0.25,-0.5,-0.5,-0.5,-0.5,-0.5,-0.5,-0.5,-0.5,-0.5,-0.5,-0.5,linear,100,0.025,0,0.5,TRUE,2,poolmodel,0.7607,-0.01126679153041837,0.008010221500451659,0,10000
10,250,0,25,50,75,100,125,150,175,200,225,2,0,1,0.25,0.25,0.25,0.25,0.25,0.25,0.25,0.25,0.25,0.25,-0.5,-0.5,-0.5,-0.5,-0.5,-0.5,-0.5,-0.5,-0.5,-0.5,-0.5,linear,100,0.025,0,0.5,TRUE,2,sepmodel,0.7872,-6.380811941397748e-4,0.008113109637830669,0,10000
10,250,0,25,50,75,100,125,150,175,200,225,2,0,1,0.25,0.25,0.25,0.25,0.25,0.25,0.25,0.25,0.25,0.25,-0.5,-0.5,-0.5,-0.5,-0.5,-0.5,-0.5,-0.5,-0.5,-0.5,-0.5,linear,100,0.025,0,0.5,TRUE,3,fixmodel,0.8069,2.2026116419574573e-4,0.007739067378320761,0,10000
10,250,0,25,50,75,100,125,150,175,200,225,2,0,1,0.25,0.25,0.25,0.25,0.25,0.25,0.25,0.25,0.25,0.25,-0.5,-0.5,-0.5,-0.5,-0.5,-0.5,-0.5,-0.5,-0.5,-0.5,-0.5,linear,100,0.025,0,0.5,TRUE,3,poolmodel,0.7498,-0.0173468677821482,0.007883655528845963,0,10000
10,250,0,25,50,75,100,125,150,175,200,225,2,0,1,0.25,0.25,0.25,0.25,0.25,0.25,0.25,0.25,0.25,0.25,-0.5,-0.5,-0.5,-0.5,-0.5,-0.5,-0.5,-0.5,-0.5,-0.5,-0.5,linear,100,0.025,0,0.5,TRUE,3,sepmodel,0.7967,1.980332566668476e-4,0.007959652054157383,0,10000
10,250,0,25,50,75,100,125,150,175,200,225,2,0,1,0.25,0.25,0.25,0.25,0.25,0.25,0.25,0.25,0.25,0.25,-0.5,-0.5,-0.5,-0.5,-0.5,-0.5,-0.5,-0.5,-0.5,-0.5,-0.5,linear,100,0.025,0,0.5,TRUE,4,fixmodel,0.8046,3.2816479236810894e-4,0.007704498354085097,0,10000
10,250,0,25,50,75,100,125,150,175,200,225,2,0,1,0.25,0.25,0.25,0.25,0.25,0.25,0.25,0.25,0.25,0.25,-0.5,-0.5,-0.5,-0.5,-0.5,-0.5,-0.5,-0.5,-0.5,-0.5,-0.5,linear,100,0.025,0,0.5,TRUE,4,poolmodel,0.7254,-0.023617971816552393,0.008136060612842841,0,10000
10,250,0,25,50,75,100,125,150,175,200,225,2,0,1,0.25,0.25,0.25,0.25,0.25,0.25,0.25,0.25,0.25,0.25,-0.5,-0.5,-0.5,-0.5,-0.5,-0.5,-0.5,-0.5,-0.5,-0.5,-0.5,linear,100,0.025,0,0.5,TRUE,4,sepmodel,0.7872,2.5259524911010905e-4,0.007984541985960521,0,10000
10,250,0,25,50,75,100,125,150,175,200,225,2,0,1,0.25,0.25,0.25,0.25,0.25,0.25,0.25,0.25,0.25,0.25,-0.5,-0.5,-0.5,-0.5,-0.5,-0.5,-0.5,-0.5,-0.5,-0.5,-0.5,linear,100,0.025,0,0.5,TRUE,5,fixmodel,0.8076,2.147566600032942e-4,0.007822569487772426,0,10000
10,250,0,25,50,75,100,125,150,175,200,225,2,0,1,0.25,0.25,0.25,0.25,0.25,0.25,0.25,0.25,0.25,0.25,-0.5,-0.5,-0.5,-0.5,-0.5,-0.5,-0.5,-0.5,-0.5,-0.5,-0.5,linear,100,0.025,0,0.5,TRUE,5,poolmodel,0.7106,-0.028453455005968912,0.008471938040984789,0,10000
10,250,0,25,50,75,100,125,150,175,200,225,2,0,1,0.25,0.25,0.25,0.25,0.25,0.25,0.25,0.25,0.25,0.25,-0.5,-0.5,-0.5,-0.5,-0.5,-0.5,-0.5,-0.5,-0.5,-0.5,-0.5,linear,100,0.025,0,0.5,TRUE,5,sepmodel,0.7898,1.6984933414059816e-4,0.008145212001258178,0,10000
10,250,0,25,50,75,100,125,150,175,200,225,2,0,1,0.25,0.25,0.25,0.25,0.25,0.25,0.25,0.25,0.25,0.25,-0.5,-0.5,-0.5,-0.5,-0.5,-0.5,-0.5,-0.5,-0.5,-0.5,-0.5,linear,100,0.025,0,0.5,TRUE,6,fixmodel,0.8106,9.190512781182607e-4,0.007598071833676621,0,10000
10,250,0,25,50,75,100,125,150,175,200,225,2,0,1,0.25,0.25,0.25,0.25,0.25,0.25,0.25,0.25,0.25,0.25,-0.5,-0.5,-0.5,-0.5,-0.5,-0.5,-0.5,-0.5,-0.5,-0.5,-0.5,linear,100,0.025,0,0.5,TRUE,6,poolmodel,0.7031,-0.03157768936463009,0.008452659889626355,0,10000
10,250,0,25,50,75,100,125,150,175,200,225,2,0,1,0.25,0.25,0.25,0.25,0.25,0.25,0.25,0.25,0.25,0.25,-0.5,-0.5,-0.5,-0.5,-0.5,-0.5,-0.5,-0.5,-0.5,-0.5,-0.5,linear,100,0.025,0,0.5,TRUE,6,sepmodel,0.7898,9.50181063143598e-4,0.008016073066472599,0,10000
10,250,0,25,50,75,100,125,150,175,200,225,2,0,1,0.25,0.25,0.25,0.25,0.25,0.25,0.25,0.25,0.25,0.25,-0.5,-0.5,-0.5,-0.5,-0.5,-0.5,-0.5,-0.5,-0.5,-0.5,-0.5,linear,100,0.025,0,0.5,TRUE,7,fixmodel,0.8158,9.663236876727674e-4,0.007748613173168611,0,10000
10,250,0,25,50,75,100,125,150,175,200,225,2,0,1,0.25,0.25,0.25,0.25,0.25,0.25,0.25,0.25,0.25,0.25,-0.5,-0.5,-0.5,-0.5,-0.5,-0.5,-0.5,-0.5,-0.5,-0.5,-0.5,linear,100,0.025,0,0.5,TRUE,7,poolmodel,0.6927,-0.03538644728802086,0.008839155447085254,0,10000
10,250,0,25,50,75,100,125,150,175,200,225,2,0,1,0.25,0.25,0.25,0.25,0.25,0.25,0.25,0.25,0.25,0.25,-0.5,-0.5,-0.5,-0.5,-0.5,-0.5,-0.5,-0.5,-0.5,-0.5,-0.5,linear,100,0.025,0,0.5,TRUE,7,sepmodel,0.7927,8.917178298175087e-4,0.0081858300660355085,0,10000
10,250,0,25,50,75,100,125,150,175,200,225,2,0,1,0.25,0.25,0.25,0.25,0.25,0.25,0.25,0.25,0.25,0.25,-0.5,-0.5,-0.5,-0.5,-0.5,-0.5,-0.5,-0.5,-0.5,-0.5,-0.5,linear,100,0.025,0,0.5,TRUE,8,fixmodel,0.815,6.132289360559277e-5,0.007557913982789846,0,10000
10,250,0,25,50,75,100,125,150,175,200,225,2,0,1,0.25,0.25,0.25,0.25,0.25,0.25,0.25,0.25,0.25,0.25,-0.5,-0.5,-0.5,-0.5,-0.5,-0.5,-0.5,-0.5,-0.5,-0.5,-0.5,linear,100,0.025,0,0.5,TRUE,8,poolmodel,0.6746,-0.03920958602408435,0.008941146411132715,0,10000
10,250,0,25,50,75,100,125,150,175,200,225,2,0,1,0.25,0.25,0.25,0.25,0.25,0.25,0.25,0.25,0.25,0.25,-0.5,-0.5,-0.5,-0.5,-0.5,-0.5,-0.5,-0.5,-0.5,-0.5,-0.5,linear,100,0.025,0,0.5,TRUE,8,sepmodel,0.7924,-4.6907022100521835e-5,0.007984163169450966,0,10000
10,250,0,25,50,75,100,125,150,175,200,225,2,0,1,0.25,0.25,0.25,0.25,0.25,0.25,0.25,0.25,0.25,0.25,-0.5,-0.5,-0.5,-0.5,-0.5,-0.5,-0.5,-0.5,-0.5,-0.5,-0.5,linear,100,0.025,0,0.5,TRUE,9,fixmodel,0.8288,0.0024432960565977475,0.007490174914047998,0,10000
10,250,0,25,50,75,100,125,150,175,200,225,2,0,1,0.25,0.25,0.25,0.25,0.25,0.25,0.25,0.25,0.25,0.25,-0.5,-0.5,-0.5,-0.5,-0.5,-0.5,-0.5,-0.5,-0.5,-0.5,-0.5,linear,100,0.025,0,0.5,TRUE,9,poolmodel,0.677,-0.03974818371582743,0.008908040067133322,0,10000
10,250,0,25,50,75,100,125,150,175,200,225,2,0,1,0.25,0.25,0.25,0.25,0.25,0.25,0.25,0.25,0.25,0.25,-0.5,-0.5,-0.5,-0.5,-0.5,-0.5,-0.5,-0.5,-0.5,-0.5,-0.5,linear,100,0.025,0,0.5,TRUE,9,sepmodel,0.79990000000000006,0.002315884873862043,0.007957137404648037,0,10000
10,250,0,25,50,75,100,125,150,175,200,225,2,0,1,0.25,0.25,0.25,0.25,0.25,0.25,0.25,0.25,0.25,0.25,-0.5,-0.5,-0.5,-0.5,-0.5,-0.5,-0.5,-0.5,-0.5,-0.5,-0.5,linear,100,0.025,0,0.5,TRUE,10,fixmodel,0.8204,-5.582302451711003e-5,0.00748025152536439,0,10000
10,250,0,25,50,75,100,125,150,175,200,225,2,0,1,0.25,0.25,0.25,0.25,0.25,0.25,0.25,0.25,0.25,0.25,-0.5,-0.5,-0.5,-0.5,-0.5,-0.5,-0.5,-0.5,-0.5,-0.5,-0.5,linear,100,0.025,0,0.5,TRUE,10,poolmodel,0.6622,-0.04417627217032456,0.009274679643038033,0,10000
10,250,0,25,50,75,100,125,150,175,200,225,2,0,1,0.25,0.25,0.25,0.25,0.25,0.25,0.25,0.25,0.25,0.25,-0.5,-0.5,-0.5,-0.5,-0.5,-0.5,-0.5,-0.5,-0.5,-0.5,-0.5,linear,100,0.025,0,0.5,TRUE,10,sepmodel,0.7899,-1.7260966702297142e-4,0.00798307007186886,0,10000
10,250,0,50,100,150,200,250,300,350,400,450,2,0,1,0.25,0.25,0.25,0.25,0.25,0.25,0.25,0.25,0.25,0.25,-0.5,-0.5,-0.5,-0.5,-0.5,-0.5,-0.5,-0.5,-0.5,-0.5,-0.5,linear,100,0.025,0,0.5,TRUE,2,fixmodel,0.8086,7.077698568329454e-4,0.007726762628392776,0,10000
10,250,0,50,100,150,200,250,300,350,400,450,2,0,1,0.25,0.25,0.25,0.25,0.25,0.25,0.25,0.25,0.25,0.25,-0.5,-0.5,-0.5,-0.5,-0.5,-0.5,-0.5,-0.5,-0.5,-0.5,-0.5,linear,100,0.025,0,0.5,TRUE,2,poolmodel,0.7596,-0.016284189128698227,0.007752964270236724,0,10000
10,250,0,50,100,150,200,250,300,350,400,450,2,0,1,0.25,0.25,0.25,0.25,0.25,0.25,0.25,0.25,0.25,0.25,-0.5,-0.5,-0.5,-0.5,-0.5,-0.5,-0.5,-0.5,-0.5,-0.5,-0.5,linear,100,0.025,0,0.5,TRUE,2,sepmodel,0.7984,7.096575908279481e-4,0.007900491221149044,0,10000
10,250,0,50,100,150,200,250,300,350,400,450,2,0,1,0.25,0.25,0.25,0.25,0.25,0.25,0.25,0.25,0.25,0.25,-0.5,-0.5,-0.5,-0.5,-0.5,-0.5,-0.5,-0.5,-0.5,-0.5,-0.5,linear,100,0.025,0,0.5,TRUE,3,fixmodel,0.8176,9.235158837731198e-4,0.007594616871746095,0,10000
10,250,0,50,100,150,200,250,300,350,400,450,2,0,1,0.25,0.25,0.25,0.25,0.25,0.25,0.25,0.25,0.25,0.25,-0.5,-0.5,-0.5,-0.5,-0.5,-0.5,-0.5,-0.5,-0.5,-0.5,-0.5,linear,100,0.025,0,0.5,TRUE,3,poolmodel,0.7186,-0.029322466253642234,0.008161697902933442,0,10000
10,250,0,50,100,150,200,250,300,350,400,450,2,0,1,0.25,0.25,0.25,0.25,0.25,0.25,0.25,0.25,0.25,0.25,-0.5,-0.5,-0.5,-0.5,-0.5,-0.5,-0.5,-0.5,-0.5,-0.5,-0.5,linear,100,0.025,0,0.5,TRUE,3,sepmodel,0.7982,0.0010475366840624269,0.007876328724960439,0,10000
10,250,0,50,100,150,200,250,300,350,400,450,2,0,1,0.25,0.25,0.25,0.25,0.25,0.25,0.25,0.25,0.25,0.25,-0.5,-0.5,-0.5,-0.5,-0.5,-0.5,-0.5,-0.5,-0.5,-0.5,-0.5,linear,100,0.025,0,0.5,TRUE,4,fixmodel,0.8222,8.203936859659999e-4,0.007541238327072854,0,10000
10,250,0,50,100,150,200,250,300,350,400,450,2,0,1,0.25,0.25,0.25,0.25,0.25,0.25,0.25,0.25,0.25,0.25,-0.5,-0.5,-0.5,-0.5,-0.5,-0.5,-0.5,-0.5,-0.5,-0.5,-0.5,linear,100,0.025,0,0.5,TRUE,4,poolmodel,0.6823,-0.040524423583434804,0.008842903846618505,0,10000
10,250,0,50,100,150,200,250,300,350,400,450,2,0,1,0.25,0.25,0.25,0.25,0.25,0.25,0.25,0.25,0.25,0.25,-0.5,-0.5,-0.5,-0.5,-0.5,-0.5,-0.5,-0.5,-0.5,-0.5,-0.5,linear,100,0.025,0,0.5,TRUE,4,sepmodel,0.793,8.354452632382707e-4,0.007959675086343187,0,10000
10,250,0,50,100,150,200,250,300,350,400,450,2,0,1,0.25,0.25,0.25,0.25,0.25,0.25,0.25,0.25,0.25,0.25,-0.5,-0.5,-0.5,-0.5,-0.5,-0.5,-0.5,-0.5,-0.5,-0.5,-0.5,linear,100,0.025,0,0.5,TRUE,5,fixmodel,0.824,4.1169842869681763e-4,0.007486444185816917,0,10000
10,250,0,50,100,150,200,250,300,350,400,450,2,0,1,0.25,0.25,0.25,0.25,0.25,0.25,0.25,0.25,0.25,0.25,-0.5,-0.5,-0.5,-0.5,-0.5,-0.5,-0.5,-0.5,-0.5,-0.5,-0.5,linear,100,0.025,0,0.5,TRUE,5,poolmodel,0.6476,-0.0499139789070794,0.009648965857150858,0,10000
10,250,0,50,100,150,200,250,300,350,400,450,2,0,1,0.25,0.25,0.25,0.25,0.25,0.25,0.25,0.25,0.25,0.25,-0.5,-0.5,-0.5,-0.5,-0.5,-0.5,-0.5,-0.5,-0.5,-0.5,-0.5,linear,100,0.025,0,0.5,TRUE,5,sepmodel,0.7923,5.131037933061178e-4,0.008010593097186464,0,10000
10,250,0,50,100,150,200,250,300,350,400,450,2,0,1,0.25,0.25,0.25,0.25,0.25,0.25,0.25,0.25,0.25,0.25,-0.5,-0.5,-0.5,-0.5,-0.5,-0.5,-0.5,-0.5,-0.5,-0.5,-0.5,linear,100,0.025,0,0.5,TRUE,6,fixmodel,0.8273,6.100382754926591e-4,0.0074892149296704996,0,10000
10,250,0,50,100,150,200,250,300,350,400,450,2,0,1,0.25,0.25,0.25,0.25,0.25,0.25,0.25,0.25,0.25,0.25,-0.5,-0.5,-0.5,-0.5,-0.5,-0.5,-0.5,-0.5,-0.5,-0.5,-0.5,linear,100,0.025,0,0.5,TRUE,6,poolmodel,0.6209,-0.057045927614825506,0.010417274570216805,0,10000
10,250,0,50,100,150,200,250,300,350,400,450,2,0,1,0.25,0.25,0.25,0.25,0.25,0.25,0.25,0.25,0.25,0.25,-0.5,-0.5,-0.5,-0.5,-0.5,-0.5,-0.5,-0.5,-0.5,-0.5,-0.5,linear,100,0.025,0,0.5,TRUE,6,sepmodel,0.7875,5.884554552847673e-4,0.008092444380285084,0,10000
10,250,0,50,100,150,200,250,300,350,400,450,2,0,1,0.25,0.25,0.25,0.25,0.25,0.25,0.25,0.25,0.25,0.25,-0.5,-0.5,-0.5,-0.5,-0.5,-0.5,-0.5,-0.5,-0.5,-0.5,-0.5,linear,100,0.025,0,0.5,TRUE,7,fixmodel,0.8286,9.955509283120266e-5,0.007466852942420169,0,10000
10,250,0,50,100,150,200,250,300,350,400,450,2,0,1,0.25,0.25,0.25,0.25,0.25,0.25,0.25,0.25,0.25,0.25,-0.5,-0.5,-0.5,-0.5,-0.5,-0.5,-0.5,-0.5,-0.5,-0.5,-0.5,linear,100,0.025,0,0.5,TRUE,7,poolmodel,0.5898,-0.06403670530130146,0.011225844569964522,0,10000
10,250,0,50,100,150,200,250,300,350,400,450,2,0,1,0.25,0.25,0.25,0.25,0.25,0.25,0.25,0.25,0.25,0.25,-0.5,-0.5,-0.5,-0.5,-0.5,-0.5,-0.5,-0.5,-0.5,-0.5,-0.5,linear,100,0.025,0,0.5,TRUE,7,sepmodel,0.7905,2.312107454923697e-4,0.008148479382819944,0,10000
10,250,0,50,100,150,200,250,300,350,400,450,2,0,1,0.25,0.25,0.25,0.25,0.25,0.25,0.25,0.25,0.25,0.25,-0.5,-0.5,-0.5,-0.5,-0.5,-0.5,-0.5,-0.5,-0.5,-0.5,-0.5,linear,100,0.025,0,0.5,TRUE,8,fixmodel,0.8321,-4.773817149253457e-4,0.007404487657068603,0,10000
10,250,0,50,100,150,200,250,300,350,400,450,2,0,1,0.25,0.25,0.25,0.25,0.25,0.25,0.25,0.25,0.25,0.25,-0.5,-0.5,-0.5,-0.5,-0.5,-0.5,-0.5,-0.5,-0.5,-0.5,-0.5,linear,100,0.025,0,0.5,TRUE,8,poolmodel,0.5598,-0.07110036501058534,0.012114485317732604,0,10000
10,250,0,50,100,150,200,250,300,350,400,450,2,0,1,0.25,0.25,0.25,0.25,0.25,0.25,0.25,0.25,0.25,0.25,-0.5,-0.5,-0.5,-0.5,-0.5,-0.5,-0.5,-0.5,-0.5,-0.5,-0.5,linear,100,0.025,0,0.5,TRUE,8,sepmodel,0.7921,-3.462554874335304e-4,0.008159505248250959,0,10000
10,250,0,50,100,150,200,250,300,350,400,450,2,0,1,0.25,0.25,0.25,0.25,0.25,0.25,0.25,0.25,0.25,0.25,-0.5,-0.5,-0.5,-0.5,-0.5,-0.5,-0.5,-0.5,-0.5,-0.5,-0.5,linear,100,0.025,0,0.5,TRUE,9,fixmodel,0.8298,-3.1648407046475986e-4,0.007334559292910267,0,10000
10,250,0,50,100,150,200,250,300,350,400,450,2,0,1,0.25,0.25,0.25,0.25,0.25,0.25,0.25,0.25,0.25,0.25,-0.5,-0.5,-0.5,-0.5,-0.5,-0.5,-0.5,-0.5,-0.5,-0.5,-0.5,linear,100,0.025,0,0.5,TRUE,9,poolmodel,0.5446,-0.07556677721918807,0.012707239381127796,0,10000
10,250,0,50,100,150,200,250,300,350,400,450,2,0,1,0.25,0.25,0.25,0.25,0.25,0.25,0.25,0.25,0.25,0.25,-0.5,-0.5,-0.5,-0.5,-0.5,-0.5,-0.5,-0.5,-0.5,-0.5,-0.5,linear,100,0.025,0,0.5,TRUE,9,sepmodel,0.7884,-3.2315057565517736e-4,0.008097504478847738,0,10000
10,250,0,50,100,150,200,250,300,350,400,450,2,0,1,0.25,0.25,0.25,0.25,0.25,0.25,0.25,0.25,0.25,0.25,-0.5,-0.5,-0.5,-0.5,-0.5,-0.5,-0.5,-0.5,-0.5,-0.5,-0.5,linear,100,0.025,0,0.5,TRUE,10,fixmodel,0.8316,8.48852765930928e-5,0.007450882767751116,0,10000
10,250,0,50,100,150,200,250,300,350,400,450,2,0,1,0.25,0.25,0.25,0.25,0.25,0.25,0.25,0.25,0.25,0.25,-0.5,-0.5,-0.5,-0.5,-0.5,-0.5,-0.5,-0.5,-0.5,-0.5,-0.5,linear,100,0.025,0,0.5,TRUE,10,poolmodel,0.5322,-0.07973550104049686,0.013440846006152432,0,10000
10,250,0,50,100,150,200,250,300,350,400,450,2,0,1,0.25,0.25,0.25,0.25,0.25,0.25,0.25,0.25,0.25,0.25,-0.5,-0.5,-0.5,-0.5,-0.5,-0.5,-0.5,-0.5,-0.5,-0.5,-0.5,linear,100,0.025,0,0.5,TRUE,10,sepmodel,0.7861,1.7941711631815242e-4,0.008378291352205924,0,10000
10,250,0,75,150,225,300,375,450,525,600,675,2,0,1,0.25,0.25,0.25,0.25,0.25,0.25,0.25,0.25,0.25,0.25,-0.5,-0.5,-0.5,-0.5,-0.5,-0.5,-0.5,-0.5,-0.5,-0.5,-0.5,linear,100,0.025,0,0.5,TRUE,2,fixmodel,0.8174,0.001569931057150491,0.00756120248639438,0,10000
10,250,0,75,150,225,300,375,450,525,600,675,2,0,1,0.25,0.25,0.25,0.25,0.25,0.25,0.25,0.25,0.25,0.25,-0.5,-0.5,-0.5,-0.5,-0.5,-0.5,-0.5,-0.5,-0.5,-0.5,-0.5,linear,100,0.025,0,0.5,TRUE,2,poolmodel,0.7549,-0.019932612354021165,0.007693046523063022,0,10000
10,250,0,75,150,225,300,375,450,525,600,675,2,0,1,0.25,0.25,0.25,0.25,0.25,0.25,0.25,0.25,0.25,0.25,-0.5,-0.5,-0.5,-0.5,-0.5,-0.5,-0.5,-0.5,-0.5,-0.5,-0.5,linear,100,0.025,0,0.5,TRUE,2,sepmodel,0.802,0.0016360679293966663,0.00783537331168628,0,10000
10,250,0,75,150,225,300,375,450,525,600,675,2,0,1,0.25,0.25,0.25,0.25,0.25,0.25,0.25,0.25,0.25,0.25,-0.5,-0.5,-0.5,-0.5,-0.5,-0.5,-0.5,-0.5,-0.5,-0.5,-0.5,linear,100,0.025,0,0.5,TRUE,3,fixmodel,0.8249,0.0018065148915408194,0.007595229583192077,0,10000
10,250,0,75,150,225,300,375,450,525,600,675,2,0,1,0.25,0.25,0.25,0.25,0.25,0.25,0.25,0.25,0.25,0.25,-0.5,-0.5,-0.5,-0.5,-0.5,-0.5,-0.5,-0.5,-0.5,-0.5,-0.5,linear,100,0.025,0,0.5,TRUE,3,poolmodel,0.6972,-0.03737648283005374,0.008634990449498921,0,10000
10,250,0,75,150,225,300,375,450,525,600,675,2,0,1,0.25,0.25,0.25,0.25,0.25,0.25,0.25,0.25,0.25,0.25,-0.5,-0.5,-0.5,-0.5,-0.5,-0.5,-0.5,-0.5,-0.5,-0.5,-0.5,linear,100,0.025,0,0.5,TRUE,3,sepmodel,0.7956,0.0015895764704318006,0.00809269377785803,0,10000
10,250,0,75,150,225,300,375,450,525,600,675,2,0,1,0.25,0.25,0.25,0.25,0.25,0.25,0.25,0.25,0.25,0.25,-0.5,-0.5,-0.5,-0.5,-0.5,-0.5,-0.5,-0.5,-0.5,-0.5,-0.5,linear,100,0.025,0,0.5,TRUE,4,fixmodel,0.8378,0.002694485143937162,0.007355044842047916,0,10000
10,250,0,75,150,225,300,375,450,525,600,675,2,0,1,0.25,0.25,0.25,0.25,0.25,0.25,0.25,0.25,0.25,0.25,-0.5,-0.5,-0.5,-0.5,-0.5,-0.5,-0.5,-0.5,-0.5,-0.5,-0.5,linear,100,0.025,0,0.5,TRUE,4,poolmodel,0.6544,-0.05158119822730822,0.009604339236034282,0,10000
10,250,0,75,150,225,300,375,450,525,600,675,2,0,1,0.25,0.25,0.25,0.25,0.25,0.25,0.25,0.25,0.25,0.25,-0.5,-0.5,-0.5,-0.5,-0.5,-0.5,-0.5,-0.5,-0.5,-0.5,-0.5,linear,100,0.025,0,0.5,TRUE,4,sepmodel,0.7994,0.002609408281445313,0.007976579230231647,0,10000
10,250,0,75,150,225,300,375,450,525,600,675,2,0,1,0.25,0.25,0.25,0.25,0.25,0.25,0.25,0.25,0.25,0.25,-0.5,-0.5,-0.5,-0.5,-0.5,-0.5,-0.5,-0.5,-0.5,-0.5,-0.5,linear,100,0.025,0,0.5,TRUE,5,fixmodel,0.837,0.0013338344865109419,0.007179229562303773,0,10000
10,250,0,75,150,225,300,375,450,525,600,675,2,0,1,0.25,0.25,0.25,0.25,0.25,0.25,0.25,0.25,0.25,0.25,-0.5,-0.5,-0.5,-0.5,-0.5,-0.5,-0.5,-0.5,-0.5,-0.5,-0.5,linear,100,0.025,0,0.5,TRUE,5,poolmodel,0.5932,-0.06582848176982786,0.011111562368160794,0,10000
10,250,0,75,150,225,300,375,450,525,600,675,2,0,1,0.25,0.25,0.25,0.25,0.25,0.25,0.25,0.25,0.25,0.25,-0.5,-0.5,-0.5,-0.5,-0.5,-0.5,-0.5,-0.5,-0.5,-0.5,-0.5,linear,100,0.025,0,0.5,TRUE,5,sepmodel,0.7962,0.0013968764117512774,0.007893168469566045,0,10000
10,250,0,75,150,225,300,375,450,525,600,675,2,0,1,0.25,0.25,0.25,0.25,0.25,0.25,0.25,0.25,0.25,0.25,-0.5,-0.5,-0.5,-0.5,-0.5,-0.5,-0.5,-0.5,-0.5,-0.5,-0.5,linear,100,0.025,0,0.5,TRUE,6,fixmodel,0.8419,0.0014586549046781637,0.007100525977024359,0,10000
10,250,0,75,150,225,300,375,450,525,600,675,2,0,1,0.25,0.25,0.25,0.25,0.25,0.25,0.25,0.25,0.25,0.25,-0.5,-0.5,-0.5,-0.5,-0.5,-0.5,-0.5,-0.5,-0.5,-0.5,-0.5,linear,100,0.025,0,0.5,TRUE,6,poolmodel,0.5456,-0.0770775271732317,0.012609398169059687,0,10000
10,250,0,75,150,225,300,375,450,525,600,675,2,0,1,0.25,0.25,0.25,0.25,0.25,0.25,0.25,0.25,0.25,0.25,-0.5,-0.5,-0.5,-0.5,-0.5,-0.5,-0.5,-0.5,-0.5,-0.5,-0.5,linear,100,0.025,0,0.5,TRUE,6,sepmodel,0.7951,0.0015420390716999466,0.007927383407800859,0,10000
10,250,0,75,150,225,300,375,450,525,600,675,2,0,1,0.25,0.25,0.25,0.25,0.25,0.25,0.25,0.25,0.25,0.25,-0.5,-0.5,-0.5,-0.5,-0.5,-0.5,-0.5,-0.5,-0.5,-0.5,-0.5,linear,100,0.025,0,0.5,TRUE,7,fixmodel,0.8508,0.0019570868801971958,0.0069985811504250425,0,10000
10,250,0,75,150,225,300,375,450,525,600,675,2,0,1,0.25,0.25,0.25,0.25,0.25,0.25,0.25,0.25,0.25,0.25,-0.5,-0.5,-0.5,-0.5,-0.5,-0.5,-0.5,-0.5,-0.5,-0.5,-0.5,linear,100,0.025,0,0.5,TRUE,7,poolmodel,0.5122,-0.08540835951562553,0.013866578421422983,0,10000
10,250,0,75,150,225,300,375,450,525,600,675,2,0,1,0.25,0.25,0.25,0.25,0.25,0.25,0.25,0.25,0.25,0.25,-0.5,-0.5,-0.5,-0.5,-0.5,-0.5,-0.5,-0.5,-0.5,-0.5,-0.5,linear,100,0.025,0,0.5,TRUE,7,sepmodel,0.8039,0.0021690212417759735,0.007928386248900415,0,10000
10,250,0,75,150,225,300,375,450,525,600,675,2,0,1,0.25,0.25,0.25,0.25,0.25,0.25,0.25,0.25,0.25,0.25,-0.5,-0.5,-0.5,-0.5,-0.5,-0.5,-0.5,-0.5,-0.5,-0.5,-0.5,linear,100,0.025,0,0.5,TRUE,8,fixmodel,0.8528,0.0017258484689547614,0.00698223120787298,0,10000
10,250,0,75,150,225,300,375,450,525,600,675,2,0,1,0.25,0.25,0.25,0.25,0.25,0.25,0.25,0.25,0.25,0.25,-0.5,-0.5,-0.5,-0.5,-0.5,-0.5,-0.5,-0.5,-0.5,-0.5,-0.5,linear,100,0.025,0,0.5,TRUE,8,poolmodel,0.4715,-0.09446145160979243,0.015487063877043291,0,10000
10,250,0,75,150,225,300,375,450,525,600,675,2,0,1,0.25,0.25,0.25,0.25,0.25,0.25,0.25,0.25,0.25,0.25,-0.5,-0.5,-0.5,-0.5,-0.5,-0.5,-0.5,-0.5,-0.5,-0.5,-0.5,linear,100,0.025,0,0.5,TRUE,8,sepmodel,0.797,0.0018395057803535751,0.007973714204200174,0,10000
10,250,0,75,150,225,300,375,450,525,600,675,2,0,1,0.25,0.25,0.25,0.25,0.25,0.25,0.25,0.25,0.25,0.25,-0.5,-0.5,-0.5,-0.5,-0.5,-0.5,-0.5,-0.5,-0.5,-0.5,-0.5,linear,100,0.025,0,0.5,TRUE,9,fixmodel,0.8515,0.0024950419493464343,0.007081523124765372,0,10000
10,250,0,75,150,225,300,375,450,525,600,675,2,0,1,0.25,0.25,0.25,0.25,0.25,0.25,0.25,0.25,0.25,0.25,-0.5,-0.5,-0.5,-0.5,-0.5,-0.5,-0.5,-0.5,-0.5,-0.5,-0.5,linear,100,0.025,0,0.5,TRUE,9,poolmodel,0.4454,-0.100679430006646,0.01677827052943295,0,10000
10,250,0,75,150,225,300,375,450,525,600,675,2,0,1,0.25,0.25,0.25,0.25,0.25,0.25,0.25,0.25,0.25,0.25,-0.5,-0.5,-0.5,-0.5,-0.5,-0.5,-0.5,-0.5,-0.5,-0.5,-0.5,linear,100,0.025,0,0.5,TRUE,9,sepmodel,0.8029,0.002530748604036362,0.008072722849571794,0,10000
10,250,0,75,150,225,300,375,450,525,600,675,2,0,1,0.25,0.25,0.25,0.25,0.25,0.25,0.25,0.25,0.25,0.25,-0.5,-0.5,-0.5,-0.5,-0.5,-0.5,-0.5,-0.5,-0.5,-0.5,-0.5,linear,100,0.025,0,0.5,TRUE,10,fixmodel,0.8541,9.131467979976703e-4,0.006913732595025818,0,10000
10,250,0,75,150,225,300,375,450,525,600,675,2,0,1,0.25,0.25,0.25,0.25,0.25,0.25,0.25,0.25,0.25,0.25,-0.5,-0.5,-0.5,-0.5,-0.5,-0.5,-0.5,-0.5,-0.5,-0.5,-0.5,linear,100,0.025,0,0.5,TRUE,10,poolmodel,0.404,-0.10902471871713948,0.01837827031825511,0,10000
10,250,0,75,150,225,300,375,450,525,600,675,2,0,1,0.25,0.25,0.25,0.25,0.25,0.25,0.25,0.25,0.25,0.25,-0.5,-0.5,-0.5,-0.5,-0.5,-0.5,-0.5,-0.5,-0.5,-0.5,-0.5,linear,100,0.025,0,0.5,TRUE,10,sepmodel,0.7941,9.157173580698103e-4,0.008007542620889405,0,10000
10,250,0,100,200,300,400,500,600,700,800,900,2,0,1,0.25,0.25,0.25,0.25,0.25,0.25,0.25,0.25,0.25,0.25,-0.5,-0.5,-0.5,-0.5,-0.5,-0.5,-0.5,-0.5,-0.5,-0.5,-0.5,linear,100,0.025,0,0.5,TRUE,2,fixmodel,0.8152,-3.9871815578483637e-4,0.0075444331581068875,0,10000
10,250,0,100,200,300,400,500,600,700,800,900,2,0,1,0.25,0.25,0.25,0.25,0.25,0.25,0.25,0.25,0.25,0.25,-0.5,-0.5,-0.5,-0.5,-0.5,-0.5,-0.5,-0.5,-0.5,-0.5,-0.5,linear,100,0.025,0,0.5,TRUE,2,poolmodel,0.7552,-0.023658798465389052,0.0077480351273403695,0,10000
10,250,0,100,200,300,400,500,600,700,800,900,2,0,1,0.25,0.25,0.25,0.25,0.25,0.25,0.25,0.25,0.25,0.25,-0.5,-0.5,-0.5,-0.5,-0.5,-0.5,-0.5,-0.5,-0.5,-0.5,-0.5,linear,100,0.025,0,0.5,TRUE,2,sepmodel,0.7965,-2.669897395764932e-4,0.007861096946113604,0,10000
10,250,0,100,200,300,400,500,600,700,800,900,2,0,1,0.25,0.25,0.25,0.25,0.25,0.25,0.25,0.25,0.25,0.25,-0.5,-0.5,-0.5,-0.5,-0.5,-0.5,-0.5,-0.5,-0.5,-0.5,-0.5,linear,100,0.025,0,0.5,TRUE,3,fixmodel,0.8243,5.817532061322481e-4,0.007475964773291921,0,10000
10,250,0,100,200,300,400,500,600,700,800,900,2,0,1,0.25,0.25,0.25,0.25,0.25,0.25,0.25,0.25,0.25,0.25,-0.5,-0.5,-0.5,-0.5,-0.5,-0.5,-0.5,-0.5,-0.5,-0.5,-0.5,linear,100,0.025,0,0.5,TRUE,3,poolmodel,0.6809,-0.04442078691444723,0.008956457572702612,0,10000
10,250,0,100,200,300,400,500,600,700,800,900,2,0,1,0.25,0.25,0.25,0.25,0.25,0.25,0.25,0.25,0.25,0.25,-0.5,-0.5,-0.5,-0.5,-0.5,-0.5,-0.5,-0.5,-0.5,-0.5,-0.5,linear,100,0.025,0,0.5,TRUE,3,sepmodel,0.7929,7.835154453169756e-4,0.00806087729598612,0,10000
10,250,0,100,200,300,400,500,600,700,800,900,2,0,1,0.25,0.25,0.25,0.25,0.25,0.25,0.25,0.25,0.25,0.25,-0.5,-0.5,-0.5,-0.5,-0.5,-0.5,-0.5,-0.5,-0.5,-0.5,-0.5,linear,100,0.025,0,0.5,TRUE,4,fixmodel,0.8363,-2.1472695622955175e-4,0.0071142802556727,0,10000
10,250,0,100,200,300,400,500,600,700,800,900,2,0,1,0.25,0.25,0.25,0.25,0.25,0.25,0.25,0.25,0.25,0.25,-0.5,-0.5,-0.5,-0.5,-0.5,-0.5,-0.5,-0.5,-0.5,-0.5,-0.5,linear,100,0.025,0,0.5,TRUE,4,poolmodel,0.6115,-0.0637259381177972,0.01071842132764341,0,10000
10,250,0,100,200,300,400,500,600,700,800,900,2,0,1,0.25,0.25,0.25,0.25,0.25,0.25,0.25,0.25,0.25,0.25,-0.5,-0.5,-0.5,-0.5,-0.5,-0.5,-0.5,-0.5,-0.5,-0.5,-0.5,linear,100,0.025,0,0.5,TRUE,4,sepmodel,0.7949,-2.1652183433802357e-4,0.00783649740430366,0,10000
10,250,0,100,200,300,400,500,600,700,800,900,2,0,1,0.25,0.25,0.25,0.25,0.25,0.25,0.25,0.25,0.25,0.25,-0.5,-0.5,-0.5,-0.5,-0.5,-0.5,-0.5,-0.5,-0.5,-0.5,-0.5,linear,100,0.025,0,0.5,TRUE,5,fixmodel,0.8418,2.2597237413030452e-4,0.007129007993586254,0,10000
10,250,0,100,200,300,400,500,600,700,800,900,2,0,1,0.25,0.25,0.25,0.25,0.25,0.25,0.25,0.25,0.25,0.25,-0.5,-0.5,-0.5,-0.5,-0.5,-0.5,-0.5,-0.5,-0.5,-0.5,-0.5,linear,100,0.025,0,0.5,TRUE,5,poolmodel,0.5416,-0.07933274623657277,0.012900875629413961,0,10000
10,250,0,100,200,300,400,500,600,700,800,900,2,0,1,0.25,0.25,0.25,0.25,0.25,0.25,0.25,0.25,0.25,0.25,-0.5,-0.5,-0.5,-0.5,-0.5,-0.5,-0.5,-0.5,-0.5,-0.5,-0.5,linear,100,0.025,0,0.5,TRUE,5,sepmodel,0.7946,1.4844974043186723e-4,0.007998116417112849,0,10000
10,250,0,100,200,300,400,500,600,700,800,900,2,0,1,0.25,0.25,0.25,0.25,0.25,0.25,0.25,0.25,0.25,0.25,-0.5,-0.5,-0.5,-0.5,-0.5,-0.5,-0.5,-0.5,-0.5,-0.5,-0.5,linear,100,0.025,0,0.5,TRUE,6,fixmodel,0.8452,-1.6135673055703238e-4,0.007039502935419325,0,10000
10,250,0,100,200,300,400,500,600,700,800,900,2,0,1,0.25,0.25,0.25,0.25,0.25,0.25,0.25,0.25,0.25,0.25,-0.5,-0.5,-0.5,-0.5,-0.5,-0.5,-0.5,-0.5,-0.5,-0.5,-0.5,linear,100,0.025,0,0.5,TRUE,6,poolmodel,0.4772,-0.09400765333897486,0.015318270243527667,0,10000
10,250,0,100,200,300,400,500,600,700,800,900,2,0,1,0.25,0.25,0.25,0.25,0.25,0.25,0.25,0.25,0.25,0.25,-0.5,-0.5,-0.5,-0.5,-0.5,-0.5,-0.5,-0.5,-0.5,-0.5,-0.5,linear,100,0.025,0,0.5,TRUE,6,sepmodel,0.7929,-3.017870880015721e-4,0.008026795263094176,0,10000
10,250,0,100,200,300,400,500,600,700,800,900,2,0,1,0.25,0.25,0.25,0.25,0.25,0.25,0.25,0.25,0.25,0.25,-0.5,-0.5,-0.5,-0.5,-0.5,-0.5,-0.5,-0.5,-0.5,-0.5,-0.5,linear,100,0.025,0,0.5,TRUE,7,fixmodel,0.8558,4.193075350609067e-4,0.006768714226604362,0,10000
10,250,0,100,200,300,400,500,600,700,800,900,2,0,1,0.25,0.25,0.25,0.25,0.25,0.25,0.25,0.25,0.25,0.25,-0.5,-0.5,-0.5,-0.5,-0.5,-0.5,-0.5,-0.5,-0.5,-0.5,-0.5,linear,100,0.025,0,0.5,TRUE,7,poolmodel,0.4245,-0.10524268758985594,0.01729091442554098,0,10000
10,250,0,100,200,300,400,500,600,700,800,900,2,0,1,0.25,0.25,0.25,0.25,0.25,0.25,0.25,0.25,0.25,0.25,-0.5,-0.5,-0.5,-0.5,-0.5,-0.5,-0.5,-0.5,-0.5,-0.5,-0.5,linear,100,0.025,0,0.5,TRUE,7,sepmodel,0.8022,2.937565671870509e-4,0.007818239882640198,0,10000
10,250,0,100,200,300,400,500,600,700,800,900,2,0,1,0.25,0.25,0.25,0.25,0.25,0.25,0.25,0.25,0.25,0.25,-0.5,-0.5,-0.5,-0.5,-0.5,-0.5,-0.5,-0.5,-0.5,-0.5,-0.5,linear,100,0.025,0,0.5,TRUE,8,fixmodel,0.853,3.3158460382564487e-4,0.007017679065598946,0,10000
10,250,0,100,200,300,400,500,600,700,800,900,2,0,1,0.25,0.25,0.25,0.25,0.25,0.25,0.25,0.25,0.25,0.25,-0.5,-0.5,-0.5,-0.5,-0.5,-0.5,-0.5,-0.5,-0.5,-0.5,-0.5,linear,100,0.025,0,0.5,TRUE,8,poolmodel,0.3806,-0.11607461606052145,0.019938276177413096,0,10000
10,250,0,100,200,300,400,500,600,700,800,900,2,0,1,0.25,0.25,0.25,0.25,0.25,0.25,0.25,0.25,0.25,0.25,-0.5,-0.5,-0.5,-0.5,-0.5,-0.5,-0.5,-0.5,-0.5,-0.5,-0.5,linear,100,0.025,0,0.5,TRUE,8,sepmodel,0.7955,4.0601306779248075e-5,0.008011307420552607,0,10000
10,250,0,100,200,300,400,500,600,700,800,900,2,0,1,0.25,0.25,0.25,0.25,0.25,0.25,0.25,0.25,0.25,0.25,-0.5,-0.5,-0.5,-0.5,-0.5,-0.5,-0.5,-0.5,-0.5,-0.5,-0.5,linear,100,0.025,0,0.5,TRUE,9,fixmodel,0.8547,2.175694575575343e-4,0.006892751904941863,0,10000
10,250,0,100,200,300,400,500,600,700,800,900,2,0,1,0.25,0.25,0.25,0.25,0.25,0.25,0.25,0.25,0.25,0.25,-0.5,-0.5,-0.5,-0.5,-0.5,-0.5,-0.5,-0.5,-0.5,-0.5,-0.5,linear,100,0.025,0,0.5,TRUE,9,poolmodel,0.339,-0.12508504958140051,0.021931304628667502,0,10000
10,250,0,100,200,300,400,500,600,700,800,900,2,0,1,0.25,0.25,0.25,0.25,0.25,0.25,0.25,0.25,0.25,0.25,-0.5,-0.5,-0.5,-0.5,-0.5,-0.5,-0.5,-0.5,-0.5,-0.5,-0.5,linear,100,0.025,0,0.5,TRUE,9,sepmodel,0.7932,-1.572307932203337e-4,0.008015976996652373,0,10000
10,250,0,100,200,300,400,500,600,700,800,900,2,0,1,0.25,0.25,0.25,0.25,0.25,0.25,0.25,0.25,0.25,0.25,-0.5,-0.5,-0.5,-0.5,-0.5,-0.5,-0.5,-0.5,-0.5,-0.5,-0.5,linear,100,0.025,0,0.5,TRUE,10,fixmodel,0.8617,8.486742037768777e-4,0.006747465609107871,0,10000
10,250,0,100,200,300,400,500,600,700,800,900,2,0,1,0.25,0.25,0.25,0.25,0.25,0.25,0.25,0.25,0.25,0.25,-0.5,-0.5,-0.5,-0.5,-0.5,-0.5,-0.5,-0.5,-0.5,-0.5,-0.5,linear,100,0.025,0,0.5,TRUE,10,poolmodel,0.3085,-0.13230447546205673,0.02364009983676252,0,10000
10,250,0,100,200,300,400,500,600,700,800,900,2,0,1,0.25,0.25,0.25,0.25,0.25,0.25,0.25,0.25,0.25,0.25,-0.5,-0.5,-0.5,-0.5,-0.5,-0.5,-0.5,-0.5,-0.5,-0.5,-0.5,linear,100,0.025,0,0.5,TRUE,10,sepmodel,0.7983,3.149933670635557e-4,0.007837691470591766,0,10000
10,250,0,125,250,375,500,625,750,875,1000,1125,2,0,1,0.25,0.25,0.25,0.25,0.25,0.25,0.25,0.25,0.25,0.25,-0.5,-0.5,-0.5,-0.5,-0.5,-0.5,-0.5,-0.5,-0.5,-0.5,-0.5,linear,100,0.025,0,0.5,TRUE,2,fixmodel,0.8146,-0.0011177378574987545,0.007604241093834901,0,10000
10,250,0,125,250,375,500,625,750,875,1000,1125,2,0,1,0.25,0.25,0.25,0.25,0.25,0.25,0.25,0.25,0.25,0.25,-0.5,-0.5,-0.5,-0.5,-0.5,-0.5,-0.5,-0.5,-0.5,-0.5,-0.5,linear,100,0.025,0,0.5,TRUE,2,poolmodel,0.75,-0.025550939249530655,0.007883115573202483,0,10000
10,250,0,125,250,375,500,625,750,875,1000,1125,2,0,1,0.25,0.25,0.25,0.25,0.25,0.25,0.25,0.25,0.25,0.25,-0.5,-0.5,-0.5,-0.5,-0.5,-0.5,-0.5,-0.5,-0.5,-0.5,-0.5,linear,100,0.025,0,0.5,TRUE,2,sepmodel,0.7936,-0.00118871388007125,0.007986485550488226,0,10000
10,250,0,125,250,375,500,625,750,875,1000,1125,2,0,1,0.25,0.25,0.25,0.25,0.25,0.25,0.25,0.25,0.25,0.25,-0.5,-0.5,-0.5,-0.5,-0.5,-0.5,-0.5,-0.5,-0.5,-0.5,-0.5,linear,100,0.025,0,0.5,TRUE,3,fixmodel,0.8262,-0.0011488721938631029,0.007373155623322094,0,10000
10,250,0,125,250,375,500,625,750,875,1000,1125,2,0,1,0.25,0.25,0.25,0.25,0.25,0.25,0.25,0.25,0.25,0.25,-0.5,-0.5,-0.5,-0.5,-0.5,-0.5,-0.5,-0.5,-0.5,-0.5,-0.5,linear,100,0.025,0,0.5,TRUE,3,poolmodel,0.6732,-0.04978691228910642,0.009274089542228229,0,10000
10,250,0,125,250,375,500,625,750,875,1000,1125,2,0,1,0.25,0.25,0.25,0.25,0.25,0.25,0.25,0.25,0.25,0.25,-0.5,-0.5,-0.5,-0.5,-0.5,-0.5,-0.5,-0.5,-0.5,-0.5,-0.5,linear,100,0.025,0,0.5,TRUE,3,sepmodel,0.7896,-8.866694564412532e-4,0.008006123917310846,0,10000
10,250,0,125,250,375,500,625,750,875,1000,1125,2,0,1,0.25,0.25,0.25,0.25,0.25,0.25,0.25,0.25,0.25,0.25,-0.5,-0.5,-0.5,-0.5,-0.5,-0.5,-0.5,-0.5,-0.5,-0.5,-0.5,linear,100,0.025,0,0.5,TRUE,4,fixmodel,0.8367,-2.670894590925638e-4,0.007225888450228575,0,10000
10,250,0,125,250,375,500,625,750,875,1000,1125,2,0,1,0.25,0.25,0.25,0.25,0.25,0.25,0.25,0.25,0.25,0.25,-0.5,-0.5,-0.5,-0.5,-0.5,-0.5,-0.5,-0.5,-0.5,-0.5,-0.5,linear,100,0.025,0,0.5,TRUE,4,poolmodel,0.5887,-0.07066683303875397,0.01162491271735151,0,10000
10,250,0,125,250,375,500,625,750,875,1000,1125,2,0,1,0.25,0.25,0.25,0.25,0.25,0.25,0.25,0.25,0.25,0.25,-0.5,-0.5,-0.5,-0.5,-0.5,-0.5,-0.5,-0.5,-0.5,-0.5,-0.5,linear,100,0.025,0,0.5,TRUE,4,sepmodel,0.7914,2.0071649026969865e-4,0.007974691075342382,0,10000
10,250,0,125,250,375,500,625,750,875,1000,1125,2,0,1,0.25,0.25,0.25,0.25,0.25,0.25,0.25,0.25,0.25,0.25,-0.5,-0.5,-0.5,-0.5,-0.5,-0.5,-0.5,-0.5,-0.5,-0.5,-0.5,linear,100,0.025,0,0.5,TRUE,5,fixmodel,0.8441,4.098572146999098e-4,0.00701765420739726,0,10000
10,250,0,125,250,375,500,625,750,875,1000,1125,2,0,1,0.25,0.25,0.25,0.25,0.25,0.25,0.25,0.25,0.25,0.25,-0.5,-0.5,-0.5,-0.5,-0.5,-0.5,-0.5,-0.5,-0.5,-0.5,-0.5,linear,100,0.025,0,0.5,TRUE,5,poolmodel,0.5091,-0.08900762830397053,0.014295366590207744,0,10000
10,250,0,125,250,375,500,625,750,875,1000,1125,2,0,1,0.25,0.25,0.25,0.25,0.25,0.25,0.25,0.25,0.25,0.25,-0.5,-0.5,-0.5,-0.5,-0.5,-0.5,-0.5,-0.5,-0.5,-0.5,-0.5,linear,100,0.025,0,0.5,TRUE,5,sepmodel,0.7988,0.0011854395779838482,0.007902109598913937,0,10000
10,250,0,125,250,375,500,625,750,875,1000,1125,2,0,1,0.25,0.25,0.25,0.25,0.25,0.25,0.25,0.25,0.25,0.25,-0.5,-0.5,-0.5,-0.5,-0.5,-0.5,-0.5,-0.5,-0.5,-0.5,-0.5,linear,100,0.025,0,0.5,TRUE,6,fixmodel,0.8533,2.1045717496795947e-4,0.006875581172460877,0,10000
10,250,0,125,250,375,500,625,750,875,1000,1125,2,0,1,0.25,0.25,0.25,0.25,0.25,0.25,0.25,0.25,0.25,0.25,-0.5,-0.5,-0.5,-0.5,-0.5,-0.5,-0.5,-0.5,-0.5,-0.5,-0.5,linear,100,0.025,0,0.5,TRUE,6,poolmodel,0.432,-0.10565607332403185,0.01741532637189439,0,10000
10,250,0,125,250,375,500,625,750,875,1000,1125,2,0,1,0.25,0.25,0.25,0.25,0.25,0.25,0.25,0.25,0.25,0.25,-0.5,-0.5,-0.5,-0.5,-0.5,-0.5,-0.5,-0.5,-0.5,-0.5,-0.5,linear,100,0.025,0,0.5,TRUE,6,sepmodel,0.7996,9.254076561097071e-4,0.00796093507985481,0,10000
10,250,0,125,250,375,500,625,750,875,1000,1125,2,0,1,0.25,0.25,0.25,0.25,0.25,0.25,0.25,0.25,0.25,0.25,-0.5,-0.5,-0.5,-0.5,-0.5,-0.5,-0.5,-0.5,-0.5,-0.5,-0.5,linear,100,0.025,0,0.5,TRUE,7,fixmodel,0.8521,4.515544881760522e-4,0.00700974903297525,0,10000
10,250,0,125,250,375,500,625,750,875,1000,1125,2,0,1,0.25,0.25,0.25,0.25,0.25,0.25,0.25,0.25,0.25,0.25,-0.5,-0.5,-0.5,-0.5,-0.5,-0.5,-0.5,-0.5,-0.5,-0.5,-0.5,linear,100,0.025,0,0.5,TRUE,7,poolmodel,0.36870000000000003,-0.11968267457694085,0.020614489477347418,0,10000
10,250,0,125,250,375,500,625,750,875,1000,1125,2,0,1,0.25,0.25,0.25,0.25,0.25,0.25,0.25,0.25,0.25,0.25,-0.5,-0.5,-0.5,-0.5,-0.5,-0.5,-0.5,-0.5,-0.5,-0.5,-0.5,linear,100,0.025,0,0.5,TRUE,7,sepmodel,0.7969,0.0012089721454679367,0.008025054702766645,0,10000
10,250,0,125,250,375,500,625,750,875,1000,1125,2,0,1,0.25,0.25,0.25,0.25,0.25,0.25,0.25,0.25,0.25,0.25,-0.5,-0.5,-0.5,-0.5,-0.5,-0.5,-0.5,-0.5,-0.5,-0.5,-0.5,linear,100,0.025,0,0.5,TRUE,8,fixmodel,0.8556,-1.1997391777804703e-4,0.006820483599519614,0,10000
10,250,0,125,250,375,500,625,750,875,1000,1125,2,0,1,0.25,0.25,0.25,0.25,0.25,0.25,0.25,0.25,0.25,0.25,-0.5,-0.5,-0.5,-0.5,-0.5,-0.5,-0.5,-0.5,-0.5,-0.5,-0.5,linear,100,0.025,0,0.5,TRUE,8,poolmodel,0.3147,-0.13269048401588032,0.023744262405426868,0,10000
10,250,0,125,250,375,500,625,750,875,1000,1125,2,0,1,0.25,0.25,0.25,0.25,0.25,0.25,0.25,0.25,0.25,0.25,-0.5,-0.5,-0.5,-0.5,-0.5,-0.5,-0.5,-0.5,-0.5,-0.5,-0.5,linear,100,0.025,0,0.5,TRUE,8,sepmodel,0.7968,4.8494588288928585e-4,0.007942658175895475,0,10000
10,250,0,125,250,375,500,625,750,875,1000,1125,2,0,1,0.25,0.25,0.25,0.25,0.25,0.25,0.25,0.25,0.25,0.25,-0.5,-0.5,-0.5,-0.5,-0.5,-0.5,-0.5,-0.5,-0.5,-0.5,-0.5,linear,100,0.025,0,0.5,TRUE,9,fixmodel,0.8579,-7.290521812136439e-4,0.006758903206324575,0,10000
10,250,0,125,250,375,500,625,750,875,1000,1125,2,0,1,0.25,0.25,0.25,0.25,0.25,0.25,0.25,0.25,0.25,0.25,-0.5,-0.5,-0.5,-0.5,-0.5,-0.5,-0.5,-0.5,-0.5,-0.5,-0.5,linear,100,0.025,0,0.5,TRUE,9,poolmodel,0.2707,-0.14360854617506547,0.026699376252394266,0,10000
10,250,0,125,250,375,500,625,750,875,1000,1125,2,0,1,0.25,0.25,0.25,0.25,0.25,0.25,0.25,0.25,0.25,0.25,-0.5,-0.5,-0.5,-0.5,-0.5,-0.5,-0.5,-0.5,-0.5,-0.5,-0.5,linear,100,0.025,0,0.5,TRUE,9,sepmodel,0.7985,-6.300672956429694e-5,0.007887758778091057,0,10000
10,250,0,125,250,375,500,625,750,875,1000,1125,2,0,1,0.25,0.25,0.25,0.25,0.25,0.25,0.25,0.25,0.25,0.25,-0.5,-0.5,-0.5,-0.5,-0.5,-0.5,-0.5,-0.5,-0.5,-0.5,-0.5,linear,100,0.025,0,0.5,TRUE,10,fixmodel,0.8629,-4.885365098815277e-4,0.0067082456475879544,0,10000
10,250,0,125,250,375,500,625,750,875,1000,1125,2,0,1,0.25,0.25,0.25,0.25,0.25,0.25,0.25,0.25,0.25,0.25,-0.5,-0.5,-0.5,-0.5,-0.5,-0.5,-0.5,-0.5,-0.5,-0.5,-0.5,linear,100,0.025,0,0.5,TRUE,10,poolmodel,0.2305,-0.15196530538578126,0.029050885421683204,0,10000
10,250,0,125,250,375,500,625,750,875,1000,1125,2,0,1,0.25,0.25,0.25,0.25,0.25,0.25,0.25,0.25,0.25,0.25,-0.5,-0.5,-0.5,-0.5,-0.5,-0.5,-0.5,-0.5,-0.5,-0.5,-0.5,linear,100,0.025,0,0.5,TRUE,10,sepmodel,0.796,7.050554615989777e-5,0.007915312139634931,0,10000
10,250,0,150,300,450,600,750,900,1050,1200,1350,2,0,1,0.25,0.25,0.25,0.25,0.25,0.25,0.25,0.25,0.25,0.25,-0.5,-0.5,-0.5,-0.5,-0.5,-0.5,-0.5,-0.5,-0.5,-0.5,-0.5,linear,100,0.025,0,0.5,TRUE,2,fixmodel,0.8134,-9.516802072173495e-4,0.007554935211308777,0,10000
10,250,0,150,300,450,600,750,900,1050,1200,1350,2,0,1,0.25,0.25,0.25,0.25,0.25,0.25,0.25,0.25,0.25,0.25,-0.5,-0.5,-0.5,-0.5,-0.5,-0.5,-0.5,-0.5,-0.5,-0.5,-0.5,linear,100,0.025,0,0.5,TRUE,2,poolmodel,0.7555,-0.025597543036071695,0.007766561080007232,0,10000
10,250,0,150,300,450,600,750,900,1050,1200,1350,2,0,1,0.25,0.25,0.25,0.25,0.25,0.25,0.25,0.25,0.25,0.25,-0.5,-0.5,-0.5,-0.5,-0.5,-0.5,-0.5,-0.5,-0.5,-0.5,-0.5,linear,100,0.025,0,0.5,TRUE,2,sepmodel,0.7885,-0.0010506438977979497,0.008032736600725935,0,10000
10,250,0,150,300,450,600,750,900,1050,1200,1350,2,0,1,0.25,0.25,0.25,0.25,0.25,0.25,0.25,0.25,0.25,0.25,-0.5,-0.5,-0.5,-0.5,-0.5,-0.5,-0.5,-0.5,-0.5,-0.5,-0.5,linear,100,0.025,0,0.5,TRUE,3,fixmodel,0.8314,7.58616713328413e-5,0.007423647307988974,0,10000
10,250,0,150,300,450,600,750,900,1050,1200,1350,2,0,1,0.25,0.25,0.25,0.25,0.25,0.25,0.25,0.25,0.25,0.25,-0.5,-0.5,-0.5,-0.5,-0.5,-0.5,-0.5,-0.5,-0.5,-0.5,-0.5,linear,100,0.025,0,0.5,TRUE,3,poolmodel,0.6811,-0.050416875491284804,0.009340853465607103,0,10000
10,250,0,150,300,450,600,750,900,1050,1200,1350,2,0,1,0.25,0.25,0.25,0.25,0.25,0.25,0.25,0.25,0.25,0.25,-0.5,-0.5,-0.5,-0.5,-0.5,-0.5,-0.5,-0.5,-0.5,-0.5,-0.5,linear,100,0.025,0,0.5,TRUE,3,sepmodel,0.7973,4.614706362236822e-5,0.008159118174233359,0,10000
10,250,0,150,300,450,600,750,900,1050,1200,1350,2,0,1,0.25,0.25,0.25,0.25,0.25,0.25,0.25,0.25,0.25,0.25,-0.5,-0.5,-0.5,-0.5,-0.5,-0.5,-0.5,-0.5,-0.5,-0.5,-0.5,linear,100,0.025,0,0.5,TRUE,4,fixmodel,0.8412,1.2317080256698005e-4,0.007128709239288093,0,10000
10,250,0,150,300,450,600,750,900,1050,1200,1350,2,0,1,0.25,0.25,0.25,0.25,0.25,0.25,0.25,0.25,0.25,0.25,-0.5,-0.5,-0.5,-0.5,-0.5,-0.5,-0.5,-0.5,-0.5,-0.5,-0.5,linear,100,0.025,0,0.5,TRUE,4,poolmodel,0.5885,-0.074520999279021,0.011996234817174422,0,10000
10,250,0,150,300,450,600,750,900,1050,1200,1350,2,0,1,0.25,0.25,0.25,0.25,0.25,0.25,0.25,0.25,0.25,0.25,-0.5,-0.5,-0.5,-0.5,-0.5,-0.5,-0.5,-0.5,-0.5,-0.5,-0.5,linear,100,0.025,0,0.5,TRUE,4,sepmodel,0.7939,1.4303323127791542e-4,0.008038331740997173,0,10000
10,250,0,150,300,450,600,750,900,1050,1200,1350,2,0,1,0.25,0.25,0.25,0.25,0.25,0.25,0.25,0.25,0.25,0.25,-0.5,-0.5,-0.5,-0.5,-0.5,-0.5,-0.5,-0.5,-0.5,-0.5,-0.5,linear,100,0.025,0,0.5,TRUE,5,fixmodel,0.8453,-3.4624682845998457e-4,0.007066832508993921,0,10000
10,250,0,150,300,450,600,750,900,1050,1200,1350,2,0,1,0.25,0.25,0.25,0.25,0.25,0.25,0.25,0.25,0.25,0.25,-0.5,-0.5,-0.5,-0.5,-0.5,-0.5,-0.5,-0.5,-0.5,-0.5,-0.5,linear,100,0.025,0,0.5,TRUE,5,poolmodel,0.4877,-0.09612908561706203,0.015591738266600989,0,10000
10,250,0,150,300,450,600,750,900,1050,1200,1350,2,0,1,0.25,0.25,0.25,0.25,0.25,0.25,0.25,0.25,0.25,0.25,-0.5,-0.5,-0.5,-0.5,-0.5,-0.5,-0.5,-0.5,-0.5,-0.5,-0.5,linear,100,0.025,0,0.5,TRUE,5,sepmodel,0.7922,-3.772171747045365e-4,0.008013960932014001,0,10000
10,250,0,150,300,450,600,750,900,1050,1200,1350,2,0,1,0.25,0.25,0.25,0.25,0.25,0.25,0.25,0.25,0.25,0.25,-0.5,-0.5,-0.5,-0.5,-0.5,-0.5,-0.5,-0.5,-0.5,-0.5,-0.5,linear,100,0.025,0,0.5,TRUE,6,fixmodel,0.8493,-8.747709970263561e-4,0.006894463954935158,0,10000
10,250,0,150,300,450,600,750,900,1050,1200,1350,2,0,1,0.25,0.25,0.25,0.25,0.25,0.25,0.25,0.25,0.25,0.25,-0.5,-0.5,-0.5,-0.5,-0.5,-0.5,-0.5,-0.5,-0.5,-0.5,-0.5,linear,100,0.025,0,0.5,TRUE,6,poolmodel,0.3986,-0.11507637401696287,0.019310071550877453,0,10000
10,250,0,150,300,450,600,750,900,1050,1200,1350,2,0,1,0.25,0.25,0.25,0.25,0.25,0.25,0.25,0.25,0.25,0.25,-0.5,-0.5,-0.5,-0.5,-0.5,-0.5,-0.5,-0.5,-0.5,-0.5,-0.5,linear,100,0.025,0,0.5,TRUE,6,sepmodel,0.7937,-6.108298484404121e-4,0.00791882900444135,0,10000
10,250,0,150,300,450,600,750,900,1050,1200,1350,2,0,1,0.25,0.25,0.25,0.25,0.25,0.25,0.25,0.25,0.25,0.25,-0.5,-0.5,-0.5,-0.5,-0.5,-0.5,-0.5,-0.5,-0.5,-0.5,-0.5,linear,100,0.025,0,0.5,TRUE,7,fixmodel,0.8536,-5.700998009601875e-4,0.00679827770003837,0,10000
10,250,0,150,300,450,600,750,900,1050,1200,1350,2,0,1,0.25,0.25,0.25,0.25,0.25,0.25,0.25,0.25,0.25,0.25,-0.5,-0.5,-0.5,-0.5,-0.5,-0.5,-0.5,-0.5,-0.5,-0.5,-0.5,linear,100,0.025,0,0.5,TRUE,7,poolmodel,0.3279,-0.13086259317000146,0.023054365973661017,0,10000
10,250,0,150,300,450,600,750,900,1050,1200,1350,2,0,1,0.25,0.25,0.25,0.25,0.25,0.25,0.25,0.25,0.25,0.25,-0.5,-0.5,-0.5,-0.5,-0.5,-0.5,-0.5,-0.5,-0.5,-0.5,-0.5,linear,100,0.025,0,0.5,TRUE,7,sepmodel,0.7956,-4.403099509365525e-4,0.00792753502642359,0,10000
10,250,0,150,300,450,600,750,900,1050,1200,1350,2,0,1,0.25,0.25,0.25,0.25,0.25,0.25,0.25,0.25,0.25,0.25,-0.5,-0.5,-0.5,-0.5,-0.5,-0.5,-0.5,-0.5,-0.5,-0.5,-0.5,linear,100,0.025,0,0.5,TRUE,8,fixmodel,0.8541,-9.43946369143933e-6,0.006984330342442643,0,10000
10,250,0,150,300,450,600,750,900,1050,1200,1350,2,0,1,0.25,0.25,0.25,0.25,0.25,0.25,0.25,0.25,0.25,0.25,-0.5,-0.5,-0.5,-0.5,-0.5,-0.5,-0.5,-0.5,-0.5,-0.5,-0.5,linear,100,0.025,0,0.5,TRUE,8,poolmodel,0.2667,-0.14442908445388639,0.026889121200891205,0,10000
10,250,0,150,300,450,600,750,900,1050,1200,1350,2,0,1,0.25,0.25,0.25,0.25,0.25,0.25,0.25,0.25,0.25,0.25,-0.5,-0.5,-0.5,-0.5,-0.5,-0.5,-0.5,-0.5,-0.5,-0.5,-0.5,linear,100,0.025,0,0.5,TRUE,8,sepmodel,0.7953,1.1930747598769818e-4,0.00802533468871825,0,10000
10,250,0,150,300,450,600,750,900,1050,1200,1350,2,0,1,0.25,0.25,0.25,0.25,0.25,0.25,0.25,0.25,0.25,0.25,-0.5,-0.5,-0.5,-0.5,-0.5,-0.5,-0.5,-0.5,-0.5,-0.5,-0.5,linear,100,0.025,0,0.5,TRUE,9,fixmodel,0.86,0.0011477464672193802,0.006883241216796416,0,10000
10,250,0,150,300,450,600,750,900,1050,1200,1350,2,0,1,0.25,0.25,0.25,0.25,0.25,0.25,0.25,0.25,0.25,0.25,-0.5,-0.5,-0.5,-0.5,-0.5,-0.5,-0.5,-0.5,-0.5,-0.5,-0.5,linear,100,0.025,0,0.5,TRUE,9,poolmodel,0.2325,-0.15547944606732653,0.030140463879569302,0,10000
10,250,0,150,300,450,600,750,900,1050,1200,1350,2,0,1,0.25,0.25,0.25,0.25,0.25,0.25,0.25,0.25,0.25,0.25,-0.5,-0.5,-0.5,-0.5,-0.5,-0.5,-0.5,-0.5,-0.5,-0.5,-0.5,linear,100,0.025,0,0.5,TRUE,9,sepmodel,0.7978,0.0014386020241831503,0.008054019867509882,0,10000
10,250,0,150,300,450,600,750,900,1050,1200,1350,2,0,1,0.25,0.25,0.25,0.25,0.25,0.25,0.25,0.25,0.25,0.25,-0.5,-0.5,-0.5,-0.5,-0.5,-0.5,-0.5,-0.5,-0.5,-0.5,-0.5,linear,100,0.025,0,0.5,TRUE,10,fixmodel,0.8599,2.4957615814295172e-5,0.006820186125397067,0,10000
10,250,0,150,300,450,600,750,900,1050,1200,1350,2,0,1,0.25,0.25,0.25,0.25,0.25,0.25,0.25,0.25,0.25,0.25,-0.5,-0.5,-0.5,-0.5,-0.5,-0.5,-0.5,-0.5,-0.5,-0.5,-0.5,linear,100,0.025,0,0.5,TRUE,10,poolmodel,0.1814,-0.16731317895370815,0.03390771058895579,0,10000
10,250,0,150,300,450,600,750,900,1050,1200,1350,2,0,1,0.25,0.25,0.25,0.25,0.25,0.25,0.25,0.25,0.25,0.25,-0.5,-0.5,-0.5,-0.5,-0.5,-0.5,-0.5,-0.5,-0.5,-0.5,-0.5,linear,100,0.025,0,0.5,TRUE,10,sepmodel,0.7898,2.8576812743632857e-4,0.008170934838649687,0,10000
10,250,0,175,350,525,700,875,1050,1225,1400,1575,2,0,1,0.25,0.25,0.25,0.25,0.25,0.25,0.25,0.25,0.25,0.25,-0.5,-0.5,-0.5,-0.5,-0.5,-0.5,-0.5,-0.5,-0.5,-0.5,-0.5,linear,100,0.025,0,0.5,TRUE,2,fixmodel,0.8215,-4.767566669707008e-5,0.007415183328576008,0,10000
10,250,0,175,350,525,700,875,1050,1225,1400,1575,2,0,1,0.25,0.25,0.25,0.25,0.25,0.25,0.25,0.25,0.25,0.25,-0.5,-0.5,-0.5,-0.5,-0.5,-0.5,-0.5,-0.5,-0.5,-0.5,-0.5,linear,100,0.025,0,0.5,TRUE,2,poolmodel,0.7627,-0.025742330547310035,0.00748206704752539,0,10000
10,250,0,175,350,525,700,875,1050,1225,1400,1575,2,0,1,0.25,0.25,0.25,0.25,0.25,0.25,0.25,0.25,0.25,0.25,-0.5,-0.5,-0.5,-0.5,-0.5,-0.5,-0.5,-0.5,-0.5,-0.5,-0.5,linear,100,0.025,0,0.5,TRUE,2,sepmodel,0.7968,5.459474122196499e-4,0.007923745559115921,0,10000
10,250,0,175,350,525,700,875,1050,1225,1400,1575,2,0,1,0.25,0.25,0.25,0.25,0.25,0.25,0.25,0.25,0.25,0.25,-0.5,-0.5,-0.5,-0.5,-0.5,-0.5,-0.5,-0.5,-0.5,-0.5,-0.5,linear,100,0.025,0,0.5,TRUE,3,fixmodel,0.8354,-9.040987116410008e-5,0.007320804767991752,0,10000
10,250,0,175,350,525,700,875,1050,1225,1400,1575,2,0,1,0.25,0.25,0.25,0.25,0.25,0.25,0.25,0.25,0.25,0.25,-0.5,-0.5,-0.5,-0.5,-0.5,-0.5,-0.5,-0.5,-0.5,-0.5,-0.5,linear,100,0.025,0,0.5,TRUE,3,poolmodel,0.6896,-0.052192584069386073,0.009250065247148127,0,10000
10,250,0,175,350,525,700,875,1050,1225,1400,1575,2,0,1,0.25,0.25,0.25,0.25,0.25,0.25,0.25,0.25,0.25,0.25,-0.5,-0.5,-0.5,-0.5,-0.5,-0.5,-0.5,-0.5,-0.5,-0.5,-0.5,linear,100,0.025,0,0.5,TRUE,3,sepmodel,0.8013,5.062073381414059e-4,0.00798596484583267,0,10000
10,250,0,175,350,525,700,875,1050,1225,1400,1575,2,0,1,0.25,0.25,0.25,0.25,0.25,0.25,0.25,0.25,0.25,0.25,-0.5,-0.5,-0.5,-0.5,-0.5,-0.5,-0.5,-0.5,-0.5,-0.5,-0.5,linear,100,0.025,0,0.5,TRUE,4,fixmodel,0.8449,5.012268424212607e-4,0.007060440771632588,0,10000
10,250,0,175,350,525,700,875,1050,1225,1400,1575,2,0,1,0.25,0.25,0.25,0.25,0.25,0.25,0.25,0.25,0.25,0.25,-0.5,-0.5,-0.5,-0.5,-0.5,-0.5,-0.5,-0.5,-0.5,-0.5,-0.5,linear,100,0.025,0,0.5,TRUE,4,poolmodel,0.5848,-0.07686208852356968,0.012101946669609993,0,10000
10,250,0,175,350,525,700,875,1050,1225,1400,1575,2,0,1,0.25,0.25,0.25,0.25,0.25,0.25,0.25,0.25,0.25,0.25,-0.5,-0.5,-0.5,-0.5,-0.5,-0.5,-0.5,-0.5,-0.5,-0.5,-0.5,linear,100,0.025,0,0.5,TRUE,4,sepmodel,0.8005,7.326041313886369e-4,0.00795063140640984,0,10000
10,250,0,175,350,525,700,875,1050,1225,1400,1575,2,0,1,0.25,0.25,0.25,0.25,0.25,0.25,0.25,0.25,0.25,0.25,-0.5,-0.5,-0.5,-0.5,-0.5,-0.5,-0.5,-0.5,-0.5,-0.5,-0.5,linear,100,0.025,0,0.5,TRUE,5,fixmodel,0.846,-4.477299113956086e-4,0.006868412007110726,0,10000
10,250,0,175,350,525,700,875,1050,1225,1400,1575,2,0,1,0.25,0.25,0.25,0.25,0.25,0.25,0.25,0.25,0.25,0.25,-0.5,-0.5,-0.5,-0.5,-0.5,-0.5,-0.5,-0.5,-0.5,-0.5,-0.5,linear,100,0.025,0,0.5,TRUE,5,poolmodel,0.4734,-0.1003150203572123,0.015922373271522718,0,10000
10,250,0,175,350,525,700,875,1050,1225,1400,1575,2,0,1,0.25,0.25,0.25,0.25,0.25,0.25,0.25,0.25,0.25,0.25,-0.5,-0.5,-0.5,-0.5,-0.5,-0.5,-0.5,-0.5,-0.5,-0.5,-0.5,linear,100,0.025,0,0.5,TRUE,5,sepmodel,0.7891,-5.257959131389521e-4,0.007889164424611145,0,10000
10,250,0,175,350,525,700,875,1050,1225,1400,1575,2,0,1,0.25,0.25,0.25,0.25,0.25,0.25,0.25,0.25,0.25,0.25,-0.5,-0.5,-0.5,-0.5,-0.5,-0.5,-0.5,-0.5,-0.5,-0.5,-0.5,linear,100,0.025,0,0.5,TRUE,6,fixmodel,0.8546,0.0013617084080136256,0.006910730861481695,0,10000
10,250,0,175,350,525,700,875,1050,1225,1400,1575,2,0,1,0.25,0.25,0.25,0.25,0.25,0.25,0.25,0.25,0.25,0.25,-0.5,-0.5,-0.5,-0.5,-0.5,-0.5,-0.5,-0.5,-0.5,-0.5,-0.5,linear,100,0.025,0,0.5,TRUE,6,poolmodel,0.3877,-0.11869654406927009,0.019990335529497753,0,10000
10,250,0,175,350,525,700,875,1050,1225,1400,1575,2,0,1,0.25,0.25,0.25,0.25,0.25,0.25,0.25,0.25,0.25,0.25,-0.5,-0.5,-0.5,-0.5,-0.5,-0.5,-0.5,-0.5,-0.5,-0.5,-0.5,linear,100,0.025,0,0.5,TRUE,6,sepmodel,0.7956,0.0010524597667605294,0.007969645176729111,0,10000
10,250,0,175,350,525,700,875,1050,1225,1400,1575,2,0,1,0.25,0.25,0.25,0.25,0.25,0.25,0.25,0.25,0.25,0.25,-0.5,-0.5,-0.5,-0.5,-0.5,-0.5,-0.5,-0.5,-0.5,-0.5,-0.5,linear,100,0.025,0,0.5,TRUE,7,fixmodel,0.8548,-5.497897085726822e-4,0.006741057463900233,0,10000
10,250,0,175,350,525,700,875,1050,1225,1400,1575,2,0,1,0.25,0.25,0.25,0.25,0.25,0.25,0.25,0.25,0.25,0.25,-0.5,-0.5,-0.5,-0.5,-0.5,-0.5,-0.5,-0.5,-0.5,-0.5,-0.5,linear,100,0.025,0,0.5,TRUE,7,poolmodel,0.2939,-0.14002930237475675,0.025393973574636103,0,10000
10,250,0,175,350,525,700,875,1050,1225,1400,1575,2,0,1,0.25,0.25,0.25,0.25,0.25,0.25,0.25,0.25,0.25,0.25,-0.5,-0.5,-0.5,-0.5,-0.5,-0.5,-0.5,-0.5,-0.5,-0.5,-0.5,linear,100,0.025,0,0.5,TRUE,7,sepmodel,0.7922,-0.0010218441678545582,0.007946868915109505,0,10000
10,250,0,175,350,525,700,875,1050,1225,1400,1575,2,0,1,0.25,0.25,0.25,0.25,0.25,0.25,0.25,0.25,0.25,0.25,-0.5,-0.5,-0.5,-0.5,-0.5,-0.5,-0.5,-0.5,-0.5,-0.5,-0.5,linear,100,0.025,0,0.5,TRUE,8,fixmodel,0.859,8.85751202744125e-6,0.006799326449009592,0,10000
10,250,0,175,350,525,700,875,1050,1225,1400,1575,2,0,1,0.25,0.25,0.25,0.25,0.25,0.25,0.25,0.25,0.25,0.25,-0.5,-0.5,-0.5,-0.5,-0.5,-0.5,-0.5,-0.5,-0.5,-0.5,-0.5,linear,100,0.025,0,0.5,TRUE,8,poolmodel,0.2267,-0.1557970112515044,0.03002095449740751,0,10000
10,250,0,175,350,525,700,875,1050,1225,1400,1575,2,0,1,0.25,0.25,0.25,0.25,0.25,0.25,0.25,0.25,0.25,0.25,-0.5,-0.5,-0.5,-0.5,-0.5,-0.5,-0.5,-0.5,-0.5,-0.5,-0.5,linear,100,0.025,0,0.5,TRUE,8,sepmodel,0.7935,-3.073856711163529e-4,0.007985865054318683,0,10000
10,250,0,175,350,525,700,875,1050,1225,1400,1575,2,0,1,0.25,0.25,0.25,0.25,0.25,0.25,0.25,0.25,0.25,0.25,-0.5,-0.5,-0.5,-0.5,-0.5,-0.5,-0.5,-0.5,-0.5,-0.5,-0.5,linear,100,0.025,0,0.5,TRUE,9,fixmodel,0.8606,-2.2276162708978925e-4,0.006676370822700318,0,10000
10,250,0,175,350,525,700,875,1050,1225,1400,1575,2,0,1,0.25,0.25,0.25,0.25,0.25,0.25,0.25,0.25,0.25,0.25,-0.5,-0.5,-0.5,-0.5,-0.5,-0.5,-0.5,-0.5,-0.5,-0.5,-0.5,linear,100,0.025,0,0.5,TRUE,9,poolmodel,0.1768,-0.16933659462727554,0.0343141114752739,0,10000
10,250,0,175,350,525,700,875,1050,1225,1400,1575,2,0,1,0.25,0.25,0.25,0.25,0.25,0.25,0.25,0.25,0.25,0.25,-0.5,-0.5,-0.5,-0.5,-0.5,-0.5,-0.5,-0.5,-0.5,-0.5,-0.5,linear,100,0.025,0,0.5,TRUE,9,sepmodel,0.7916,-7.512379666038443e-4,0.008027560462952221,0,10000
10,250,0,175,350,525,700,875,1050,1225,1400,1575,2,0,1,0.25,0.25,0.25,0.25,0.25,0.25,0.25,0.25,0.25,0.25,-0.5,-0.5,-0.5,-0.5,-0.5,-0.5,-0.5,-0.5,-0.5,-0.5,-0.5,linear,100,0.025,0,0.5,TRUE,10,fixmodel,0.8582,-0.001003814468052433,0.006677990229544235,0,10000
10,250,0,175,350,525,700,875,1050,1225,1400,1575,2,0,1,0.25,0.25,0.25,0.25,0.25,0.25,0.25,0.25,0.25,0.25,-0.5,-0.5,-0.5,-0.5,-0.5,-0.5,-0.5,-0.5,-0.5,-0.5,-0.5,linear,100,0.025,0,0.5,TRUE,10,poolmodel,0.1379,-0.18163730565411607,0.03861721172661077,0,10000
10,250,0,175,350,525,700,875,1050,1225,1400,1575,2,0,1,0.25,0.25,0.25,0.25,0.25,0.25,0.25,0.25,0.25,0.25,-0.5,-0.5,-0.5,-0.5,-0.5,-0.5,-0.5,-0.5,-0.5,-0.5,-0.5,linear,100,0.025,0,0.5,TRUE,10,sepmodel,0.7892,-0.0016812826496607587,0.007959732455763513,0,10000
10,250,0,200,400,600,800,1000,1200,1400,1600,1800,2,0,1,0.25,0.25,0.25,0.25,0.25,0.25,0.25,0.25,0.25,0.25,-0.5,-0.5,-0.5,-0.5,-0.5,-0.5,-0.5,-0.5,-0.5,-0.5,-0.5,linear,100,0.025,0,0.5,TRUE,2,fixmodel,0.8222,-3.433741393497173e-5,0.007450623255845066,0,10000
10,250,0,200,400,600,800,1000,1200,1400,1600,1800,2,0,1,0.25,0.25,0.25,0.25,0.25,0.25,0.25,0.25,0.25,0.25,-0.5,-0.5,-0.5,-0.5,-0.5,-0.5,-0.5,-0.5,-0.5,-0.5,-0.5,linear,100,0.025,0,0.5,TRUE,2,poolmodel,0.7688,-0.026102012481351484,0.007557253928739127,0,10000
10,250,0,200,400,600,800,1000,1200,1400,1600,1800,2,0,1,0.25,0.25,0.25,0.25,0.25,0.25,0.25,0.25,0.25,0.25,-0.5,-0.5,-0.5,-0.5,-0.5,-0.5,-0.5,-0.5,-0.5,-0.5,-0.5,linear,100,0.025,0,0.5,TRUE,2,sepmodel,0.7985,2.797939460870788e-4,0.008008395084600481,0,10000
10,250,0,200,400,600,800,1000,1200,1400,1600,1800,2,0,1,0.25,0.25,0.25,0.25,0.25,0.25,0.25,0.25,0.25,0.25,-0.5,-0.5,-0.5,-0.5,-0.5,-0.5,-0.5,-0.5,-0.5,-0.5,-0.5,linear,100,0.025,0,0.5,TRUE,3,fixmodel,0.8372,-6.379874199985766e-4,0.007230996051988996,0,10000
10,250,0,200,400,600,800,1000,1200,1400,1600,1800,2,0,1,0.25,0.25,0.25,0.25,0.25,0.25,0.25,0.25,0.25,0.25,-0.5,-0.5,-0.5,-0.5,-0.5,-0.5,-0.5,-0.5,-0.5,-0.5,-0.5,linear,100,0.025,0,0.5,TRUE,3,poolmodel,0.6896,-0.053569563203253956,0.009265664692575002,0,10000
10,250,0,200,400,600,800,1000,1200,1400,1600,1800,2,0,1,0.25,0.25,0.25,0.25,0.25,0.25,0.25,0.25,0.25,0.25,-0.5,-0.5,-0.5,-0.5,-0.5,-0.5,-0.5,-0.5,-0.5,-0.5,-0.5,linear,100,0.025,0,0.5,TRUE,3,sepmodel,0.795,-2.4401416905748025e-4,0.007981939622603082,0,10000
10,250,0,200,400,600,800,1000,1200,1400,1600,1800,2,0,1,0.25,0.25,0.25,0.25,0.25,0.25,0.25,0.25,0.25,0.25,-0.5,-0.5,-0.5,-0.5,-0.5,-0.5,-0.5,-0.5,-0.5,-0.5,-0.5,linear,100,0.025,0,0.5,TRUE,4,fixmodel,0.8471,0.0012167380652776433,0.0069825525252694065,0,10000
10,250,0,200,400,600,800,1000,1200,1400,1600,1800,2,0,1,0.25,0.25,0.25,0.25,0.25,0.25,0.25,0.25,0.25,0.25,-0.5,-0.5,-0.5,-0.5,-0.5,-0.5,-0.5,-0.5,-0.5,-0.5,-0.5,linear,100,0.025,0,0.5,TRUE,4,poolmodel,0.5981,-0.07713632818119898,0.011916255596430734,0,10000
10,250,0,200,400,600,800,1000,1200,1400,1600,1800,2,0,1,0.25,0.25,0.25,0.25,0.25,0.25,0.25,0.25,0.25,0.25,-0.5,-0.5,-0.5,-0.5,-0.5,-0.5,-0.5,-0.5,-0.5,-0.5,-0.5,linear,100,0.025,0,0.5,TRUE,4,sepmodel,0.8059,0.0014136623689792625,0.00774268979831685,0,10000
10,250,0,200,400,600,800,1000,1200,1400,1600,1800,2,0,1,0.25,0.25,0.25,0.25,0.25,0.25,0.25,0.25,0.25,0.25,-0.5,-0.5,-0.5,-0.5,-0.5,-0.5,-0.5,-0.5,-0.5,-0.5,-0.5,linear,100,0.025,0,0.5,TRUE,5,fixmodel,0.8446,3.013657262516621e-4,0.007043223303476304,0,10000
10,250,0,200,400,600,800,1000,1200,1400,1600,1800,2,0,1,0.25,0.25,0.25,0.25,0.25,0.25,0.25,0.25,0.25,0.25,-0.5,-0.5,-0.5,-0.5,-0.5,-0.5,-0.5,-0.5,-0.5,-0.5,-0.5,linear,100,0.025,0,0.5,TRUE,5,poolmodel,0.4743,-0.10185340963319103,0.01627322857986497,0,10000
10,250,0,200,400,600,800,1000,1200,1400,1600,1800,2,0,1,0.25,0.25,0.25,0.25,0.25,0.25,0.25,0.25,0.25,0.25,-0.5,-0.5,-0.5,-0.5,-0.5,-0.5,-0.5,-0.5,-0.5,-0.5,-0.5,linear,100,0.025,0,0.5,TRUE,5,sepmodel,0.7988,6.598599047020694e-4,0.007948200734333466,0,10000
10,250,0,200,400,600,800,1000,1200,1400,1600,1800,2,0,1,0.25,0.25,0.25,0.25,0.25,0.25,0.25,0.25,0.25,0.25,-0.5,-0.5,-0.5,-0.5,-0.5,-0.5,-0.5,-0.5,-0.5,-0.5,-0.5,linear,100,0.025,0,0.5,TRUE,6,fixmodel,0.8515,8.921816069748571e-4,0.006989112563756343,0,10000
10,250,0,200,400,600,800,1000,1200,1400,1600,1800,2,0,1,0.25,0.25,0.25,0.25,0.25,0.25,0.25,0.25,0.25,0.25,-0.5,-0.5,-0.5,-0.5,-0.5,-0.5,-0.5,-0.5,-0.5,-0.5,-0.5,linear,100,0.025,0,0.5,TRUE,6,poolmodel,0.365,-0.12544203875360208,0.021547319722620126,0,10000
10,250,0,200,400,600,800,1000,1200,1400,1600,1800,2,0,1,0.25,0.25,0.25,0.25,0.25,0.25,0.25,0.25,0.25,0.25,-0.5,-0.5,-0.5,-0.5,-0.5,-0.5,-0.5,-0.5,-0.5,-0.5,-0.5,linear,100,0.025,0,0.5,TRUE,6,sepmodel,0.7981,0.0013237344926130083,0.0080031268715272455,0,10000
10,250,0,200,400,600,800,1000,1200,1400,1600,1800,2,0,1,0.25,0.25,0.25,0.25,0.25,0.25,0.25,0.25,0.25,0.25,-0.5,-0.5,-0.5,-0.5,-0.5,-0.5,-0.5,-0.5,-0.5,-0.5,-0.5,linear,100,0.025,0,0.5,TRUE,7,fixmodel,0.8513,4.8539399890261056e-4,0.006948315202527467,0,10000
10,250,0,200,400,600,800,1000,1200,1400,1600,1800,2,0,1,0.25,0.25,0.25,0.25,0.25,0.25,0.25,0.25,0.25,0.25,-0.5,-0.5,-0.5,-0.5,-0.5,-0.5,-0.5,-0.5,-0.5,-0.5,-0.5,linear,100,0.025,0,0.5,TRUE,7,poolmodel,0.2736,-0.14587325328487807,0.02707099747134333,0,10000
10,250,0,200,400,600,800,1000,1200,1400,1600,1800,2,0,1,0.25,0.25,0.25,0.25,0.25,0.25,0.25,0.25,0.25,0.25,-0.5,-0.5,-0.5,-0.5,-0.5,-0.5,-0.5,-0.5,-0.5,-0.5,-0.5,linear,100,0.025,0,0.5,TRUE,7,sepmodel,0.7964,6.672752392859645e-4,0.00805700292092915,0,10000
10,250,0,200,400,600,800,1000,1200,1400,1600,1800,2,0,1,0.25,0.25,0.25,0.25,0.25,0.25,0.25,0.25,0.25,0.25,-0.5,-0.5,-0.5,-0.5,-0.5,-0.5,-0.5,-0.5,-0.5,-0.5,-0.5,linear,100,0.025,0,0.5,TRUE,8,fixmodel,0.8531,-3.9433505418304233e-4,0.006926853194996813,0,10000
10,250,0,200,400,600,800,1000,1200,1400,1600,1800,2,0,1,0.25,0.25,0.25,0.25,0.25,0.25,0.25,0.25,0.25,0.25,-0.5,-0.5,-0.5,-0.5,-0.5,-0.5,-0.5,-0.5,-0.5,-0.5,-0.5,linear,100,0.025,0,0.5,TRUE,8,poolmodel,0.2015,-0.16490217880644065,0.03288803020665333,0,10000
10,250,0,200,400,600,800,1000,1200,1400,1600,1800,2,0,1,0.25,0.25,0.25,0.25,0.25,0.25,0.25,0.25,0.25,0.25,-0.5,-0.5,-0.5,-0.5,-0.5,-0.5,-0.5,-0.5,-0.5,-0.5,-0.5,linear,100,0.025,0,0.5,TRUE,8,sepmodel,0.7851,-5.894720499272358e-4,0.00813166079326712,0,10000
10,250,0,200,400,600,800,1000,1200,1400,1600,1800,2,0,1,0.25,0.25,0.25,0.25,0.25,0.25,0.25,0.25,0.25,0.25,-0.5,-0.5,-0.5,-0.5,-0.5,-0.5,-0.5,-0.5,-0.5,-0.5,-0.5,linear,100,0.025,0,0.5,TRUE,9,fixmodel,0.8566,-0.0010104641012425566,0.006829624334460123,0,10000
10,250,0,200,400,600,800,1000,1200,1400,1600,1800,2,0,1,0.25,0.25,0.25,0.25,0.25,0.25,0.25,0.25,0.25,0.25,-0.5,-0.5,-0.5,-0.5,-0.5,-0.5,-0.5,-0.5,-0.5,-0.5,-0.5,linear,100,0.025,0,0.5,TRUE,9,poolmodel,0.1488,-0.18092547951166296,0.038382687663213594,0,10000
10,250,0,200,400,600,800,1000,1200,1400,1600,1800,2,0,1,0.25,0.25,0.25,0.25,0.25,0.25,0.25,0.25,0.25,0.25,-0.5,-0.5,-0.5,-0.5,-0.5,-0.5,-0.5,-0.5,-0.5,-0.5,-0.5,linear,100,0.025,0,0.5,TRUE,9,sepmodel,0.7907,-0.0013464720354995849,0.008010175825353042,0,10000
10,250,0,200,400,600,800,1000,1200,1400,1600,1800,2,0,1,0.25,0.25,0.25,0.25,0.25,0.25,0.25,0.25,0.25,0.25,-0.5,-0.5,-0.5,-0.5,-0.5,-0.5,-0.5,-0.5,-0.5,-0.5,-0.5,linear,100,0.025,0,0.5,TRUE,10,fixmodel,0.8609,3.223721221382816e-4,0.0068250521853795544,0,10000
10,250,0,200,400,600,800,1000,1200,1400,1600,1800,2,0,1,0.25,0.25,0.25,0.25,0.25,0.25,0.25,0.25,0.25,0.25,-0.5,-0.5,-0.5,-0.5,-0.5,-0.5,-0.5,-0.5,-0.5,-0.5,-0.5,linear,100,0.025,0,0.5,TRUE,10,poolmodel,0.1195,-0.1915533804311747,0.0422360744917658,0,10000
10,250,0,200,400,600,800,1000,1200,1400,1600,1800,2,0,1,0.25,0.25,0.25,0.25,0.25,0.25,0.25,0.25,0.25,0.25,-0.5,-0.5,-0.5,-0.5,-0.5,-0.5,-0.5,-0.5,-0.5,-0.5,-0.5,linear,100,0.025,0,0.5,TRUE,10,sepmodel,0.7952,1.4487291154199905e-4,0.008023723486505171,0,10000
10,250,0,225,450,675,900,1125,1350,1575,1800,2025,2,0,1,0.25,0.25,0.25,0.25,0.25,0.25,0.25,0.25,0.25,0.25,-0.5,-0.5,-0.5,-0.5,-0.5,-0.5,-0.5,-0.5,-0.5,-0.5,-0.5,linear,100,0.025,0,0.5,TRUE,2,fixmodel,0.8252,1.5035176691338518e-4,0.007456005526978908,0,10000
10,250,0,225,450,675,900,1125,1350,1575,1800,2025,2,0,1,0.25,0.25,0.25,0.25,0.25,0.25,0.25,0.25,0.25,0.25,-0.5,-0.5,-0.5,-0.5,-0.5,-0.5,-0.5,-0.5,-0.5,-0.5,-0.5,linear,100,0.025,0,0.5,TRUE,2,poolmodel,0.7724,-0.02699104426940585,0.007503114993467535,0,10000
10,250,0,225,450,675,900,1125,1350,1575,1800,2025,2,0,1,0.25,0.25,0.25,0.25,0.25,0.25,0.25,0.25,0.25,0.25,-0.5,-0.5,-0.5,-0.5,-0.5,-0.5,-0.5,-0.5,-0.5,-0.5,-0.5,linear,100,0.025,0,0.5,TRUE,2,sepmodel,0.7952,2.0413235758420518e-4,0.008018559442901538,0,10000
10,250,0,225,450,675,900,1125,1350,1575,1800,2025,2,0,1,0.25,0.25,0.25,0.25,0.25,0.25,0.25,0.25,0.25,0.25,-0.5,-0.5,-0.5,-0.5,-0.5,-0.5,-0.5,-0.5,-0.5,-0.5,-0.5,linear,100,0.025,0,0.5,TRUE,3,fixmodel,0.8398,2.1581456552714548e-4,0.007258813559891806,0,10000
10,250,0,225,450,675,900,1125,1350,1575,1800,2025,2,0,1,0.25,0.25,0.25,0.25,0.25,0.25,0.25,0.25,0.25,0.25,-0.5,-0.5,-0.5,-0.5,-0.5,-0.5,-0.5,-0.5,-0.5,-0.5,-0.5,linear,100,0.025,0,0.5,TRUE,3,poolmodel,0.6996,-0.05296033917106921,0.009040700170708356,0,10000
10,250,0,225,450,675,900,1125,1350,1575,1800,2025,2,0,1,0.25,0.25,0.25,0.25,0.25,0.25,0.25,0.25,0.25,0.25,-0.5,-0.5,-0.5,-0.5,-0.5,-0.5,-0.5,-0.5,-0.5,-0.5,-0.5,linear,100,0.025,0,0.5,TRUE,3,sepmodel,0.7996,1.7316233227591935e-4,0.008012273615375064,0,10000
10,250,0,225,450,675,900,1125,1350,1575,1800,2025,2,0,1,0.25,0.25,0.25,0.25,0.25,0.25,0.25,0.25,0.25,0.25,-0.5,-0.5,-0.5,-0.5,-0.5,-0.5,-0.5,-0.5,-0.5,-0.5,-0.5,linear,100,0.025,0,0.5,TRUE,4,fixmodel,0.843,6.617131114389312e-4,0.007248320471826036,0,10000
10,250,0,225,450,675,900,1125,1350,1575,1800,2025,2,0,1,0.25,0.25,0.25,0.25,0.25,0.25,0.25,0.25,0.25,0.25,-0.5,-0.5,-0.5,-0.5,-0.5,-0.5,-0.5,-0.5,-0.5,-0.5,-0.5,linear,100,0.025,0,0.5,TRUE,4,poolmodel,0.6025,-0.07651574736578003,0.01199237009339959,0,10000
10,250,0,225,450,675,900,1125,1350,1575,1800,2025,2,0,1,0.25,0.25,0.25,0.25,0.25,0.25,0.25,0.25,0.25,0.25,-0.5,-0.5,-0.5,-0.5,-0.5,-0.5,-0.5,-0.5,-0.5,-0.5,-0.5,linear,100,0.025,0,0.5,TRUE,4,sepmodel,0.7995,5.303880858770684e-4,0.00806318264864188,0,10000
10,250,0,225,450,675,900,1125,1350,1575,1800,2025,2,0,1,0.25,0.25,0.25,0.25,0.25,0.25,0.25,0.25,0.25,0.25,-0.5,-0.5,-0.5,-0.5,-0.5,-0.5,-0.5,-0.5,-0.5,-0.5,-0.5,linear,100,0.025,0,0.5,TRUE,5,fixmodel,0.8481,9.82296464825559e-4,0.006951578641393689,0,10000
10,250,0,225,450,675,900,1125,1350,1575,1800,2025,2,0,1,0.25,0.25,0.25,0.25,0.25,0.25,0.25,0.25,0.25,0.25,-0.5,-0.5,-0.5,-0.5,-0.5,-0.5,-0.5,-0.5,-0.5,-0.5,-0.5,linear,100,0.025,0,0.5,TRUE,5,poolmodel,0.4753,-0.1035579687321215,0.016527075948390132,0,10000
10,250,0,225,450,675,900,1125,1350,1575,1800,2025,2,0,1,0.25,0.25,0.25,0.25,0.25,0.25,0.25,0.25,0.25,0.25,-0.5,-0.5,-0.5,-0.5,-0.5,-0.5,-0.5,-0.5,-0.5,-0.5,-0.5,linear,100,0.025,0,0.5,TRUE,5,sepmodel,0.7986,7.581922847423064e-4,0.007984060264155797,0,10000
10,250,0,225,450,675,900,1125,1350,1575,1800,2025,2,0,1,0.25,0.25,0.25,0.25,0.25,0.25,0.25,0.25,0.25,0.25,-0.5,-0.5,-0.5,-0.5,-0.5,-0.5,-0.5,-0.5,-0.5,-0.5,-0.5,linear,100,0.025,0,0.5,TRUE,6,fixmodel,0.8514,8.113664109030558e-4,0.006990340398015922,0,10000
10,250,0,225,450,675,900,1125,1350,1575,1800,2025,2,0,1,0.25,0.25,0.25,0.25,0.25,0.25,0.25,0.25,0.25,0.25,-0.5,-0.5,-0.5,-0.5,-0.5,-0.5,-0.5,-0.5,-0.5,-0.5,-0.5,linear,100,0.025,0,0.5,TRUE,6,poolmodel,0.3642,-0.12803548240478743,0.022134320111081813,0,10000
10,250,0,225,450,675,900,1125,1350,1575,1800,2025,2,0,1,0.25,0.25,0.25,0.25,0.25,0.25,0.25,0.25,0.25,0.25,-0.5,-0.5,-0.5,-0.5,-0.5,-0.5,-0.5,-0.5,-0.5,-0.5,-0.5,linear,100,0.025,0,0.5,TRUE,6,sepmodel,0.7991,7.15377639607215e-4,0.00806005709805428,0,10000
10,250,0,225,450,675,900,1125,1350,1575,1800,2025,2,0,1,0.25,0.25,0.25,0.25,0.25,0.25,0.25,0.25,0.25,0.25,-0.5,-0.5,-0.5,-0.5,-0.5,-0.5,-0.5,-0.5,-0.5,-0.5,-0.5,linear,100,0.025,0,0.5,TRUE,7,fixmodel,0.8515,9.945805092043392e-4,0.007025294974890432,0,10000
10,250,0,225,450,675,900,1125,1350,1575,1800,2025,2,0,1,0.25,0.25,0.25,0.25,0.25,0.25,0.25,0.25,0.25,0.25,-0.5,-0.5,-0.5,-0.5,-0.5,-0.5,-0.5,-0.5,-0.5,-0.5,-0.5,linear,100,0.025,0,0.5,TRUE,7,poolmodel,0.2666,-0.15025605522261234,0.028266222209439234,0,10000
10,250,0,225,450,675,900,1125,1350,1575,1800,2025,2,0,1,0.25,0.25,0.25,0.25,0.25,0.25,0.25,0.25,0.25,0.25,-0.5,-0.5,-0.5,-0.5,-0.5,-0.5,-0.5,-0.5,-0.5,-0.5,-0.5,linear,100,0.025,0,0.5,TRUE,7,sepmodel,0.8016,0.0016234282212577087,0.008237337856945273,0,10000
10,250,0,225,450,675,900,1125,1350,1575,1800,2025,2,0,1,0.25,0.25,0.25,0.25,0.25,0.25,0.25,0.25,0.25,0.25,-0.5,-0.5,-0.5,-0.5,-0.5,-0.5,-0.5,-0.5,-0.5,-0.5,-0.5,linear,100,0.025,0,0.5,TRUE,8,fixmodel,0.8537,6.185620650500006e-4,0.006904665677333773,0,10000
10,250,0,225,450,675,900,1125,1350,1575,1800,2025,2,0,1,0.25,0.25,0.25,0.25,0.25,0.25,0.25,0.25,0.25,0.25,-0.5,-0.5,-0.5,-0.5,-0.5,-0.5,-0.5,-0.5,-0.5,-0.5,-0.5,linear,100,0.025,0,0.5,TRUE,8,poolmodel,0.1843,-0.1706526554133536,0.03465449942623744,0,10000
10,250,0,225,450,675,900,1125,1350,1575,1800,2025,2,0,1,0.25,0.25,0.25,0.25,0.25,0.25,0.25,0.25,0.25,0.25,-0.5,-0.5,-0.5,-0.5,-0.5,-0.5,-0.5,-0.5,-0.5,-0.5,-0.5,linear,100,0.025,0,0.5,TRUE,8,sepmodel,0.802,0.0013610619288500366,0.007943695631091995,0,10000
10,250,0,225,450,675,900,1125,1350,1575,1800,2025,2,0,1,0.25,0.25,0.25,0.25,0.25,0.25,0.25,0.25,0.25,0.25,-0.5,-0.5,-0.5,-0.5,-0.5,-0.5,-0.5,-0.5,-0.5,-0.5,-0.5,linear,100,0.025,0,0.5,TRUE,9,fixmodel,0.8573,0.0010215774662969176,0.006926593686725434,0,10000
10,250,0,225,450,675,900,1125,1350,1575,1800,2025,2,0,1,0.25,0.25,0.25,0.25,0.25,0.25,0.25,0.25,0.25,0.25,-0.5,-0.5,-0.5,-0.5,-0.5,-0.5,-0.5,-0.5,-0.5,-0.5,-0.5,linear,100,0.025,0,0.5,TRUE,9,poolmodel,0.1322,-0.1874107692132457,0.040577364299650434,0,10000
10,250,0,225,450,675,900,1125,1350,1575,1800,2025,2,0,1,0.25,0.25,0.25,0.25,0.25,0.25,0.25,0.25,0.25,0.25,-0.5,-0.5,-0.5,-0.5,-0.5,-0.5,-0.5,-0.5,-0.5,-0.5,-0.5,linear,100,0.025,0,0.5,TRUE,9,sepmodel,0.7982,0.0018957981529212585,0.008076995974624662,0,10000
10,250,0,225,450,675,900,1125,1350,1575,1800,2025,2,0,1,0.25,0.25,0.25,0.25,0.25,0.25,0.25,0.25,0.25,0.25,-0.5,-0.5,-0.5,-0.5,-0.5,-0.5,-0.5,-0.5,-0.5,-0.5,-0.5,linear,100,0.025,0,0.5,TRUE,10,fixmodel,0.8528,-0.0010901046317433852,0.006977893329995664,0,10000
10,250,0,225,450,675,900,1125,1350,1575,1800,2025,2,0,1,0.25,0.25,0.25,0.25,0.25,0.25,0.25,0.25,0.25,0.25,-0.5,-0.5,-0.5,-0.5,-0.5,-0.5,-0.5,-0.5,-0.5,-0.5,-0.5,linear,100,0.025,0,0.5,TRUE,10,poolmodel,0.0928,-0.2026004435101718,0.0464961172773255,0,10000
10,250,0,225,450,675,900,1125,1350,1575,1800,2025,2,0,1,0.25,0.25,0.25,0.25,0.25,0.25,0.25,0.25,0.25,0.25,-0.5,-0.5,-0.5,-0.5,-0.5,-0.5,-0.5,-0.5,-0.5,-0.5,-0.5,linear,100,0.025,0,0.5,TRUE,10,sepmodel,0.7889,-5.616218055865575e-4,0.008131728166700701,0,10000
10,250,0,250,500,750,1000,1250,1500,1750,2000,2250,2,0,1,0.25,0.25,0.25,0.25,0.25,0.25,0.25,0.25,0.25,0.25,-0.5,-0.5,-0.5,-0.5,-0.5,-0.5,-0.5,-0.5,-0.5,-0.5,-0.5,linear,100,0.025,0,0.5,TRUE,2,fixmodel,0.8293,7.007733655619907e-4,0.00736552004080322,0,10000
10,250,0,250,500,750,1000,1250,1500,1750,2000,2250,2,0,1,0.25,0.25,0.25,0.25,0.25,0.25,0.25,0.25,0.25,0.25,-0.5,-0.5,-0.5,-0.5,-0.5,-0.5,-0.5,-0.5,-0.5,-0.5,-0.5,linear,100,0.025,0,0.5,TRUE,2,poolmodel,0.7837,-0.026696774939662424,0.007349685011157913,0,10000
10,250,0,250,500,750,1000,1250,1500,1750,2000,2250,2,0,1,0.25,0.25,0.25,0.25,0.25,0.25,0.25,0.25,0.25,0.25,-0.5,-0.5,-0.5,-0.5,-0.5,-0.5,-0.5,-0.5,-0.5,-0.5,-0.5,linear,100,0.025,0,0.5,TRUE,2,sepmodel,0.8019,7.202965127178861e-4,0.00785428969290269,0,10000
10,250,0,250,500,750,1000,1250,1500,1750,2000,2250,2,0,1,0.25,0.25,0.25,0.25,0.25,0.25,0.25,0.25,0.25,0.25,-0.5,-0.5,-0.5,-0.5,-0.5,-0.5,-0.5,-0.5,-0.5,-0.5,-0.5,linear,100,0.025,0,0.5,TRUE,3,fixmodel,0.8281,-5.712410151903278e-4,0.00732120917468608,0,10000
10,250,0,250,500,750,1000,1250,1500,1750,2000,2250,2,0,1,0.25,0.25,0.25,0.25,0.25,0.25,0.25,0.25,0.25,0.25,-0.5,-0.5,-0.5,-0.5,-0.5,-0.5,-0.5,-0.5,-0.5,-0.5,-0.5,linear,100,0.025,0,0.5,TRUE,3,poolmodel,0.696,-0.053741440388587004,0.009124477076461373,0,10000
10,250,0,250,500,750,1000,1250,1500,1750,2000,2250,2,0,1,0.25,0.25,0.25,0.25,0.25,0.25,0.25,0.25,0.25,0.25,-0.5,-0.5,-0.5,-0.5,-0.5,-0.5,-0.5,-0.5,-0.5,-0.5,-0.5,linear,100,0.025,0,0.5,TRUE,3,sepmodel,0.7911,-9.077481498355537e-4,0.007963135365579705,0,10000
10,250,0,250,500,750,1000,1250,1500,1750,2000,2250,2,0,1,0.25,0.25,0.25,0.25,0.25,0.25,0.25,0.25,0.25,0.25,-0.5,-0.5,-0.5,-0.5,-0.5,-0.5,-0.5,-0.5,-0.5,-0.5,-0.5,linear,100,0.025,0,0.5,TRUE,4,fixmodel,0.8364,-7.322105528610013e-4,0.007272704474303057,0,10000
10,250,0,250,500,750,1000,1250,1500,1750,2000,2250,2,0,1,0.25,0.25,0.25,0.25,0.25,0.25,0.25,0.25,0.25,0.25,-0.5,-0.5,-0.5,-0.5,-0.5,-0.5,-0.5,-0.5,-0.5,-0.5,-0.5,linear,100,0.025,0,0.5,TRUE,4,poolmodel,0.6002,-0.0787163815797005,0.012088038220531252,0,10000
10,250,0,250,500,750,1000,1250,1500,1750,2000,2250,2,0,1,0.25,0.25,0.25,0.25,0.25,0.25,0.25,0.25,0.25,0.25,-0.5,-0.5,-0.5,-0.5,-0.5,-0.5,-0.5,-0.5,-0.5,-0.5,-0.5,linear,100,0.025,0,0.5,TRUE,4,sepmodel,0.7912,-9.014880771887818e-4,0.008153316933866471,0,10000
10,250,0,250,500,750,1000,1250,1500,1750,2000,2250,2,0,1,0.25,0.25,0.25,0.25,0.25,0.25,0.25,0.25,0.25,0.25,-0.5,-0.5,-0.5,-0.5,-0.5,-0.5,-0.5,-0.5,-0.5,-0.5,-0.5,linear,100,0.025,0,0.5,TRUE,5,fixmodel,0.8394,-0.0015887461404878235,0.0069332761002902765,0,10000
10,250,0,250,500,750,1000,1250,1500,1750,2000,2250,2,0,1,0.25,0.25,0.25,0.25,0.25,0.25,0.25,0.25,0.25,0.25,-0.5,-0.5,-0.5,-0.5,-0.5,-0.5,-0.5,-0.5,-0.5,-0.5,-0.5,linear,100,0.025,0,0.5,TRUE,5,poolmodel,0.475,-0.10569555635536872,0.016737004995043613,0,10000
10,250,0,250,500,750,1000,1250,1500,1750,2000,2250,2,0,1,0.25,0.25,0.25,0.25,0.25,0.25,0.25,0.25,0.25,0.25,-0.5,-0.5,-0.5,-0.5,-0.5,-0.5,-0.5,-0.5,-0.5,-0.5,-0.5,linear,100,0.025,0,0.5,TRUE,5,sepmodel,0.7936,-0.0019964210435730505,0.00783987584959649,0,10000
10,250,0,250,500,750,1000,1250,1500,1750,2000,2250,2,0,1,0.25,0.25,0.25,0.25,0.25,0.25,0.25,0.25,0.25,0.25,-0.5,-0.5,-0.5,-0.5,-0.5,-0.5,-0.5,-0.5,-0.5,-0.5,-0.5,linear,100,0.025,0,0.5,TRUE,6,fixmodel,0.8459,-0.001162083030982877,0.0069650023998501275,0,10000
10,250,0,250,500,750,1000,1250,1500,1750,2000,2250,2,0,1,0.25,0.25,0.25,0.25,0.25,0.25,0.25,0.25,0.25,0.25,-0.5,-0.5,-0.5,-0.5,-0.5,-0.5,-0.5,-0.5,-0.5,-0.5,-0.5,linear,100,0.025,0,0.5,TRUE,6,poolmodel,0.3602,-0.13043618282510383,0.022516305022191346,0,10000
10,250,0,250,500,750,1000,1250,1500,1750,2000,2250,2,0,1,0.25,0.25,0.25,0.25,0.25,0.25,0.25,0.25,0.25,0.25,-0.5,-0.5,-0.5,-0.5,-0.5,-0.5,-0.5,-0.5,-0.5,-0.5,-0.5,linear,100,0.025,0,0.5,TRUE,6,sepmodel,0.7946,-0.0016308263647348046,0.007913101831544044,0,10000
10,250,0,250,500,750,1000,1250,1500,1750,2000,2250,2,0,1,0.25,0.25,0.25,0.25,0.25,0.25,0.25,0.25,0.25,0.25,-0.5,-0.5,-0.5,-0.5,-0.5,-0.5,-0.5,-0.5,-0.5,-0.5,-0.5,linear,100,0.025,0,0.5,TRUE,7,fixmodel,0.8472,-9.631359299827595e-4,0.006930417766649138,0,10000
10,250,0,250,500,750,1000,1250,1500,1750,2000,2250,2,0,1,0.25,0.25,0.25,0.25,0.25,0.25,0.25,0.25,0.25,0.25,-0.5,-0.5,-0.5,-0.5,-0.5,-0.5,-0.5,-0.5,-0.5,-0.5,-0.5,linear,100,0.025,0,0.5,TRUE,7,poolmodel,0.2444,-0.15452770392006185,0.029267848231414952,0,10000
10,250,0,250,500,750,1000,1250,1500,1750,2000,2250,2,0,1,0.25,0.25,0.25,0.25,0.25,0.25,0.25,0.25,0.25,0.25,-0.5,-0.5,-0.5,-0.5,-0.5,-0.5,-0.5,-0.5,-0.5,-0.5,-0.5,linear,100,0.025,0,0.5,TRUE,7,sepmodel,0.794,-0.0011328461781705947,0.007986467529700596,0,10000
10,250,0,250,500,750,1000,1250,1500,1750,2000,2250,2,0,1,0.25,0.25,0.25,0.25,0.25,0.25,0.25,0.25,0.25,0.25,-0.5,-0.5,-0.5,-0.5,-0.5,-0.5,-0.5,-0.5,-0.5,-0.5,-0.5,linear,100,0.025,0,0.5,TRUE,8,fixmodel,0.8488,-3.6843324335825937e-4,0.007061081867439314,0,10000
10,250,0,250,500,750,1000,1250,1500,1750,2000,2250,2,0,1,0.25,0.25,0.25,0.25,0.25,0.25,0.25,0.25,0.25,0.25,-0.5,-0.5,-0.5,-0.5,-0.5,-0.5,-0.5,-0.5,-0.5,-0.5,-0.5,linear,100,0.025,0,0.5,TRUE,8,poolmodel,0.1703,-0.1758388594271576,0.036289798996742756,0,10000
10,250,0,250,500,750,1000,1250,1500,1750,2000,2250,2,0,1,0.25,0.25,0.25,0.25,0.25,0.25,0.25,0.25,0.25,0.25,-0.5,-0.5,-0.5,-0.5,-0.5,-0.5,-0.5,-0.5,-0.5,-0.5,-0.5,linear,100,0.025,0,0.5,TRUE,8,sepmodel,0.7937,-2.2645717480825945e-4,0.008063730824659159,0,10000
10,250,0,250,500,750,1000,1250,1500,1750,2000,2250,2,0,1,0.25,0.25,0.25,0.25,0.25,0.25,0.25,0.25,0.25,0.25,-0.5,-0.5,-0.5,-0.5,-0.5,-0.5,-0.5,-0.5,-0.5,-0.5,-0.5,linear,100,0.025,0,0.5,TRUE,9,fixmodel,0.8525,1.4515749823279872e-4,0.006982498879230468,0,10000
10,250,0,250,500,750,1000,1250,1500,1750,2000,2250,2,0,1,0.25,0.25,0.25,0.25,0.25,0.25,0.25,0.25,0.25,0.25,-0.5,-0.5,-0.5,-0.5,-0.5,-0.5,-0.5,-0.5,-0.5,-0.5,-0.5,linear,100,0.025,0,0.5,TRUE,9,poolmodel,0.1176,-0.1936719239143657,0.042895611395220266,0,10000
10,250,0,250,500,750,1000,1250,1500,1750,2000,2250,2,0,1,0.25,0.25,0.25,0.25,0.25,0.25,0.25,0.25,0.25,0.25,-0.5,-0.5,-0.5,-0.5,-0.5,-0.5,-0.5,-0.5,-0.5,-0.5,-0.5,linear,100,0.025,0,0.5,TRUE,9,sepmodel,0.8038,2.9057714600212595e-4,0.00801512216029409,0,10000
10,250,0,250,500,750,1000,1250,1500,1750,2000,2250,2,0,1,0.25,0.25,0.25,0.25,0.25,0.25,0.25,0.25,0.25,0.25,-0.5,-0.5,-0.5,-0.5,-0.5,-0.5,-0.5,-0.5,-0.5,-0.5,-0.5,linear,100,0.025,0,0.5,TRUE,10,fixmodel,0.8539,3.8070145512567543e-4,0.006835872831073022,0,10000
10,250,0,250,500,750,1000,1250,1500,1750,2000,2250,2,0,1,0.25,0.25,0.25,0.25,0.25,0.25,0.25,0.25,0.25,0.25,-0.5,-0.5,-0.5,-0.5,-0.5,-0.5,-0.5,-0.5,-0.5,-0.5,-0.5,linear,100,0.025,0,0.5,TRUE,10,poolmodel,0.0803,-0.20847675123430734,0.04863614041093043,0,10000
10,250,0,250,500,750,1000,1250,1500,1750,2000,2250,2,0,1,0.25,0.25,0.25,0.25,0.25,0.25,0.25,0.25,0.25,0.25,-0.5,-0.5,-0.5,-0.5,-0.5,-0.5,-0.5,-0.5,-0.5,-0.5,-0.5,linear,100,0.025,0,0.5,TRUE,10,sepmodel,0.7989,6.213347596131515e-4,0.00785949131438747,0,10000
10,250,0,275,550,825,1100,1375,1650,1925,2200,2475,2,0,1,0.25,0.25,0.25,0.25,0.25,0.25,0.25,0.25,0.25,0.25,-0.5,-0.5,-0.5,-0.5,-0.5,-0.5,-0.5,-0.5,-0.5,-0.5,-0.5,linear,100,0.025,0,0.5,TRUE,2,fixmodel,0.8198,-0.0016709158732643664,0.007397973148173852,0,10000
10,250,0,275,550,825,1100,1375,1650,1925,2200,2475,2,0,1,0.25,0.25,0.25,0.25,0.25,0.25,0.25,0.25,0.25,0.25,-0.5,-0.5,-0.5,-0.5,-0.5,-0.5,-0.5,-0.5,-0.5,-0.5,-0.5,linear,100,0.025,0,0.5,TRUE,2,poolmodel,0.7729,-0.02944887714880546,0.0073617870315228675,0,10000
10,250,0,275,550,825,1100,1375,1650,1925,2200,2475,2,0,1,0.25,0.25,0.25,0.25,0.25,0.25,0.25,0.25,0.25,0.25,-0.5,-0.5,-0.5,-0.5,-0.5,-0.5,-0.5,-0.5,-0.5,-0.5,-0.5,linear,100,0.025,0,0.5,TRUE,2,sepmodel,0.7894,-0.0017495328557282132,0.007904464825442709,0,10000
10,250,0,275,550,825,1100,1375,1650,1925,2200,2475,2,0,1,0.25,0.25,0.25,0.25,0.25,0.25,0.25,0.25,0.25,0.25,-0.5,-0.5,-0.5,-0.5,-0.5,-0.5,-0.5,-0.5,-0.5,-0.5,-0.5,linear,100,0.025,0,0.5,TRUE,3,fixmodel,0.827,-3.570651238851136e-4,0.007357940908385907,0,10000
10,250,0,275,550,825,1100,1375,1650,1925,2200,2475,2,0,1,0.25,0.25,0.25,0.25,0.25,0.25,0.25,0.25,0.25,0.25,-0.5,-0.5,-0.5,-0.5,-0.5,-0.5,-0.5,-0.5,-0.5,-0.5,-0.5,linear,100,0.025,0,0.5,TRUE,3,poolmodel,0.7133,-0.05312185472171095,0.00891199467374162,0,10000
10,250,0,275,550,825,1100,1375,1650,1925,2200,2475,2,0,1,0.25,0.25,0.25,0.25,0.25,0.25,0.25,0.25,0.25,0.25,-0.5,-0.5,-0.5,-0.5,-0.5,-0.5,-0.5,-0.5,-0.5,-0.5,-0.5,linear,100,0.025,0,0.5,TRUE,3,sepmodel,0.7953,-4.5875630522148334e-4,0.00804795120987348,0,10000
10,250,0,275,550,825,1100,1375,1650,1925,2200,2475,2,0,1,0.25,0.25,0.25,0.25,0.25,0.25,0.25,0.25,0.25,0.25,-0.5,-0.5,-0.5,-0.5,-0.5,-0.5,-0.5,-0.5,-0.5,-0.5,-0.5,linear,100,0.025,0,0.5,TRUE,4,fixmodel,0.8395,-4.310001577975448e-4,0.007212481714750054,0,10000
10,250,0,275,550,825,1100,1375,1650,1925,2200,2475,2,0,1,0.25,0.25,0.25,0.25,0.25,0.25,0.25,0.25,0.25,0.25,-0.5,-0.5,-0.5,-0.5,-0.5,-0.5,-0.5,-0.5,-0.5,-0.5,-0.5,linear,100,0.025,0,0.5,TRUE,4,poolmodel,0.6082,-0.07975374584982052,0.012067230870735845,0,10000
10,250,0,275,550,825,1100,1375,1650,1925,2200,2475,2,0,1,0.25,0.25,0.25,0.25,0.25,0.25,0.25,0.25,0.25,0.25,-0.5,-0.5,-0.5,-0.5,-0.5,-0.5,-0.5,-0.5,-0.5,-0.5,-0.5,linear,100,0.025,0,0.5,TRUE,4,sepmodel,0.7951,-7.056606705088251e-4,0.00803742219473339,0,10000
10,250,0,275,550,825,1100,1375,1650,1925,2200,2475,2,0,1,0.25,0.25,0.25,0.25,0.25,0.25,0.25,0.25,0.25,0.25,-0.5,-0.5,-0.5,-0.5,-0.5,-0.5,-0.5,-0.5,-0.5,-0.5,-0.5,linear,100,0.025,0,0.5,TRUE,5,fixmodel,0.8377,6.549077302751641e-5,0.007295382995083444,0,10000
10,250,0,275,550,825,1100,1375,1650,1925,2200,2475,2,0,1,0.25,0.25,0.25,0.25,0.25,0.25,0.25,0.25,0.25,0.25,-0.5,-0.5,-0.5,-0.5,-0.5,-0.5,-0.5,-0.5,-0.5,-0.5,-0.5,linear,100,0.025,0,0.5,TRUE,5,poolmodel,0.4979,-0.10396949488156695,0.016473232417409066,0,10000
10,250,0,275,550,825,1100,1375,1650,1925,2200,2475,2,0,1,0.25,0.25,0.25,0.25,0.25,0.25,0.25,0.25,0.25,0.25,-0.5,-0.5,-0.5,-0.5,-0.5,-0.5,-0.5,-0.5,-0.5,-0.5,-0.5,linear,100,0.025,0,0.5,TRUE,5,sepmodel,0.7961,5.343639354592334e-5,0.008114895027634845,0,10000
10,250,0,275,550,825,1100,1375,1650,1925,2200,2475,2,0,1,0.25,0.25,0.25,0.25,0.25,0.25,0.25,0.25,0.25,0.25,-0.5,-0.5,-0.5,-0.5,-0.5,-0.5,-0.5,-0.5,-0.5,-0.5,-0.5,linear,100,0.025,0,0.5,TRUE,6,fixmodel,0.845,1.7180739578282508e-4,0.007042505318369813,0,10000
10,250,0,275,550,825,1100,1375,1650,1925,2200,2475,2,0,1,0.25,0.25,0.25,0.25,0.25,0.25,0.25,0.25,0.25,0.25,-0.5,-0.5,-0.5,-0.5,-0.5,-0.5,-0.5,-0.5,-0.5,-0.5,-0.5,linear,100,0.025,0,0.5,TRUE,6,poolmodel,0.3636,-0.1303712970966049,0.022415723450328457,0,10000
10,250,0,275,550,825,1100,1375,1650,1925,2200,2475,2,0,1,0.25,0.25,0.25,0.25,0.25,0.25,0.25,0.25,0.25,0.25,-0.5,-0.5,-0.5,-0.5,-0.5,-0.5,-0.5,-0.5,-0.5,-0.5,-0.5,linear,100,0.025,0,0.5,TRUE,6,sepmodel,0.7966,3.941964627195989e-4,0.008026906736682299,0,10000
10,250,0,275,550,825,1100,1375,1650,1925,2200,2475,2,0,1,0.25,0.25,0.25,0.25,0.25,0.25,0.25,0.25,0.25,0.25,-0.5,-0.5,-0.5,-0.5,-0.5,-0.5,-0.5,-0.5,-0.5,-0.5,-0.5,linear,100,0.025,0,0.5,TRUE,7,fixmodel,0.8421,-7.907022638444188e-4,0.007088019041312555,0,10000
10,250,0,275,550,825,1100,1375,1650,1925,2200,2475,2,0,1,0.25,0.25,0.25,0.25,0.25,0.25,0.25,0.25,0.25,0.25,-0.5,-0.5,-0.5,-0.5,-0.5,-0.5,-0.5,-0.5,-0.5,-0.5,-0.5,linear,100,0.025,0,0.5,TRUE,7,poolmodel,0.2439,-0.15659478070056973,0.02982880985035254,0,10000
10,250,0,275,550,825,1100,1375,1650,1925,2200,2475,2,0,1,0.25,0.25,0.25,0.25,0.25,0.25,0.25,0.25,0.25,0.25,-0.5,-0.5,-0.5,-0.5,-0.5,-0.5,-0.5,-0.5,-0.5,-0.5,-0.5,linear,100,0.025,0,0.5,TRUE,7,sepmodel,0.7913,-2.492720064249207e-4,0.008121454454340074,0,10000
10,250,0,275,550,825,1100,1375,1650,1925,2200,2475,2,0,1,0.25,0.25,0.25,0.25,0.25,0.25,0.25,0.25,0.25,0.25,-0.5,-0.5,-0.5,-0.5,-0.5,-0.5,-0.5,-0.5,-0.5,-0.5,-0.5,linear,100,0.025,0,0.5,TRUE,8,fixmodel,0.8491,6.968555352594673e-4,0.006998054042711909,0,10000
10,250,0,275,550,825,1100,1375,1650,1925,2200,2475,2,0,1,0.25,0.25,0.25,0.25,0.25,0.25,0.25,0.25,0.25,0.25,-0.5,-0.5,-0.5,-0.5,-0.5,-0.5,-0.5,-0.5,-0.5,-0.5,-0.5,linear,100,0.025,0,0.5,TRUE,8,poolmodel,0.1663,-0.17786068325454066,0.03692488415353131,0,10000
10,250,0,275,550,825,1100,1375,1650,1925,2200,2475,2,0,1,0.25,0.25,0.25,0.25,0.25,0.25,0.25,0.25,0.25,0.25,-0.5,-0.5,-0.5,-0.5,-0.5,-0.5,-0.5,-0.5,-0.5,-0.5,-0.5,linear,100,0.025,0,0.5,TRUE,8,sepmodel,0.7973,9.226607764159082e-4,0.007966172063160418,0,10000
10,250,0,275,550,825,1100,1375,1650,1925,2200,2475,2,0,1,0.25,0.25,0.25,0.25,0.25,0.25,0.25,0.25,0.25,0.25,-0.5,-0.5,-0.5,-0.5,-0.5,-0.5,-0.5,-0.5,-0.5,-0.5,-0.5,linear,100,0.025,0,0.5,TRUE,9,fixmodel,0.8545,5.657640992161759e-4,0.006872950355594156,0,10000
10,250,0,275,550,825,1100,1375,1650,1925,2200,2475,2,0,1,0.25,0.25,0.25,0.25,0.25,0.25,0.25,0.25,0.25,0.25,-0.5,-0.5,-0.5,-0.5,-0.5,-0.5,-0.5,-0.5,-0.5,-0.5,-0.5,linear,100,0.025,0,0.5,TRUE,9,poolmodel,0.1055,-0.19825528139744628,0.044473251867406645,0,10000
10,250,0,275,550,825,1100,1375,1650,1925,2200,2475,2,0,1,0.25,0.25,0.25,0.25,0.25,0.25,0.25,0.25,0.25,0.25,-0.5,-0.5,-0.5,-0.5,-0.5,-0.5,-0.5,-0.5,-0.5,-0.5,-0.5,linear,100,0.025,0,0.5,TRUE,9,sepmodel,0.7998,4.954488007011472e-4,0.007951342651532134,0,10000
10,250,0,275,550,825,1100,1375,1650,1925,2200,2475,2,0,1,0.25,0.25,0.25,0.25,0.25,0.25,0.25,0.25,0.25,0.25,-0.5,-0.5,-0.5,-0.5,-0.5,-0.5,-0.5,-0.5,-0.5,-0.5,-0.5,linear,100,0.025,0,0.5,TRUE,10,fixmodel,0.8568,8.703863315653e-4,0.0067813070133844805,0,10000
10,250,0,275,550,825,1100,1375,1650,1925,2200,2475,2,0,1,0.25,0.25,0.25,0.25,0.25,0.25,0.25,0.25,0.25,0.25,-0.5,-0.5,-0.5,-0.5,-0.5,-0.5,-0.5,-0.5,-0.5,-0.5,-0.5,linear,100,0.025,0,0.5,TRUE,10,poolmodel,0.0727,-0.21368316314202762,0.050707302018078486,0,10000
10,250,0,275,550,825,1100,1375,1650,1925,2200,2475,2,0,1,0.25,0.25,0.25,0.25,0.25,0.25,0.25,0.25,0.25,0.25,-0.5,-0.5,-0.5,-0.5,-0.5,-0.5,-0.5,-0.5,-0.5,-0.5,-0.5,linear,100,0.025,0,0.5,TRUE,10,sepmodel,0.799,7.447040318563075e-4,0.00784309232263156,0,10000
10,250,0,300,600,900,1200,1500,1800,2100,2400,2700,2,0,1,0.25,0.25,0.25,0.25,0.25,0.25,0.25,0.25,0.25,0.25,-0.5,-0.5,-0.5,-0.5,-0.5,-0.5,-0.5,-0.5,-0.5,-0.5,-0.5,linear,100,0.025,0,0.5,TRUE,2,fixmodel,0.8295,8.425882154404952e-4,0.007321977804065034,0,10000
10,250,0,300,600,900,1200,1500,1800,2100,2400,2700,2,0,1,0.25,0.25,0.25,0.25,0.25,0.25,0.25,0.25,0.25,0.25,-0.5,-0.5,-0.5,-0.5,-0.5,-0.5,-0.5,-0.5,-0.5,-0.5,-0.5,linear,100,0.025,0,0.5,TRUE,2,poolmodel,0.7896,-0.027234811371722352,0.007171905163785146,0,10000
10,250,0,300,600,900,1200,1500,1800,2100,2400,2700,2,0,1,0.25,0.25,0.25,0.25,0.25,0.25,0.25,0.25,0.25,0.25,-0.5,-0.5,-0.5,-0.5,-0.5,-0.5,-0.5,-0.5,-0.5,-0.5,-0.5,linear,100,0.025,0,0.5,TRUE,2,sepmodel,0.7982,8.120506438002772e-4,0.007907100128702722,0,10000
10,250,0,300,600,900,1200,1500,1800,2100,2400,2700,2,0,1,0.25,0.25,0.25,0.25,0.25,0.25,0.25,0.25,0.25,0.25,-0.5,-0.5,-0.5,-0.5,-0.5,-0.5,-0.5,-0.5,-0.5,-0.5,-0.5,linear,100,0.025,0,0.5,TRUE,3,fixmodel,0.8298,7.652411624730865e-4,0.0073565381864511715,0,10000
10,250,0,300,600,900,1200,1500,1800,2100,2400,2700,2,0,1,0.25,0.25,0.25,0.25,0.25,0.25,0.25,0.25,0.25,0.25,-0.5,-0.5,-0.5,-0.5,-0.5,-0.5,-0.5,-0.5,-0.5,-0.5,-0.5,linear,100,0.025,0,0.5,TRUE,3,poolmodel,0.7272,-0.051161479412734565,0.008549823366457121,0,10000
10,250,0,300,600,900,1200,1500,1800,2100,2400,2700,2,0,1,0.25,0.25,0.25,0.25,0.25,0.25,0.25,0.25,0.25,0.25,-0.5,-0.5,-0.5,-0.5,-0.5,-0.5,-0.5,-0.5,-0.5,-0.5,-0.5,linear,100,0.025,0,0.5,TRUE,3,sepmodel,0.796,6.141500526292208e-4,0.007942571474657231,0,10000
10,250,0,300,600,900,1200,1500,1800,2100,2400,2700,2,0,1,0.25,0.25,0.25,0.25,0.25,0.25,0.25,0.25,0.25,0.25,-0.5,-0.5,-0.5,-0.5,-0.5,-0.5,-0.5,-0.5,-0.5,-0.5,-0.5,linear,100,0.025,0,0.5,TRUE,4,fixmodel,0.8353,6.995053510539964e-6,0.00717477917976701,0,10000
10,250,0,300,600,900,1200,1500,1800,2100,2400,2700,2,0,1,0.25,0.25,0.25,0.25,0.25,0.25,0.25,0.25,0.25,0.25,-0.5,-0.5,-0.5,-0.5,-0.5,-0.5,-0.5,-0.5,-0.5,-0.5,-0.5,linear,100,0.025,0,0.5,TRUE,4,poolmodel,0.6156,-0.07913701465111966,0.011888028983244512,0,10000
10,250,0,300,600,900,1200,1500,1800,2100,2400,2700,2,0,1,0.25,0.25,0.25,0.25,0.25,0.25,0.25,0.25,0.25,0.25,-0.5,-0.5,-0.5,-0.5,-0.5,-0.5,-0.5,-0.5,-0.5,-0.5,-0.5,linear,100,0.025,0,0.5,TRUE,4,sepmodel,0.798,-4.7037899558681267e-4,0.00788622873075726,0,10000
10,250,0,300,600,900,1200,1500,1800,2100,2400,2700,2,0,1,0.25,0.25,0.25,0.25,0.25,0.25,0.25,0.25,0.25,0.25,-0.5,-0.5,-0.5,-0.5,-0.5,-0.5,-0.5,-0.5,-0.5,-0.5,-0.5,linear,100,0.025,0,0.5,TRUE,5,fixmodel,0.8369,2.8889446790264576e-4,0.007240334252339923,0,10000
10,250,0,300,600,900,1200,1500,1800,2100,2400,2700,2,0,1,0.25,0.25,0.25,0.25,0.25,0.25,0.25,0.25,0.25,0.25,-0.5,-0.5,-0.5,-0.5,-0.5,-0.5,-0.5,-0.5,-0.5,-0.5,-0.5,linear,100,0.025,0,0.5,TRUE,5,poolmodel,0.5082,-0.10351072494613334,0.016181391689179547,0,10000
10,250,0,300,600,900,1200,1500,1800,2100,2400,2700,2,0,1,0.25,0.25,0.25,0.25,0.25,0.25,0.25,0.25,0.25,0.25,-0.5,-0.5,-0.5,-0.5,-0.5,-0.5,-0.5,-0.5,-0.5,-0.5,-0.5,linear,100,0.025,0,0.5,TRUE,5,sepmodel,0.7959,-1.6405047332407365e-4,0.008036486664185013,0,10000
10,250,0,300,600,900,1200,1500,1800,2100,2400,2700,2,0,1,0.25,0.25,0.25,0.25,0.25,0.25,0.25,0.25,0.25,0.25,-0.5,-0.5,-0.5,-0.5,-0.5,-0.5,-0.5,-0.5,-0.5,-0.5,-0.5,linear,100,0.025,0,0.5,TRUE,6,fixmodel,0.8328,-0.0014277583722141312,0.007122967616779252,0,10000
10,250,0,300,600,900,1200,1500,1800,2100,2400,2700,2,0,1,0.25,0.25,0.25,0.25,0.25,0.25,0.25,0.25,0.25,0.25,-0.5,-0.5,-0.5,-0.5,-0.5,-0.5,-0.5,-0.5,-0.5,-0.5,-0.5,linear,100,0.025,0,0.5,TRUE,6,poolmodel,0.3768,-0.1297998055000671,0.022067545141905107,0,10000
10,250,0,300,600,900,1200,1500,1800,2100,2400,2700,2,0,1,0.25,0.25,0.25,0.25,0.25,0.25,0.25,0.25,0.25,0.25,-0.5,-0.5,-0.5,-0.5,-0.5,-0.5,-0.5,-0.5,-0.5,-0.5,-0.5,linear,100,0.025,0,0.5,TRUE,6,sepmodel,0.7889,-0.001211145255595728,0.007887035269929052,0,10000
10,250,0,300,600,900,1200,1500,1800,2100,2400,2700,2,0,1,0.25,0.25,0.25,0.25,0.25,0.25,0.25,0.25,0.25,0.25,-0.5,-0.5,-0.5,-0.5,-0.5,-0.5,-0.5,-0.5,-0.5,-0.5,-0.5,linear,100,0.025,0,0.5,TRUE,7,fixmodel,0.8377,-1.656526336169725e-4,0.0070581088879088935,0,10000
10,250,0,300,600,900,1200,1500,1800,2100,2400,2700,2,0,1,0.25,0.25,0.25,0.25,0.25,0.25,0.25,0.25,0.25,0.25,-0.5,-0.5,-0.5,-0.5,-0.5,-0.5,-0.5,-0.5,-0.5,-0.5,-0.5,linear,100,0.025,0,0.5,TRUE,7,poolmodel,0.2625,-0.1541192299122131,0.028905287276644636,0,10000
10,250,0,300,600,900,1200,1500,1800,2100,2400,2700,2,0,1,0.25,0.25,0.25,0.25,0.25,0.25,0.25,0.25,0.25,0.25,-0.5,-0.5,-0.5,-0.5,-0.5,-0.5,-0.5,-0.5,-0.5,-0.5,-0.5,linear,100,0.025,0,0.5,TRUE,7,sepmodel,0.7947,-3.479361606652739e-4,0.007905062740795481,0,10000
10,250,0,300,600,900,1200,1500,1800,2100,2400,2700,2,0,1,0.25,0.25,0.25,0.25,0.25,0.25,0.25,0.25,0.25,0.25,-0.5,-0.5,-0.5,-0.5,-0.5,-0.5,-0.5,-0.5,-0.5,-0.5,-0.5,linear,100,0.025,0,0.5,TRUE,8,fixmodel,0.8462,5.2924503592302e-4,0.006986515484475468,0,10000
10,250,0,300,600,900,1200,1500,1800,2100,2400,2700,2,0,1,0.25,0.25,0.25,0.25,0.25,0.25,0.25,0.25,0.25,0.25,-0.5,-0.5,-0.5,-0.5,-0.5,-0.5,-0.5,-0.5,-0.5,-0.5,-0.5,linear,100,0.025,0,0.5,TRUE,8,poolmodel,0.1605,-0.1786312338303697,0.03696449238816498,0,10000
10,250,0,300,600,900,1200,1500,1800,2100,2400,2700,2,0,1,0.25,0.25,0.25,0.25,0.25,0.25,0.25,0.25,0.25,0.25,-0.5,-0.5,-0.5,-0.5,-0.5,-0.5,-0.5,-0.5,-0.5,-0.5,-0.5,linear,100,0.025,0,0.5,TRUE,8,sepmodel,0.7982,4.7079069049747475e-4,0.007914495431914512,0,10000
10,250,0,300,600,900,1200,1500,1800,2100,2400,2700,2,0,1,0.25,0.25,0.25,0.25,0.25,0.25,0.25,0.25,0.25,0.25,-0.5,-0.5,-0.5,-0.5,-0.5,-0.5,-0.5,-0.5,-0.5,-0.5,-0.5,linear,100,0.025,0,0.5,TRUE,9,fixmodel,0.8401,8.140376697969859e-5,0.007228646555350176,0,10000
10,250,0,300,600,900,1200,1500,1800,2100,2400,2700,2,0,1,0.25,0.25,0.25,0.25,0.25,0.25,0.25,0.25,0.25,0.25,-0.5,-0.5,-0.5,-0.5,-0.5,-0.5,-0.5,-0.5,-0.5,-0.5,-0.5,linear,100,0.025,0,0.5,TRUE,9,poolmodel,0.1025,-0.20106469062844276,0.04559403339731587,0,10000
10,250,0,300,600,900,1200,1500,1800,2100,2400,2700,2,0,1,0.25,0.25,0.25,0.25,0.25,0.25,0.25,0.25,0.25,0.25,-0.5,-0.5,-0.5,-0.5,-0.5,-0.5,-0.5,-0.5,-0.5,-0.5,-0.5,linear,100,0.025,0,0.5,TRUE,9,sepmodel,0.7965,6.93104434618522e-5,0.008112476939035407,0,10000
10,250,0,300,600,900,1200,1500,1800,2100,2400,2700,2,0,1,0.25,0.25,0.25,0.25,0.25,0.25,0.25,0.25,0.25,0.25,-0.5,-0.5,-0.5,-0.5,-0.5,-0.5,-0.5,-0.5,-0.5,-0.5,-0.5,linear,100,0.025,0,0.5,TRUE,10,fixmodel,0.8461,3.560162755777288e-4,0.007189613175068852,0,10000
10,250,0,300,600,900,1200,1500,1800,2100,2400,2700,2,0,1,0.25,0.25,0.25,0.25,0.25,0.25,0.25,0.25,0.25,0.25,-0.5,-0.5,-0.5,-0.5,-0.5,-0.5,-0.5,-0.5,-0.5,-0.5,-0.5,linear,100,0.025,0,0.5,TRUE,10,poolmodel,0.0651,-0.2180370775111511,0.05255931183961686,0,10000
10,250,0,300,600,900,1200,1500,1800,2100,2400,2700,2,0,1,0.25,0.25,0.25,0.25,0.25,0.25,0.25,0.25,0.25,0.25,-0.5,-0.5,-0.5,-0.5,-0.5,-0.5,-0.5,-0.5,-0.5,-0.5,-0.5,linear,100,0.025,0,0.5,TRUE,10,sepmodel,0.8007,2.667608932509528e-4,0.008102386363837824,0,10000
10,250,0,325,650,975,1300,1625,1950,2275,2600,2925,2,0,1,0.25,0.25,0.25,0.25,0.25,0.25,0.25,0.25,0.25,0.25,-0.5,-0.5,-0.5,-0.5,-0.5,-0.5,-0.5,-0.5,-0.5,-0.5,-0.5,linear,100,0.025,0,0.5,TRUE,2,fixmodel,0.8219,8.63644614870407e-5,0.0074746565310891385,0,10000
10,250,0,325,650,975,1300,1625,1950,2275,2600,2925,2,0,1,0.25,0.25,0.25,0.25,0.25,0.25,0.25,0.25,0.25,0.25,-0.5,-0.5,-0.5,-0.5,-0.5,-0.5,-0.5,-0.5,-0.5,-0.5,-0.5,linear,100,0.025,0,0.5,TRUE,2,poolmodel,0.7973,-0.02713979086238493,0.007129275588806039,0,10000
10,250,0,325,650,975,1300,1625,1950,2275,2600,2925,2,0,1,0.25,0.25,0.25,0.25,0.25,0.25,0.25,0.25,0.25,0.25,-0.5,-0.5,-0.5,-0.5,-0.5,-0.5,-0.5,-0.5,-0.5,-0.5,-0.5,linear,100,0.025,0,0.5,TRUE,2,sepmodel,0.7954,3.0379535373463125e-4,0.007957928928999033,0,10000
10,250,0,325,650,975,1300,1625,1950,2275,2600,2925,2,0,1,0.25,0.25,0.25,0.25,0.25,0.25,0.25,0.25,0.25,0.25,-0.5,-0.5,-0.5,-0.5,-0.5,-0.5,-0.5,-0.5,-0.5,-0.5,-0.5,linear,100,0.025,0,0.5,TRUE,3,fixmodel,0.8218,2.758881322410223e-4,0.007613353731922269,0,10000
10,250,0,325,650,975,1300,1625,1950,2275,2600,2925,2,0,1,0.25,0.25,0.25,0.25,0.25,0.25,0.25,0.25,0.25,0.25,-0.5,-0.5,-0.5,-0.5,-0.5,-0.5,-0.5,-0.5,-0.5,-0.5,-0.5,linear,100,0.025,0,0.5,TRUE,3,poolmodel,0.7276,-0.052205679339047344,0.008709410579600601,0,10000
10,250,0,325,650,975,1300,1625,1950,2275,2600,2925,2,0,1,0.25,0.25,0.25,0.25,0.25,0.25,0.25,0.25,0.25,0.25,-0.5,-0.5,-0.5,-0.5,-0.5,-0.5,-0.5,-0.5,-0.5,-0.5,-0.5,linear,100,0.025,0,0.5,TRUE,3,sepmodel,0.7885,2.1133809507642017e-6,0.008210093228730762,0,10000
10,250,0,325,650,975,1300,1625,1950,2275,2600,2925,2,0,1,0.25,0.25,0.25,0.25,0.25,0.25,0.25,0.25,0.25,0.25,-0.5,-0.5,-0.5,-0.5,-0.5,-0.5,-0.5,-0.5,-0.5,-0.5,-0.5,linear,100,0.025,0,0.5,TRUE,4,fixmodel,0.8335,5.738804883248229e-4,0.0073805436963363434,0,10000
10,250,0,325,650,975,1300,1625,1950,2275,2600,2925,2,0,1,0.25,0.25,0.25,0.25,0.25,0.25,0.25,0.25,0.25,0.25,-0.5,-0.5,-0.5,-0.5,-0.5,-0.5,-0.5,-0.5,-0.5,-0.5,-0.5,linear,100,0.025,0,0.5,TRUE,4,poolmodel,0.6329,-0.07866152426673804,0.011724636438890459,0,10000
10,250,0,325,650,975,1300,1625,1950,2275,2600,2925,2,0,1,0.25,0.25,0.25,0.25,0.25,0.25,0.25,0.25,0.25,0.25,-0.5,-0.5,-0.5,-0.5,-0.5,-0.5,-0.5,-0.5,-0.5,-0.5,-0.5,linear,100,0.025,0,0.5,TRUE,4,sepmodel,0.8011,4.8104263843158943e-4,0.008060216559641526,0,10000
10,250,0,325,650,975,1300,1625,1950,2275,2600,2925,2,0,1,0.25,0.25,0.25,0.25,0.25,0.25,0.25,0.25,0.25,0.25,-0.5,-0.5,-0.5,-0.5,-0.5,-0.5,-0.5,-0.5,-0.5,-0.5,-0.5,linear,100,0.025,0,0.5,TRUE,5,fixmodel,0.8367,0.0015059674844281517,0.007252870967052146,0,10000
10,250,0,325,650,975,1300,1625,1950,2275,2600,2925,2,0,1,0.25,0.25,0.25,0.25,0.25,0.25,0.25,0.25,0.25,0.25,-0.5,-0.5,-0.5,-0.5,-0.5,-0.5,-0.5,-0.5,-0.5,-0.5,-0.5,linear,100,0.025,0,0.5,TRUE,5,poolmodel,0.5141,-0.10316967902308295,0.015916003620306752,0,10000
10,250,0,325,650,975,1300,1625,1950,2275,2600,2925,2,0,1,0.25,0.25,0.25,0.25,0.25,0.25,0.25,0.25,0.25,0.25,-0.5,-0.5,-0.5,-0.5,-0.5,-0.5,-0.5,-0.5,-0.5,-0.5,-0.5,linear,100,0.025,0,0.5,TRUE,5,sepmodel,0.7986,0.0015357723277632926,0.007942931598146321,0,10000
10,250,0,325,650,975,1300,1625,1950,2275,2600,2925,2,0,1,0.25,0.25,0.25,0.25,0.25,0.25,0.25,0.25,0.25,0.25,-0.5,-0.5,-0.5,-0.5,-0.5,-0.5,-0.5,-0.5,-0.5,-0.5,-0.5,linear,100,0.025,0,0.5,TRUE,6,fixmodel,0.838,1.3524521619876954e-4,0.007189033382798356,0,10000
10,250,0,325,650,975,1300,1625,1950,2275,2600,2925,2,0,1,0.25,0.25,0.25,0.25,0.25,0.25,0.25,0.25,0.25,0.25,-0.5,-0.5,-0.5,-0.5,-0.5,-0.5,-0.5,-0.5,-0.5,-0.5,-0.5,linear,100,0.025,0,0.5,TRUE,6,poolmodel,0.3876,-0.12939439861280153,0.02193859168221389,0,10000
10,250,0,325,650,975,1300,1625,1950,2275,2600,2925,2,0,1,0.25,0.25,0.25,0.25,0.25,0.25,0.25,0.25,0.25,0.25,-0.5,-0.5,-0.5,-0.5,-0.5,-0.5,-0.5,-0.5,-0.5,-0.5,-0.5,linear,100,0.025,0,0.5,TRUE,6,sepmodel,0.7979,1.0475888965843331e-5,0.007942434143776897,0,10000
10,250,0,325,650,975,1300,1625,1950,2275,2600,2925,2,0,1,0.25,0.25,0.25,0.25,0.25,0.25,0.25,0.25,0.25,0.25,-0.5,-0.5,-0.5,-0.5,-0.5,-0.5,-0.5,-0.5,-0.5,-0.5,-0.5,linear,100,0.025,0,0.5,TRUE,7,fixmodel,0.8326,-7.872856280985758e-4,0.007197059772249033,0,10000
10,250,0,325,650,975,1300,1625,1950,2275,2600,2925,2,0,1,0.25,0.25,0.25,0.25,0.25,0.25,0.25,0.25,0.25,0.25,-0.5,-0.5,-0.5,-0.5,-0.5,-0.5,-0.5,-0.5,-0.5,-0.5,-0.5,linear,100,0.025,0,0.5,TRUE,7,poolmodel,0.2619,-0.1547905461756506,0.029055300672262863,0,10000
10,250,0,325,650,975,1300,1625,1950,2275,2600,2925,2,0,1,0.25,0.25,0.25,0.25,0.25,0.25,0.25,0.25,0.25,0.25,-0.5,-0.5,-0.5,-0.5,-0.5,-0.5,-0.5,-0.5,-0.5,-0.5,-0.5,linear,100,0.025,0,0.5,TRUE,7,sepmodel,0.7868,-0.0013294887548892834,0.008027187277877056,0,10000
10,250,0,325,650,975,1300,1625,1950,2275,2600,2925,2,0,1,0.25,0.25,0.25,0.25,0.25,0.25,0.25,0.25,0.25,0.25,-0.5,-0.5,-0.5,-0.5,-0.5,-0.5,-0.5,-0.5,-0.5,-0.5,-0.5,linear,100,0.025,0,0.5,TRUE,8,fixmodel,0.8402,-5.022233267605069e-4,0.0071871297646882975,0,10000
10,250,0,325,650,975,1300,1625,1950,2275,2600,2925,2,0,1,0.25,0.25,0.25,0.25,0.25,0.25,0.25,0.25,0.25,0.25,-0.5,-0.5,-0.5,-0.5,-0.5,-0.5,-0.5,-0.5,-0.5,-0.5,-0.5,linear,100,0.025,0,0.5,TRUE,8,poolmodel,0.161,-0.17938476685549998,0.0370999488292797,0,10000
10,250,0,325,650,975,1300,1625,1950,2275,2600,2925,2,0,1,0.25,0.25,0.25,0.25,0.25,0.25,0.25,0.25,0.25,0.25,-0.5,-0.5,-0.5,-0.5,-0.5,-0.5,-0.5,-0.5,-0.5,-0.5,-0.5,linear,100,0.025,0,0.5,TRUE,8,sepmodel,0.7966,-9.332083568900485e-4,0.007985799935727208,0,10000
10,250,0,325,650,975,1300,1625,1950,2275,2600,2925,2,0,1,0.25,0.25,0.25,0.25,0.25,0.25,0.25,0.25,0.25,0.25,-0.5,-0.5,-0.5,-0.5,-0.5,-0.5,-0.5,-0.5,-0.5,-0.5,-0.5,linear,100,0.025,0,0.5,TRUE,9,fixmodel,0.8349,-9.481717972926947e-4,0.007234777663304699,0,10000
10,250,0,325,650,975,1300,1625,1950,2275,2600,2925,2,0,1,0.25,0.25,0.25,0.25,0.25,0.25,0.25,0.25,0.25,0.25,-0.5,-0.5,-0.5,-0.5,-0.5,-0.5,-0.5,-0.5,-0.5,-0.5,-0.5,linear,100,0.025,0,0.5,TRUE,9,poolmodel,0.0983,-0.2029136244494642,0.046129440907363345,0,10000
10,250,0,325,650,975,1300,1625,1950,2275,2600,2925,2,0,1,0.25,0.25,0.25,0.25,0.25,0.25,0.25,0.25,0.25,0.25,-0.5,-0.5,-0.5,-0.5,-0.5,-0.5,-0.5,-0.5,-0.5,-0.5,-0.5,linear,100,0.025,0,0.5,TRUE,9,sepmodel,0.7924,-0.0012381313383210395,0.007971759636119624,0,10000
10,250,0,325,650,975,1300,1625,1950,2275,2600,2925,2,0,1,0.25,0.25,0.25,0.25,0.25,0.25,0.25,0.25,0.25,0.25,-0.5,-0.5,-0.5,-0.5,-0.5,-0.5,-0.5,-0.5,-0.5,-0.5,-0.5,linear,100,0.025,0,0.5,TRUE,10,fixmodel,0.8408,-4.3049058424035765e-4,0.007102166746372191,0,10000
10,250,0,325,650,975,1300,1625,1950,2275,2600,2925,2,0,1,0.25,0.25,0.25,0.25,0.25,0.25,0.25,0.25,0.25,0.25,-0.5,-0.5,-0.5,-0.5,-0.5,-0.5,-0.5,-0.5,-0.5,-0.5,-0.5,linear,100,0.025,0,0.5,TRUE,10,poolmodel,0.0568,-0.22081034119100793,0.053544228899058514,0,10000
10,250,0,325,650,975,1300,1625,1950,2275,2600,2925,2,0,1,0.25,0.25,0.25,0.25,0.25,0.25,0.25,0.25,0.25,0.25,-0.5,-0.5,-0.5,-0.5,-0.5,-0.5,-0.5,-0.5,-0.5,-0.5,-0.5,linear,100,0.025,0,0.5,TRUE,10,sepmodel,0.7938,-3.664729718169878e-4,0.007916118907885222,0,10000
10,250,0,350,700,1050,1400,1750,2100,2450,2800,3150,2,0,1,0.25,0.25,0.25,0.25,0.25,0.25,0.25,0.25,0.25,0.25,-0.5,-0.5,-0.5,-0.5,-0.5,-0.5,-0.5,-0.5,-0.5,-0.5,-0.5,linear,100,0.025,0,0.5,TRUE,2,fixmodel,0.8227,0.0011013216344073265,0.0075048995408229366,0,10000
10,250,0,350,700,1050,1400,1750,2100,2450,2800,3150,2,0,1,0.25,0.25,0.25,0.25,0.25,0.25,0.25,0.25,0.25,0.25,-0.5,-0.5,-0.5,-0.5,-0.5,-0.5,-0.5,-0.5,-0.5,-0.5,-0.5,linear,100,0.025,0,0.5,TRUE,2,poolmodel,0.7982,-0.027031531231466222,0.007116004257198049,0,10000
10,250,0,350,700,1050,1400,1750,2100,2450,2800,3150,2,0,1,0.25,0.25,0.25,0.25,0.25,0.25,0.25,0.25,0.25,0.25,-0.5,-0.5,-0.5,-0.5,-0.5,-0.5,-0.5,-0.5,-0.5,-0.5,-0.5,linear,100,0.025,0,0.5,TRUE,2,sepmodel,0.8026,0.0012097927730273113,0.008054895429641287,0,10000
10,250,0,350,700,1050,1400,1750,2100,2450,2800,3150,2,0,1,0.25,0.25,0.25,0.25,0.25,0.25,0.25,0.25,0.25,0.25,-0.5,-0.5,-0.5,-0.5,-0.5,-0.5,-0.5,-0.5,-0.5,-0.5,-0.5,linear,100,0.025,0,0.5,TRUE,3,fixmodel,0.8266,1.9155246959945172e-4,0.007435917207162477,0,10000
10,250,0,350,700,1050,1400,1750,2100,2450,2800,3150,2,0,1,0.25,0.25,0.25,0.25,0.25,0.25,0.25,0.25,0.25,0.25,-0.5,-0.5,-0.5,-0.5,-0.5,-0.5,-0.5,-0.5,-0.5,-0.5,-0.5,linear,100,0.025,0,0.5,TRUE,3,poolmodel,0.7379,-0.05351946781251381,0.008588053306445947,0,10000
10,250,0,350,700,1050,1400,1750,2100,2450,2800,3150,2,0,1,0.25,0.25,0.25,0.25,0.25,0.25,0.25,0.25,0.25,0.25,-0.5,-0.5,-0.5,-0.5,-0.5,-0.5,-0.5,-0.5,-0.5,-0.5,-0.5,linear,100,0.025,0,0.5,TRUE,3,sepmodel,0.798,-4.3542038919740985e-6,0.00805054571500724,0,10000
10,250,0,350,700,1050,1400,1750,2100,2450,2800,3150,2,0,1,0.25,0.25,0.25,0.25,0.25,0.25,0.25,0.25,0.25,0.25,-0.5,-0.5,-0.5,-0.5,-0.5,-0.5,-0.5,-0.5,-0.5,-0.5,-0.5,linear,100,0.025,0,0.5,TRUE,4,fixmodel,0.8219,-4.2099592002067267e-4,0.007504125025924095,0,10000
10,250,0,350,700,1050,1400,1750,2100,2450,2800,3150,2,0,1,0.25,0.25,0.25,0.25,0.25,0.25,0.25,0.25,0.25,0.25,-0.5,-0.5,-0.5,-0.5,-0.5,-0.5,-0.5,-0.5,-0.5,-0.5,-0.5,linear,100,0.025,0,0.5,TRUE,4,poolmodel,0.632,-0.07886496652690185,0.011817797168306847,0,10000
10,250,0,350,700,1050,1400,1750,2100,2450,2800,3150,2,0,1,0.25,0.25,0.25,0.25,0.25,0.25,0.25,0.25,0.25,0.25,-0.5,-0.5,-0.5,-0.5,-0.5,-0.5,-0.5,-0.5,-0.5,-0.5,-0.5,linear,100,0.025,0,0.5,TRUE,4,sepmodel,0.7949,-3.716661887928177e-4,0.008054687266011456,0,10000
10,250,0,350,700,1050,1400,1750,2100,2450,2800,3150,2,0,1,0.25,0.25,0.25,0.25,0.25,0.25,0.25,0.25,0.25,0.25,-0.5,-0.5,-0.5,-0.5,-0.5,-0.5,-0.5,-0.5,-0.5,-0.5,-0.5,linear,100,0.025,0,0.5,TRUE,5,fixmodel,0.8332,0.0012390239994480845,0.007269518026454023,0,10000
10,250,0,350,700,1050,1400,1750,2100,2450,2800,3150,2,0,1,0.25,0.25,0.25,0.25,0.25,0.25,0.25,0.25,0.25,0.25,-0.5,-0.5,-0.5,-0.5,-0.5,-0.5,-0.5,-0.5,-0.5,-0.5,-0.5,linear,100,0.025,0,0.5,TRUE,5,poolmodel,0.5292,-0.10244077656321046,0.015715637565382412,0,10000
10,250,0,350,700,1050,1400,1750,2100,2450,2800,3150,2,0,1,0.25,0.25,0.25,0.25,0.25,0.25,0.25,0.25,0.25,0.25,-0.5,-0.5,-0.5,-0.5,-0.5,-0.5,-0.5,-0.5,-0.5,-0.5,-0.5,linear,100,0.025,0,0.5,TRUE,5,sepmodel,0.8011,0.0013772671735590733,0.007957729159711283,0,10000
10,250,0,350,700,1050,1400,1750,2100,2450,2800,3150,2,0,1,0.25,0.25,0.25,0.25,0.25,0.25,0.25,0.25,0.25,0.25,-0.5,-0.5,-0.5,-0.5,-0.5,-0.5,-0.5,-0.5,-0.5,-0.5,-0.5,linear,100,0.025,0,0.5,TRUE,6,fixmodel,0.8348,0.0015946059764983171,0.007373893761202898,0,10000
