pavlakrotka/NCC_FreqModels/simulations/results/results_setting_1_splines_alpha.csv
num_arms,n_arm,d1,d2,d3,d4,d5,d6,d7,d8,d9,d10,period_blocks,mu0,sigma,theta1,theta2,theta3,theta4,theta5,theta6,theta7,theta8,theta9,theta10,lambda0,lambda1,lambda2,lambda3,lambda4,lambda5,lambda6,lambda7,lambda8,lambda9,lambda10,trend,alpha,ncc,unit_size,ci,bs_degree,n_wave,N_peak,trend_mean,trend_var,study_arm,model,reject_h0,bias,MSE,failed,nsim
10,250,0,250,500,750,1000,1250,1500,1750,2000,2250,2,0,1,0,0,0,0,0,0,0,0,0,0,-0.5,-0.5,-0.5,-0.5,-0.5,-0.5,-0.5,-0.5,-0.5,-0.5,-0.5,linear,0.025,TRUE,25,FALSE,1,NA,NA,0,0.5,2,fixmodel,0.0247,-1.38178994708587e-4,0.0075006474973035205,0,10000
10,250,0,250,500,750,1000,1250,1500,1750,2000,2250,2,0,1,0,0,0,0,0,0,0,0,0,0,-0.5,-0.5,-0.5,-0.5,-0.5,-0.5,-0.5,-0.5,-0.5,-0.5,-0.5,linear,0.025,TRUE,25,FALSE,1,NA,NA,0,0.5,2,sepmodel,0.0236,-6.240951922373184e-4,0.008035647354469308,0,10000
10,250,0,250,500,750,1000,1250,1500,1750,2000,2250,2,0,1,0,0,0,0,0,0,0,0,0,0,-0.5,-0.5,-0.5,-0.5,-0.5,-0.5,-0.5,-0.5,-0.5,-0.5,-0.5,linear,0.025,TRUE,25,FALSE,1,NA,NA,0,0.5,2,splines,0.0253,-3.1624880606275516e-4,0.007359952280138262,0,10000
10,250,0,250,500,750,1000,1250,1500,1750,2000,2250,2,0,1,0,0,0,0,0,0,0,0,0,0,-0.5,-0.5,-0.5,-0.5,-0.5,-0.5,-0.5,-0.5,-0.5,-0.5,-0.5,linear,0.025,TRUE,25,FALSE,1,NA,NA,0,0.5,2,splines_cal,0.0245,-1.5051657533825407e-4,0.007481390369390473,0,10000
10,250,0,250,500,750,1000,1250,1500,1750,2000,2250,2,0,1,0,0,0,0,0,0,0,0,0,0,-0.5,-0.5,-0.5,-0.5,-0.5,-0.5,-0.5,-0.5,-0.5,-0.5,-0.5,linear,0.025,TRUE,25,FALSE,1,NA,NA,0,0.5,3,fixmodel,0.0242,-9.128901642219924e-4,0.007461774846957382,0,10000
10,250,0,250,500,750,1000,1250,1500,1750,2000,2250,2,0,1,0,0,0,0,0,0,0,0,0,0,-0.5,-0.5,-0.5,-0.5,-0.5,-0.5,-0.5,-0.5,-0.5,-0.5,-0.5,linear,0.025,TRUE,25,FALSE,1,NA,NA,0,0.5,3,sepmodel,0.0228,-8.723528807235523e-4,0.008097863200680079,0,10000
10,250,0,250,500,750,1000,1250,1500,1750,2000,2250,2,0,1,0,0,0,0,0,0,0,0,0,0,-0.5,-0.5,-0.5,-0.5,-0.5,-0.5,-0.5,-0.5,-0.5,-0.5,-0.5,linear,0.025,TRUE,25,FALSE,1,NA,NA,0,0.5,3,splines,0.025,-0.001068577497477448,0.007404690940525992,0,10000
10,250,0,250,500,750,1000,1250,1500,1750,2000,2250,2,0,1,0,0,0,0,0,0,0,0,0,0,-0.5,-0.5,-0.5,-0.5,-0.5,-0.5,-0.5,-0.5,-0.5,-0.5,-0.5,linear,0.025,TRUE,25,FALSE,1,NA,NA,0,0.5,3,splines_cal,0.0258,-8.886322347061379e-4,0.007451142638780591,0,10000
10,250,0,250,500,750,1000,1250,1500,1750,2000,2250,2,0,1,0,0,0,0,0,0,0,0,0,0,-0.5,-0.5,-0.5,-0.5,-0.5,-0.5,-0.5,-0.5,-0.5,-0.5,-0.5,linear,0.025,TRUE,25,FALSE,1,NA,NA,0,0.5,4,fixmodel,0.0224,-0.0012320013420380285,0.007062626357097331,0,10000
10,250,0,250,500,750,1000,1250,1500,1750,2000,2250,2,0,1,0,0,0,0,0,0,0,0,0,0,-0.5,-0.5,-0.5,-0.5,-0.5,-0.5,-0.5,-0.5,-0.5,-0.5,-0.5,linear,0.025,TRUE,25,FALSE,1,NA,NA,0,0.5,4,sepmodel,0.0216,-0.0015305107344742437,0.007812719931769654,0,10000
10,250,0,250,500,750,1000,1250,1500,1750,2000,2250,2,0,1,0,0,0,0,0,0,0,0,0,0,-0.5,-0.5,-0.5,-0.5,-0.5,-0.5,-0.5,-0.5,-0.5,-0.5,-0.5,linear,0.025,TRUE,25,FALSE,1,NA,NA,0,0.5,4,splines,0.0219,-0.0012660499603870778,0.0070189923507132665,0,10000
10,250,0,250,500,750,1000,1250,1500,1750,2000,2250,2,0,1,0,0,0,0,0,0,0,0,0,0,-0.5,-0.5,-0.5,-0.5,-0.5,-0.5,-0.5,-0.5,-0.5,-0.5,-0.5,linear,0.025,TRUE,25,FALSE,1,NA,NA,0,0.5,4,splines_cal,0.0232,-0.001154793997093161,0.007064457983149719,0,10000
10,250,0,250,500,750,1000,1250,1500,1750,2000,2250,2,0,1,0,0,0,0,0,0,0,0,0,0,-0.5,-0.5,-0.5,-0.5,-0.5,-0.5,-0.5,-0.5,-0.5,-0.5,-0.5,linear,0.025,TRUE,25,FALSE,1,NA,NA,0,0.5,5,fixmodel,0.0232,7.834821873970718e-5,0.007021776419603136,0,10000
10,250,0,250,500,750,1000,1250,1500,1750,2000,2250,2,0,1,0,0,0,0,0,0,0,0,0,0,-0.5,-0.5,-0.5,-0.5,-0.5,-0.5,-0.5,-0.5,-0.5,-0.5,-0.5,linear,0.025,TRUE,25,FALSE,1,NA,NA,0,0.5,5,sepmodel,0.0209,-1.1970311745104103e-4,0.00791224825707055,0,10000
10,250,0,250,500,750,1000,1250,1500,1750,2000,2250,2,0,1,0,0,0,0,0,0,0,0,0,0,-0.5,-0.5,-0.5,-0.5,-0.5,-0.5,-0.5,-0.5,-0.5,-0.5,-0.5,linear,0.025,TRUE,25,FALSE,1,NA,NA,0,0.5,5,splines,0.0229,-3.002747279988744e-5,0.006980529319298123,0,10000
10,250,0,250,500,750,1000,1250,1500,1750,2000,2250,2,0,1,0,0,0,0,0,0,0,0,0,0,-0.5,-0.5,-0.5,-0.5,-0.5,-0.5,-0.5,-0.5,-0.5,-0.5,-0.5,linear,0.025,TRUE,25,FALSE,1,NA,NA,0,0.5,5,splines_cal,0.023,1.1133214803898812e-4,0.007027533163198804,0,10000
10,250,0,250,500,750,1000,1250,1500,1750,2000,2250,2,0,1,0,0,0,0,0,0,0,0,0,0,-0.5,-0.5,-0.5,-0.5,-0.5,-0.5,-0.5,-0.5,-0.5,-0.5,-0.5,linear,0.025,TRUE,25,FALSE,1,NA,NA,0,0.5,6,fixmodel,0.0265,-0.0010379175469528853,0.007261929832884403,0,10000
10,250,0,250,500,750,1000,1250,1500,1750,2000,2250,2,0,1,0,0,0,0,0,0,0,0,0,0,-0.5,-0.5,-0.5,-0.5,-0.5,-0.5,-0.5,-0.5,-0.5,-0.5,-0.5,linear,0.025,TRUE,25,FALSE,1,NA,NA,0,0.5,6,sepmodel,0.027,-0.0011510969324551536,0.008262014178319602,0,10000
10,250,0,250,500,750,1000,1250,1500,1750,2000,2250,2,0,1,0,0,0,0,0,0,0,0,0,0,-0.5,-0.5,-0.5,-0.5,-0.5,-0.5,-0.5,-0.5,-0.5,-0.5,-0.5,linear,0.025,TRUE,25,FALSE,1,NA,NA,0,0.5,6,splines,0.0261,-0.0011006797482008585,0.007235727287676347,0,10000
10,250,0,250,500,750,1000,1250,1500,1750,2000,2250,2,0,1,0,0,0,0,0,0,0,0,0,0,-0.5,-0.5,-0.5,-0.5,-0.5,-0.5,-0.5,-0.5,-0.5,-0.5,-0.5,linear,0.025,TRUE,25,FALSE,1,NA,NA,0,0.5,6,splines_cal,0.0262,-0.0010591587324948037,0.007263803291178829,0,10000
10,250,0,250,500,750,1000,1250,1500,1750,2000,2250,2,0,1,0,0,0,0,0,0,0,0,0,0,-0.5,-0.5,-0.5,-0.5,-0.5,-0.5,-0.5,-0.5,-0.5,-0.5,-0.5,linear,0.025,TRUE,25,FALSE,1,NA,NA,0,0.5,7,fixmodel,0.0248,-4.4883257840120435e-4,0.006949980349884287,0,10000
10,250,0,250,500,750,1000,1250,1500,1750,2000,2250,2,0,1,0,0,0,0,0,0,0,0,0,0,-0.5,-0.5,-0.5,-0.5,-0.5,-0.5,-0.5,-0.5,-0.5,-0.5,-0.5,linear,0.025,TRUE,25,FALSE,1,NA,NA,0,0.5,7,sepmodel,0.0237,-4.996311501373068e-4,0.007936356285374785,0,10000
10,250,0,250,500,750,1000,1250,1500,1750,2000,2250,2,0,1,0,0,0,0,0,0,0,0,0,0,-0.5,-0.5,-0.5,-0.5,-0.5,-0.5,-0.5,-0.5,-0.5,-0.5,-0.5,linear,0.025,TRUE,25,FALSE,1,NA,NA,0,0.5,7,splines,0.0247,-4.357623681242788e-4,0.006922726704288463,0,10000
10,250,0,250,500,750,1000,1250,1500,1750,2000,2250,2,0,1,0,0,0,0,0,0,0,0,0,0,-0.5,-0.5,-0.5,-0.5,-0.5,-0.5,-0.5,-0.5,-0.5,-0.5,-0.5,linear,0.025,TRUE,25,FALSE,1,NA,NA,0,0.5,7,splines_cal,0.0249,-3.41954782300952e-4,0.006954286605182184,0,10000
10,250,0,250,500,750,1000,1250,1500,1750,2000,2250,2,0,1,0,0,0,0,0,0,0,0,0,0,-0.5,-0.5,-0.5,-0.5,-0.5,-0.5,-0.5,-0.5,-0.5,-0.5,-0.5,linear,0.025,TRUE,25,FALSE,1,NA,NA,0,0.5,8,fixmodel,0.0238,-4.7138209875896415e-5,0.006939428398322001,0,10000
10,250,0,250,500,750,1000,1250,1500,1750,2000,2250,2,0,1,0,0,0,0,0,0,0,0,0,0,-0.5,-0.5,-0.5,-0.5,-0.5,-0.5,-0.5,-0.5,-0.5,-0.5,-0.5,linear,0.025,TRUE,25,FALSE,1,NA,NA,0,0.5,8,sepmodel,0.0238,-4.066957611067373e-5,0.007990340992329306,0,10000
10,250,0,250,500,750,1000,1250,1500,1750,2000,2250,2,0,1,0,0,0,0,0,0,0,0,0,0,-0.5,-0.5,-0.5,-0.5,-0.5,-0.5,-0.5,-0.5,-0.5,-0.5,-0.5,linear,0.025,TRUE,25,FALSE,1,NA,NA,0,0.5,8,splines,0.0246,-1.7674702938479184e-5,0.006919570707837578,0,10000
10,250,0,250,500,750,1000,1250,1500,1750,2000,2250,2,0,1,0,0,0,0,0,0,0,0,0,0,-0.5,-0.5,-0.5,-0.5,-0.5,-0.5,-0.5,-0.5,-0.5,-0.5,-0.5,linear,0.025,TRUE,25,FALSE,1,NA,NA,0,0.5,8,splines_cal,0.0235,-5.302767589253709e-6,0.006922371079158391,0,10000
10,250,0,250,500,750,1000,1250,1500,1750,2000,2250,2,0,1,0,0,0,0,0,0,0,0,0,0,-0.5,-0.5,-0.5,-0.5,-0.5,-0.5,-0.5,-0.5,-0.5,-0.5,-0.5,linear,0.025,TRUE,25,FALSE,1,NA,NA,0,0.5,9,fixmodel,0.0259,-2.4156566646771853e-4,0.006929915834205177,0,10000
10,250,0,250,500,750,1000,1250,1500,1750,2000,2250,2,0,1,0,0,0,0,0,0,0,0,0,0,-0.5,-0.5,-0.5,-0.5,-0.5,-0.5,-0.5,-0.5,-0.5,-0.5,-0.5,linear,0.025,TRUE,25,FALSE,1,NA,NA,0,0.5,9,sepmodel,0.0234,-1.395260685241586e-4,0.007949262176048253,0,10000
10,250,0,250,500,750,1000,1250,1500,1750,2000,2250,2,0,1,0,0,0,0,0,0,0,0,0,0,-0.5,-0.5,-0.5,-0.5,-0.5,-0.5,-0.5,-0.5,-0.5,-0.5,-0.5,linear,0.025,TRUE,25,FALSE,1,NA,NA,0,0.5,9,splines,0.0258,-2.729529084837195e-4,0.006917759238123361,0,10000
10,250,0,250,500,750,1000,1250,1500,1750,2000,2250,2,0,1,0,0,0,0,0,0,0,0,0,0,-0.5,-0.5,-0.5,-0.5,-0.5,-0.5,-0.5,-0.5,-0.5,-0.5,-0.5,linear,0.025,TRUE,25,FALSE,1,NA,NA,0,0.5,9,splines_cal,0.0263,-1.2162298531622664e-4,0.006930489332829654,0,10000
10,250,0,250,500,750,1000,1250,1500,1750,2000,2250,2,0,1,0,0,0,0,0,0,0,0,0,0,-0.5,-0.5,-0.5,-0.5,-0.5,-0.5,-0.5,-0.5,-0.5,-0.5,-0.5,linear,0.025,TRUE,25,FALSE,1,NA,NA,0,0.5,10,fixmodel,0.0263,7.36719962269402e-4,0.0069569348082205995,0,10000
10,250,0,250,500,750,1000,1250,1500,1750,2000,2250,2,0,1,0,0,0,0,0,0,0,0,0,0,-0.5,-0.5,-0.5,-0.5,-0.5,-0.5,-0.5,-0.5,-0.5,-0.5,-0.5,linear,0.025,TRUE,25,FALSE,1,NA,NA,0,0.5,10,sepmodel,0.0248,9.28261284340909e-4,0.008007836799209286,0,10000
10,250,0,250,500,750,1000,1250,1500,1750,2000,2250,2,0,1,0,0,0,0,0,0,0,0,0,0,-0.5,-0.5,-0.5,-0.5,-0.5,-0.5,-0.5,-0.5,-0.5,-0.5,-0.5,linear,0.025,TRUE,25,FALSE,1,NA,NA,0,0.5,10,splines,0.0253,7.049469091984967e-4,0.006949888532759815,0,10000
10,250,0,250,500,750,1000,1250,1500,1750,2000,2250,2,0,1,0,0,0,0,0,0,0,0,0,0,-0.5,-0.5,-0.5,-0.5,-0.5,-0.5,-0.5,-0.5,-0.5,-0.5,-0.5,linear,0.025,TRUE,25,FALSE,1,NA,NA,0,0.5,10,splines_cal,0.0251,7.472429781386365e-4,0.006975883916450053,0,10000
10,250,0,250,500,750,1000,1250,1500,1750,2000,2250,2,0,1,0,0,0,0,0,0,0,0,0,0,-0.5,-0.5,-0.5,-0.5,-0.5,-0.5,-0.5,-0.5,-0.5,-0.5,-0.5,linear,0.025,TRUE,25,FALSE,2,NA,NA,0,0.5,2,fixmodel,0.0249,-3.3278860239306787e-4,0.00743919905735434,0,10000
10,250,0,250,500,750,1000,1250,1500,1750,2000,2250,2,0,1,0,0,0,0,0,0,0,0,0,0,-0.5,-0.5,-0.5,-0.5,-0.5,-0.5,-0.5,-0.5,-0.5,-0.5,-0.5,linear,0.025,TRUE,25,FALSE,2,NA,NA,0,0.5,2,sepmodel,0.0238,-1.9561036947640662e-4,0.00795326652157213,0,10000
10,250,0,250,500,750,1000,1250,1500,1750,2000,2250,2,0,1,0,0,0,0,0,0,0,0,0,0,-0.5,-0.5,-0.5,-0.5,-0.5,-0.5,-0.5,-0.5,-0.5,-0.5,-0.5,linear,0.025,TRUE,25,FALSE,2,NA,NA,0,0.5,2,splines,0.0244,-4.282046723587408e-4,0.007367364687782685,0,10000
10,250,0,250,500,750,1000,1250,1500,1750,2000,2250,2,0,1,0,0,0,0,0,0,0,0,0,0,-0.5,-0.5,-0.5,-0.5,-0.5,-0.5,-0.5,-0.5,-0.5,-0.5,-0.5,linear,0.025,TRUE,25,FALSE,2,NA,NA,0,0.5,2,splines_cal,0.0252,-3.6074183070846874e-4,0.0074296389263569145,0,10000
10,250,0,250,500,750,1000,1250,1500,1750,2000,2250,2,0,1,0,0,0,0,0,0,0,0,0,0,-0.5,-0.5,-0.5,-0.5,-0.5,-0.5,-0.5,-0.5,-0.5,-0.5,-0.5,linear,0.025,TRUE,25,FALSE,2,NA,NA,0,0.5,3,fixmodel,0.0256,-7.619852012384231e-4,0.007336612329499234,0,10000
10,250,0,250,500,750,1000,1250,1500,1750,2000,2250,2,0,1,0,0,0,0,0,0,0,0,0,0,-0.5,-0.5,-0.5,-0.5,-0.5,-0.5,-0.5,-0.5,-0.5,-0.5,-0.5,linear,0.025,TRUE,25,FALSE,2,NA,NA,0,0.5,3,sepmodel,0.0254,-9.364787534130715e-4,0.007988809281924199,0,10000
10,250,0,250,500,750,1000,1250,1500,1750,2000,2250,2,0,1,0,0,0,0,0,0,0,0,0,0,-0.5,-0.5,-0.5,-0.5,-0.5,-0.5,-0.5,-0.5,-0.5,-0.5,-0.5,linear,0.025,TRUE,25,FALSE,2,NA,NA,0,0.5,3,splines,0.0266,-8.575027902845325e-4,0.007276474391294936,0,10000
10,250,0,250,500,750,1000,1250,1500,1750,2000,2250,2,0,1,0,0,0,0,0,0,0,0,0,0,-0.5,-0.5,-0.5,-0.5,-0.5,-0.5,-0.5,-0.5,-0.5,-0.5,-0.5,linear,0.025,TRUE,25,FALSE,2,NA,NA,0,0.5,3,splines_cal,0.0257,-6.861352389454161e-4,0.007314215974460732,0,10000
10,250,0,250,500,750,1000,1250,1500,1750,2000,2250,2,0,1,0,0,0,0,0,0,0,0,0,0,-0.5,-0.5,-0.5,-0.5,-0.5,-0.5,-0.5,-0.5,-0.5,-0.5,-0.5,linear,0.025,TRUE,25,FALSE,2,NA,NA,0,0.5,4,fixmodel,0.0258,4.2722559058653126e-5,0.007122275731170353,0,10000
10,250,0,250,500,750,1000,1250,1500,1750,2000,2250,2,0,1,0,0,0,0,0,0,0,0,0,0,-0.5,-0.5,-0.5,-0.5,-0.5,-0.5,-0.5,-0.5,-0.5,-0.5,-0.5,linear,0.025,TRUE,25,FALSE,2,NA,NA,0,0.5,4,sepmodel,0.0251,-3.3750010564685994e-5,0.007963157612069956,0,10000
10,250,0,250,500,750,1000,1250,1500,1750,2000,2250,2,0,1,0,0,0,0,0,0,0,0,0,0,-0.5,-0.5,-0.5,-0.5,-0.5,-0.5,-0.5,-0.5,-0.5,-0.5,-0.5,linear,0.025,TRUE,25,FALSE,2,NA,NA,0,0.5,4,splines,0.0253,-3.903930675680523e-5,0.007077308502661592,0,10000
10,250,0,250,500,750,1000,1250,1500,1750,2000,2250,2,0,1,0,0,0,0,0,0,0,0,0,0,-0.5,-0.5,-0.5,-0.5,-0.5,-0.5,-0.5,-0.5,-0.5,-0.5,-0.5,linear,0.025,TRUE,25,FALSE,2,NA,NA,0,0.5,4,splines_cal,0.0256,-1.1431071695966274e-4,0.007109329183329267,0,10000
10,250,0,250,500,750,1000,1250,1500,1750,2000,2250,2,0,1,0,0,0,0,0,0,0,0,0,0,-0.5,-0.5,-0.5,-0.5,-0.5,-0.5,-0.5,-0.5,-0.5,-0.5,-0.5,linear,0.025,TRUE,25,FALSE,2,NA,NA,0,0.5,5,fixmodel,0.022,-0.0012982047480026165,0.0070823733886777795,0,10000
10,250,0,250,500,750,1000,1250,1500,1750,2000,2250,2,0,1,0,0,0,0,0,0,0,0,0,0,-0.5,-0.5,-0.5,-0.5,-0.5,-0.5,-0.5,-0.5,-0.5,-0.5,-0.5,linear,0.025,TRUE,25,FALSE,2,NA,NA,0,0.5,5,sepmodel,0.0227,-9.9100364353776e-4,0.007939554957455637,0,10000
10,250,0,250,500,750,1000,1250,1500,1750,2000,2250,2,0,1,0,0,0,0,0,0,0,0,0,0,-0.5,-0.5,-0.5,-0.5,-0.5,-0.5,-0.5,-0.5,-0.5,-0.5,-0.5,linear,0.025,TRUE,25,FALSE,2,NA,NA,0,0.5,5,splines,0.0231,-0.0012993044610212741,0.007058326717142077,0,10000
10,250,0,250,500,750,1000,1250,1500,1750,2000,2250,2,0,1,0,0,0,0,0,0,0,0,0,0,-0.5,-0.5,-0.5,-0.5,-0.5,-0.5,-0.5,-0.5,-0.5,-0.5,-0.5,linear,0.025,TRUE,25,FALSE,2,NA,NA,0,0.5,5,splines_cal,0.0216,-0.0013046691705646003,0.007086159818318776,0,10000
10,250,0,250,500,750,1000,1250,1500,1750,2000,2250,2,0,1,0,0,0,0,0,0,0,0,0,0,-0.5,-0.5,-0.5,-0.5,-0.5,-0.5,-0.5,-0.5,-0.5,-0.5,-0.5,linear,0.025,TRUE,25,FALSE,2,NA,NA,0,0.5,6,fixmodel,0.0252,0.001193141337699451,0.007014958657120199,0,10000
10,250,0,250,500,750,1000,1250,1500,1750,2000,2250,2,0,1,0,0,0,0,0,0,0,0,0,0,-0.5,-0.5,-0.5,-0.5,-0.5,-0.5,-0.5,-0.5,-0.5,-0.5,-0.5,linear,0.025,TRUE,25,FALSE,2,NA,NA,0,0.5,6,sepmodel,0.0262,0.001205359092804993,0.007922702556441202,0,10000
10,250,0,250,500,750,1000,1250,1500,1750,2000,2250,2,0,1,0,0,0,0,0,0,0,0,0,0,-0.5,-0.5,-0.5,-0.5,-0.5,-0.5,-0.5,-0.5,-0.5,-0.5,-0.5,linear,0.025,TRUE,25,FALSE,2,NA,NA,0,0.5,6,splines,0.0252,0.0011626675366964842,0.006989100214624984,0,10000
10,250,0,250,500,750,1000,1250,1500,1750,2000,2250,2,0,1,0,0,0,0,0,0,0,0,0,0,-0.5,-0.5,-0.5,-0.5,-0.5,-0.5,-0.5,-0.5,-0.5,-0.5,-0.5,linear,0.025,TRUE,25,FALSE,2,NA,NA,0,0.5,6,splines_cal,0.0255,0.001280484679662494,0.00702962021476993,0,10000
10,250,0,250,500,750,1000,1250,1500,1750,2000,2250,2,0,1,0,0,0,0,0,0,0,0,0,0,-0.5,-0.5,-0.5,-0.5,-0.5,-0.5,-0.5,-0.5,-0.5,-0.5,-0.5,linear,0.025,TRUE,25,FALSE,2,NA,NA,0,0.5,7,fixmodel,0.0254,3.3517983309619463e-4,0.006889148194450211,0,10000
10,250,0,250,500,750,1000,1250,1500,1750,2000,2250,2,0,1,0,0,0,0,0,0,0,0,0,0,-0.5,-0.5,-0.5,-0.5,-0.5,-0.5,-0.5,-0.5,-0.5,-0.5,-0.5,linear,0.025,TRUE,25,FALSE,2,NA,NA,0,0.5,7,sepmodel,0.0234,8.898964951404949e-5,0.007927386936750049,0,10000
10,250,0,250,500,750,1000,1250,1500,1750,2000,2250,2,0,1,0,0,0,0,0,0,0,0,0,0,-0.5,-0.5,-0.5,-0.5,-0.5,-0.5,-0.5,-0.5,-0.5,-0.5,-0.5,linear,0.025,TRUE,25,FALSE,2,NA,NA,0,0.5,7,splines,0.0246,2.8364036305771094e-4,0.0068736178354971075,0,10000
10,250,0,250,500,750,1000,1250,1500,1750,2000,2250,2,0,1,0,0,0,0,0,0,0,0,0,0,-0.5,-0.5,-0.5,-0.5,-0.5,-0.5,-0.5,-0.5,-0.5,-0.5,-0.5,linear,0.025,TRUE,25,FALSE,2,NA,NA,0,0.5,7,splines_cal,0.0246,3.212219747508625e-4,0.0068779859208783906,0,10000
10,250,0,250,500,750,1000,1250,1500,1750,2000,2250,2,0,1,0,0,0,0,0,0,0,0,0,0,-0.5,-0.5,-0.5,-0.5,-0.5,-0.5,-0.5,-0.5,-0.5,-0.5,-0.5,linear,0.025,TRUE,25,FALSE,2,NA,NA,0,0.5,8,fixmodel,0.0257,-3.0459347400603284e-5,0.007139042239892834,0,10000
10,250,0,250,500,750,1000,1250,1500,1750,2000,2250,2,0,1,0,0,0,0,0,0,0,0,0,0,-0.5,-0.5,-0.5,-0.5,-0.5,-0.5,-0.5,-0.5,-0.5,-0.5,-0.5,linear,0.025,TRUE,25,FALSE,2,NA,NA,0,0.5,8,sepmodel,0.0259,-3.080136896242073e-4,0.008157320158174499,0,10000
10,250,0,250,500,750,1000,1250,1500,1750,2000,2250,2,0,1,0,0,0,0,0,0,0,0,0,0,-0.5,-0.5,-0.5,-0.5,-0.5,-0.5,-0.5,-0.5,-0.5,-0.5,-0.5,linear,0.025,TRUE,25,FALSE,2,NA,NA,0,0.5,8,splines,0.0261,-2.909932723942613e-5,0.007130161256913095,0,10000
10,250,0,250,500,750,1000,1250,1500,1750,2000,2250,2,0,1,0,0,0,0,0,0,0,0,0,0,-0.5,-0.5,-0.5,-0.5,-0.5,-0.5,-0.5,-0.5,-0.5,-0.5,-0.5,linear,0.025,TRUE,25,FALSE,2,NA,NA,0,0.5,8,splines_cal,0.0259,3.6530921727922866e-5,0.007118622454247229,0,10000
10,250,0,250,500,750,1000,1250,1500,1750,2000,2250,2,0,1,0,0,0,0,0,0,0,0,0,0,-0.5,-0.5,-0.5,-0.5,-0.5,-0.5,-0.5,-0.5,-0.5,-0.5,-0.5,linear,0.025,TRUE,25,FALSE,2,NA,NA,0,0.5,9,fixmodel,0.0234,-0.0016281156338150287,0.00695932868650012,0,10000
10,250,0,250,500,750,1000,1250,1500,1750,2000,2250,2,0,1,0,0,0,0,0,0,0,0,0,0,-0.5,-0.5,-0.5,-0.5,-0.5,-0.5,-0.5,-0.5,-0.5,-0.5,-0.5,linear,0.025,TRUE,25,FALSE,2,NA,NA,0,0.5,9,sepmodel,0.0234,-0.0019198971175956802,0.008068170728709427,0,10000
10,250,0,250,500,750,1000,1250,1500,1750,2000,2250,2,0,1,0,0,0,0,0,0,0,0,0,0,-0.5,-0.5,-0.5,-0.5,-0.5,-0.5,-0.5,-0.5,-0.5,-0.5,-0.5,linear,0.025,TRUE,25,FALSE,2,NA,NA,0,0.5,9,splines,0.0236,-0.0016630242329577936,0.006930226324501598,0,10000
10,250,0,250,500,750,1000,1250,1500,1750,2000,2250,2,0,1,0,0,0,0,0,0,0,0,0,0,-0.5,-0.5,-0.5,-0.5,-0.5,-0.5,-0.5,-0.5,-0.5,-0.5,-0.5,linear,0.025,TRUE,25,FALSE,2,NA,NA,0,0.5,9,splines_cal,0.0237,-0.0016897925918133985,0.006947478721849492,0,10000
10,250,0,250,500,750,1000,1250,1500,1750,2000,2250,2,0,1,0,0,0,0,0,0,0,0,0,0,-0.5,-0.5,-0.5,-0.5,-0.5,-0.5,-0.5,-0.5,-0.5,-0.5,-0.5,linear,0.025,TRUE,25,FALSE,2,NA,NA,0,0.5,10,fixmodel,0.0264,1.6180670401559828e-5,0.006940075055606771,0,10000
10,250,0,250,500,750,1000,1250,1500,1750,2000,2250,2,0,1,0,0,0,0,0,0,0,0,0,0,-0.5,-0.5,-0.5,-0.5,-0.5,-0.5,-0.5,-0.5,-0.5,-0.5,-0.5,linear,0.025,TRUE,25,FALSE,2,NA,NA,0,0.5,10,sepmodel,0.0233,-3.267159795951133e-4,0.008018693463921983,0,10000
10,250,0,250,500,750,1000,1250,1500,1750,2000,2250,2,0,1,0,0,0,0,0,0,0,0,0,0,-0.5,-0.5,-0.5,-0.5,-0.5,-0.5,-0.5,-0.5,-0.5,-0.5,-0.5,linear,0.025,TRUE,25,FALSE,2,NA,NA,0,0.5,10,splines,0.0258,-5.101926971985072e-5,0.006929503393839609,0,10000
10,250,0,250,500,750,1000,1250,1500,1750,2000,2250,2,0,1,0,0,0,0,0,0,0,0,0,0,-0.5,-0.5,-0.5,-0.5,-0.5,-0.5,-0.5,-0.5,-0.5,-0.5,-0.5,linear,0.025,TRUE,25,FALSE,2,NA,NA,0,0.5,10,splines_cal,0.0257,-1.6977944642562103e-5,0.0069522884943923795,0,10000
10,250,0,250,500,750,1000,1250,1500,1750,2000,2250,2,0,1,0,0,0,0,0,0,0,0,0,0,-0.5,-0.5,-0.5,-0.5,-0.5,-0.5,-0.5,-0.5,-0.5,-0.5,-0.5,linear,0.025,TRUE,25,FALSE,3,NA,NA,0,0.5,2,fixmodel,0.024,-8.228428794850392e-5,0.007486220495026258,0,10000
10,250,0,250,500,750,1000,1250,1500,1750,2000,2250,2,0,1,0,0,0,0,0,0,0,0,0,0,-0.5,-0.5,-0.5,-0.5,-0.5,-0.5,-0.5,-0.5,-0.5,-0.5,-0.5,linear,0.025,TRUE,25,FALSE,3,NA,NA,0,0.5,2,sepmodel,0.0258,-5.617077333986694e-4,0.008092984938143772,0,10000
10,250,0,250,500,750,1000,1250,1500,1750,2000,2250,2,0,1,0,0,0,0,0,0,0,0,0,0,-0.5,-0.5,-0.5,-0.5,-0.5,-0.5,-0.5,-0.5,-0.5,-0.5,-0.5,linear,0.025,TRUE,25,FALSE,3,NA,NA,0,0.5,2,splines,0.0248,-6.848137702126567e-6,0.007414103048688359,0,10000
10,250,0,250,500,750,1000,1250,1500,1750,2000,2250,2,0,1,0,0,0,0,0,0,0,0,0,0,-0.5,-0.5,-0.5,-0.5,-0.5,-0.5,-0.5,-0.5,-0.5,-0.5,-0.5,linear,0.025,TRUE,25,FALSE,3,NA,NA,0,0.5,2,splines_cal,0.0243,-3.562747634270617e-5,0.00746806219297332,0,10000
10,250,0,250,500,750,1000,1250,1500,1750,2000,2250,2,0,1,0,0,0,0,0,0,0,0,0,0,-0.5,-0.5,-0.5,-0.5,-0.5,-0.5,-0.5,-0.5,-0.5,-0.5,-0.5,linear,0.025,TRUE,25,FALSE,3,NA,NA,0,0.5,3,fixmodel,0.0216,-0.0014338465689764195,0.007253643409607095,0,10000
10,250,0,250,500,750,1000,1250,1500,1750,2000,2250,2,0,1,0,0,0,0,0,0,0,0,0,0,-0.5,-0.5,-0.5,-0.5,-0.5,-0.5,-0.5,-0.5,-0.5,-0.5,-0.5,linear,0.025,TRUE,25,FALSE,3,NA,NA,0,0.5,3,sepmodel,0.0234,-0.0014551034784144798,0.00796093349732592,0,10000
10,250,0,250,500,750,1000,1250,1500,1750,2000,2250,2,0,1,0,0,0,0,0,0,0,0,0,0,-0.5,-0.5,-0.5,-0.5,-0.5,-0.5,-0.5,-0.5,-0.5,-0.5,-0.5,linear,0.025,TRUE,25,FALSE,3,NA,NA,0,0.5,3,splines,0.0226,-0.0014317808466282706,0.00720554307298961,0,10000
10,250,0,250,500,750,1000,1250,1500,1750,2000,2250,2,0,1,0,0,0,0,0,0,0,0,0,0,-0.5,-0.5,-0.5,-0.5,-0.5,-0.5,-0.5,-0.5,-0.5,-0.5,-0.5,linear,0.025,TRUE,25,FALSE,3,NA,NA,0,0.5,3,splines_cal,0.022,-0.0012572352504406482,0.0072412944131051565,0,10000
10,250,0,250,500,750,1000,1250,1500,1750,2000,2250,2,0,1,0,0,0,0,0,0,0,0,0,0,-0.5,-0.5,-0.5,-0.5,-0.5,-0.5,-0.5,-0.5,-0.5,-0.5,-0.5,linear,0.025,TRUE,25,FALSE,3,NA,NA,0,0.5,4,fixmodel,0.0235,-7.279345567013442e-4,0.007193050583316698,0,10000
10,250,0,250,500,750,1000,1250,1500,1750,2000,2250,2,0,1,0,0,0,0,0,0,0,0,0,0,-0.5,-0.5,-0.5,-0.5,-0.5,-0.5,-0.5,-0.5,-0.5,-0.5,-0.5,linear,0.025,TRUE,25,FALSE,3,NA,NA,0,0.5,4,sepmodel,0.0238,9.594042635018657e-5,0.007993771688447138,0,10000
10,250,0,250,500,750,1000,1250,1500,1750,2000,2250,2,0,1,0,0,0,0,0,0,0,0,0,0,-0.5,-0.5,-0.5,-0.5,-0.5,-0.5,-0.5,-0.5,-0.5,-0.5,-0.5,linear,0.025,TRUE,25,FALSE,3,NA,NA,0,0.5,4,splines,0.0246,-7.357325540652952e-4,0.007175718636550805,0,10000
10,250,0,250,500,750,1000,1250,1500,1750,2000,2250,2,0,1,0,0,0,0,0,0,0,0,0,0,-0.5,-0.5,-0.5,-0.5,-0.5,-0.5,-0.5,-0.5,-0.5,-0.5,-0.5,linear,0.025,TRUE,25,FALSE,3,NA,NA,0,0.5,4,splines_cal,0.0235,-7.087229273227337e-4,0.007192646133231448,0,10000
10,250,0,250,500,750,1000,1250,1500,1750,2000,2250,2,0,1,0,0,0,0,0,0,0,0,0,0,-0.5,-0.5,-0.5,-0.5,-0.5,-0.5,-0.5,-0.5,-0.5,-0.5,-0.5,linear,0.025,TRUE,25,FALSE,3,NA,NA,0,0.5,5,fixmodel,0.025,-7.212029815959689e-4,0.007357773161487648,0,10000
10,250,0,250,500,750,1000,1250,1500,1750,2000,2250,2,0,1,0,0,0,0,0,0,0,0,0,0,-0.5,-0.5,-0.5,-0.5,-0.5,-0.5,-0.5,-0.5,-0.5,-0.5,-0.5,linear,0.025,TRUE,25,FALSE,3,NA,NA,0,0.5,5,sepmodel,0.0253,-2.693859612774717e-4,0.008264295890354711,0,10000
10,250,0,250,500,750,1000,1250,1500,1750,2000,2250,2,0,1,0,0,0,0,0,0,0,0,0,0,-0.5,-0.5,-0.5,-0.5,-0.5,-0.5,-0.5,-0.5,-0.5,-0.5,-0.5,linear,0.025,TRUE,25,FALSE,3,NA,NA,0,0.5,5,splines,0.0249,-8.434413041933661e-4,0.007331999532098422,0,10000
10,250,0,250,500,750,1000,1250,1500,1750,2000,2250,2,0,1,0,0,0,0,0,0,0,0,0,0,-0.5,-0.5,-0.5,-0.5,-0.5,-0.5,-0.5,-0.5,-0.5,-0.5,-0.5,linear,0.025,TRUE,25,FALSE,3,NA,NA,0,0.5,5,splines_cal,0.0248,-7.310589555635813e-4,0.007362139947081574,0,10000
10,250,0,250,500,750,1000,1250,1500,1750,2000,2250,2,0,1,0,0,0,0,0,0,0,0,0,0,-0.5,-0.5,-0.5,-0.5,-0.5,-0.5,-0.5,-0.5,-0.5,-0.5,-0.5,linear,0.025,TRUE,25,FALSE,3,NA,NA,0,0.5,6,fixmodel,0.0202,-0.0020285002638050706,0.006993448516856605,0,10000
10,250,0,250,500,750,1000,1250,1500,1750,2000,2250,2,0,1,0,0,0,0,0,0,0,0,0,0,-0.5,-0.5,-0.5,-0.5,-0.5,-0.5,-0.5,-0.5,-0.5,-0.5,-0.5,linear,0.025,TRUE,25,FALSE,3,NA,NA,0,0.5,6,sepmodel,0.0212,-0.0015751156948039591,0.007963927355676777,0,10000
10,250,0,250,500,750,1000,1250,1500,1750,2000,2250,2,0,1,0,0,0,0,0,0,0,0,0,0,-0.5,-0.5,-0.5,-0.5,-0.5,-0.5,-0.5,-0.5,-0.5,-0.5,-0.5,linear,0.025,TRUE,25,FALSE,3,NA,NA,0,0.5,6,splines,0.02,-0.0020867565881967872,0.00694664299323578,0,10000
10,250,0,250,500,750,1000,1250,1500,1750,2000,2250,2,0,1,0,0,0,0,0,0,0,0,0,0,-0.5,-0.5,-0.5,-0.5,-0.5,-0.5,-0.5,-0.5,-0.5,-0.5,-0.5,linear,0.025,TRUE,25,FALSE,3,NA,NA,0,0.5,6,splines_cal,0.0204,-0.0020218222996933833,0.007000633612935868,0,10000
10,250,0,250,500,750,1000,1250,1500,1750,2000,2250,2,0,1,0,0,0,0,0,0,0,0,0,0,-0.5,-0.5,-0.5,-0.5,-0.5,-0.5,-0.5,-0.5,-0.5,-0.5,-0.5,linear,0.025,TRUE,25,FALSE,3,NA,NA,0,0.5,7,fixmodel,0.0234,-9.532134578180769e-4,0.007106548831187627,0,10000
10,250,0,250,500,750,1000,1250,1500,1750,2000,2250,2,0,1,0,0,0,0,0,0,0,0,0,0,-0.5,-0.5,-0.5,-0.5,-0.5,-0.5,-0.5,-0.5,-0.5,-0.5,-0.5,linear,0.025,TRUE,25,FALSE,3,NA,NA,0,0.5,7,sepmodel,0.0224,-4.7554922798843604e-4,0.008104252544778312,0,10000
10,250,0,250,500,750,1000,1250,1500,1750,2000,2250,2,0,1,0,0,0,0,0,0,0,0,0,0,-0.5,-0.5,-0.5,-0.5,-0.5,-0.5,-0.5,-0.5,-0.5,-0.5,-0.5,linear,0.025,TRUE,25,FALSE,3,NA,NA,0,0.5,7,splines,0.0228,-0.00100697777064882,0.007097351485942321,0,10000
10,250,0,250,500,750,1000,1250,1500,1750,2000,2250,2,0,1,0,0,0,0,0,0,0,0,0,0,-0.5,-0.5,-0.5,-0.5,-0.5,-0.5,-0.5,-0.5,-0.5,-0.5,-0.5,linear,0.025,TRUE,25,FALSE,3,NA,NA,0,0.5,7,splines_cal,0.0228,-9.059829589703139e-4,0.007105814426744422,0,10000
10,250,0,250,500,750,1000,1250,1500,1750,2000,2250,2,0,1,0,0,0,0,0,0,0,0,0,0,-0.5,-0.5,-0.5,-0.5,-0.5,-0.5,-0.5,-0.5,-0.5,-0.5,-0.5,linear,0.025,TRUE,25,FALSE,3,NA,NA,0,0.5,8,fixmodel,0.0256,7.607035203497395e-4,0.006934484298460993,0,10000
10,250,0,250,500,750,1000,1250,1500,1750,2000,2250,2,0,1,0,0,0,0,0,0,0,0,0,0,-0.5,-0.5,-0.5,-0.5,-0.5,-0.5,-0.5,-0.5,-0.5,-0.5,-0.5,linear,0.025,TRUE,25,FALSE,3,NA,NA,0,0.5,8,sepmodel,0.0268,8.563142135761626e-4,0.008053090900728735,0,10000
10,250,0,250,500,750,1000,1250,1500,1750,2000,2250,2,0,1,0,0,0,0,0,0,0,0,0,0,-0.5,-0.5,-0.5,-0.5,-0.5,-0.5,-0.5,-0.5,-0.5,-0.5,-0.5,linear,0.025,TRUE,25,FALSE,3,NA,NA,0,0.5,8,splines,0.0259,7.487683696166631e-4,0.006912905222520091,0,10000
10,250,0,250,500,750,1000,1250,1500,1750,2000,2250,2,0,1,0,0,0,0,0,0,0,0,0,0,-0.5,-0.5,-0.5,-0.5,-0.5,-0.5,-0.5,-0.5,-0.5,-0.5,-0.5,linear,0.025,TRUE,25,FALSE,3,NA,NA,0,0.5,8,splines_cal,0.0265,8.137819086624948e-4,0.0069431151446347344,0,10000
10,250,0,250,500,750,1000,1250,1500,1750,2000,2250,2,0,1,0,0,0,0,0,0,0,0,0,0,-0.5,-0.5,-0.5,-0.5,-0.5,-0.5,-0.5,-0.5,-0.5,-0.5,-0.5,linear,0.025,TRUE,25,FALSE,3,NA,NA,0,0.5,9,fixmodel,0.0241,-7.651414579624488e-4,0.007049864489198317,0,10000
10,250,0,250,500,750,1000,1250,1500,1750,2000,2250,2,0,1,0,0,0,0,0,0,0,0,0,0,-0.5,-0.5,-0.5,-0.5,-0.5,-0.5,-0.5,-0.5,-0.5,-0.5,-0.5,linear,0.025,TRUE,25,FALSE,3,NA,NA,0,0.5,9,sepmodel,0.0255,-6.04196668232185e-4,0.00804370972457848,0,10000
10,250,0,250,500,750,1000,1250,1500,1750,2000,2250,2,0,1,0,0,0,0,0,0,0,0,0,0,-0.5,-0.5,-0.5,-0.5,-0.5,-0.5,-0.5,-0.5,-0.5,-0.5,-0.5,linear,0.025,TRUE,25,FALSE,3,NA,NA,0,0.5,9,splines,0.0241,-7.643027785027919e-4,0.007031974410865,0,10000
10,250,0,250,500,750,1000,1250,1500,1750,2000,2250,2,0,1,0,0,0,0,0,0,0,0,0,0,-0.5,-0.5,-0.5,-0.5,-0.5,-0.5,-0.5,-0.5,-0.5,-0.5,-0.5,linear,0.025,TRUE,25,FALSE,3,NA,NA,0,0.5,9,splines_cal,0.0243,-7.669570986990098e-4,0.007058868767621714,0,10000
10,250,0,250,500,750,1000,1250,1500,1750,2000,2250,2,0,1,0,0,0,0,0,0,0,0,0,0,-0.5,-0.5,-0.5,-0.5,-0.5,-0.5,-0.5,-0.5,-0.5,-0.5,-0.5,linear,0.025,TRUE,25,FALSE,3,NA,NA,0,0.5,10,fixmodel,0.0276,-2.691717744572981e-4,0.006862252803287381,0,10000
10,250,0,250,500,750,1000,1250,1500,1750,2000,2250,2,0,1,0,0,0,0,0,0,0,0,0,0,-0.5,-0.5,-0.5,-0.5,-0.5,-0.5,-0.5,-0.5,-0.5,-0.5,-0.5,linear,0.025,TRUE,25,FALSE,3,NA,NA,0,0.5,10,sepmodel,0.0226,-2.4005767815149282e-4,0.007940253222982245,0,10000
10,250,0,250,500,750,1000,1250,1500,1750,2000,2250,2,0,1,0,0,0,0,0,0,0,0,0,0,-0.5,-0.5,-0.5,-0.5,-0.5,-0.5,-0.5,-0.5,-0.5,-0.5,-0.5,linear,0.025,TRUE,25,FALSE,3,NA,NA,0,0.5,10,splines,0.0275,-3.0207195829905036e-4,0.006831102599034478,0,10000
10,250,0,250,500,750,1000,1250,1500,1750,2000,2250,2,0,1,0,0,0,0,0,0,0,0,0,0,-0.5,-0.5,-0.5,-0.5,-0.5,-0.5,-0.5,-0.5,-0.5,-0.5,-0.5,linear,0.025,TRUE,25,FALSE,3,NA,NA,0,0.5,10,splines_cal,0.0277,-2.648758348542786e-4,0.006879674918956373,0,10000
10,250,0,250,500,750,1000,1250,1500,1750,2000,2250,2,0,1,0,0,0,0,0,0,0,0,0,0,-0.5,-0.5,-0.5,-0.5,-0.5,-0.5,-0.5,-0.5,-0.5,-0.5,-0.5,linear,0.025,TRUE,50,FALSE,1,NA,NA,0,0.5,2,fixmodel,0.0234,-2.2928038119172123e-4,0.007439627076066497,0,10000
10,250,0,250,500,750,1000,1250,1500,1750,2000,2250,2,0,1,0,0,0,0,0,0,0,0,0,0,-0.5,-0.5,-0.5,-0.5,-0.5,-0.5,-0.5,-0.5,-0.5,-0.5,-0.5,linear,0.025,TRUE,50,FALSE,1,NA,NA,0,0.5,2,sepmodel,0.0248,-1.6208041983348958e-4,0.007993683337322532,0,10000
10,250,0,250,500,750,1000,1250,1500,1750,2000,2250,2,0,1,0,0,0,0,0,0,0,0,0,0,-0.5,-0.5,-0.5,-0.5,-0.5,-0.5,-0.5,-0.5,-0.5,-0.5,-0.5,linear,0.025,TRUE,50,FALSE,1,NA,NA,0,0.5,2,splines,0.0231,-3.416374150275643e-4,0.007295897613405404,0,10000
10,250,0,250,500,750,1000,1250,1500,1750,2000,2250,2,0,1,0,0,0,0,0,0,0,0,0,0,-0.5,-0.5,-0.5,-0.5,-0.5,-0.5,-0.5,-0.5,-0.5,-0.5,-0.5,linear,0.025,TRUE,50,FALSE,1,NA,NA,0,0.5,2,splines_cal,0.0241,-4.232704512325086e-4,0.007337232617917745,0,10000
10,250,0,250,500,750,1000,1250,1500,1750,2000,2250,2,0,1,0,0,0,0,0,0,0,0,0,0,-0.5,-0.5,-0.5,-0.5,-0.5,-0.5,-0.5,-0.5,-0.5,-0.5,-0.5,linear,0.025,TRUE,50,FALSE,1,NA,NA,0,0.5,3,fixmodel,0.0259,9.286344455367926e-4,0.007341598852395855,0,10000
10,250,0,250,500,750,1000,1250,1500,1750,2000,2250,2,0,1,0,0,0,0,0,0,0,0,0,0,-0.5,-0.5,-0.5,-0.5,-0.5,-0.5,-0.5,-0.5,-0.5,-0.5,-0.5,linear,0.025,TRUE,50,FALSE,1,NA,NA,0,0.5,3,sepmodel,0.0258,0.0010475912921080203,0.008077970867496159,0,10000
10,250,0,250,500,750,1000,1250,1500,1750,2000,2250,2,0,1,0,0,0,0,0,0,0,0,0,0,-0.5,-0.5,-0.5,-0.5,-0.5,-0.5,-0.5,-0.5,-0.5,-0.5,-0.5,linear,0.025,TRUE,50,FALSE,1,NA,NA,0,0.5,3,splines,0.0268,9.86523083066095e-4,0.007250716963964678,0,10000
10,250,0,250,500,750,1000,1250,1500,1750,2000,2250,2,0,1,0,0,0,0,0,0,0,0,0,0,-0.5,-0.5,-0.5,-0.5,-0.5,-0.5,-0.5,-0.5,-0.5,-0.5,-0.5,linear,0.025,TRUE,50,FALSE,1,NA,NA,0,0.5,3,splines_cal,0.0259,9.438137861768757e-4,0.007285376690679958,0,10000
10,250,0,250,500,750,1000,1250,1500,1750,2000,2250,2,0,1,0,0,0,0,0,0,0,0,0,0,-0.5,-0.5,-0.5,-0.5,-0.5,-0.5,-0.5,-0.5,-0.5,-0.5,-0.5,linear,0.025,TRUE,50,FALSE,1,NA,NA,0,0.5,4,fixmodel,0.0263,-3.5353917465048e-4,0.007251767375440814,0,10000
10,250,0,250,500,750,1000,1250,1500,1750,2000,2250,2,0,1,0,0,0,0,0,0,0,0,0,0,-0.5,-0.5,-0.5,-0.5,-0.5,-0.5,-0.5,-0.5,-0.5,-0.5,-0.5,linear,0.025,TRUE,50,FALSE,1,NA,NA,0,0.5,4,sepmodel,0.0259,-1.0572084870258031e-4,0.00803755132225236,0,10000
10,250,0,250,500,750,1000,1250,1500,1750,2000,2250,2,0,1,0,0,0,0,0,0,0,0,0,0,-0.5,-0.5,-0.5,-0.5,-0.5,-0.5,-0.5,-0.5,-0.5,-0.5,-0.5,linear,0.025,TRUE,50,FALSE,1,NA,NA,0,0.5,4,splines,0.0268,-4.90285024244336e-4,0.007191318196358676,0,10000
10,250,0,250,500,750,1000,1250,1500,1750,2000,2250,2,0,1,0,0,0,0,0,0,0,0,0,0,-0.5,-0.5,-0.5,-0.5,-0.5,-0.5,-0.5,-0.5,-0.5,-0.5,-0.5,linear,0.025,TRUE,50,FALSE,1,NA,NA,0,0.5,4,splines_cal,0.0265,-3.8715109947053643e-4,0.007164402937641056,0,10000
10,250,0,250,500,750,1000,1250,1500,1750,2000,2250,2,0,1,0,0,0,0,0,0,0,0,0,0,-0.5,-0.5,-0.5,-0.5,-0.5,-0.5,-0.5,-0.5,-0.5,-0.5,-0.5,linear,0.025,TRUE,50,FALSE,1,NA,NA,0,0.5,5,fixmodel,0.0267,-2.9136148064498683e-4,0.007284784822267263,0,10000
10,250,0,250,500,750,1000,1250,1500,1750,2000,2250,2,0,1,0,0,0,0,0,0,0,0,0,0,-0.5,-0.5,-0.5,-0.5,-0.5,-0.5,-0.5,-0.5,-0.5,-0.5,-0.5,linear,0.025,TRUE,50,FALSE,1,NA,NA,0,0.5,5,sepmodel,0.0267,1.0624913144477152e-4,0.008198164450585787,0,10000
10,250,0,250,500,750,1000,1250,1500,1750,2000,2250,2,0,1,0,0,0,0,0,0,0,0,0,0,-0.5,-0.5,-0.5,-0.5,-0.5,-0.5,-0.5,-0.5,-0.5,-0.5,-0.5,linear,0.025,TRUE,50,FALSE,1,NA,NA,0,0.5,5,splines,0.0261,-3.387852123925739e-4,0.0072396926140681555,0,10000
10,250,0,250,500,750,1000,1250,1500,1750,2000,2250,2,0,1,0,0,0,0,0,0,0,0,0,0,-0.5,-0.5,-0.5,-0.5,-0.5,-0.5,-0.5,-0.5,-0.5,-0.5,-0.5,linear,0.025,TRUE,50,FALSE,1,NA,NA,0,0.5,5,splines_cal,0.0259,-3.059595962855766e-4,0.007257968245263262,0,10000
10,250,0,250,500,750,1000,1250,1500,1750,2000,2250,2,0,1,0,0,0,0,0,0,0,0,0,0,-0.5,-0.5,-0.5,-0.5,-0.5,-0.5,-0.5,-0.5,-0.5,-0.5,-0.5,linear,0.025,TRUE,50,FALSE,1,NA,NA,0,0.5,6,fixmodel,0.0266,3.8211853885778503e-4,0.007132603437719997,0,10000
10,250,0,250,500,750,1000,1250,1500,1750,2000,2250,2,0,1,0,0,0,0,0,0,0,0,0,0,-0.5,-0.5,-0.5,-0.5,-0.5,-0.5,-0.5,-0.5,-0.5,-0.5,-0.5,linear,0.025,TRUE,50,FALSE,1,NA,NA,0,0.5,6,sepmodel,0.0278,9.274714024864058e-4,0.008089959022030328,0,10000
10,250,0,250,500,750,1000,1250,1500,1750,2000,2250,2,0,1,0,0,0,0,0,0,0,0,0,0,-0.5,-0.5,-0.5,-0.5,-0.5,-0.5,-0.5,-0.5,-0.5,-0.5,-0.5,linear,0.025,TRUE,50,FALSE,1,NA,NA,0,0.5,6,splines,0.0272,3.5694220220358836e-4,0.007111498035055367,0,10000
10,250,0,250,500,750,1000,1250,1500,1750,2000,2250,2,0,1,0,0,0,0,0,0,0,0,0,0,-0.5,-0.5,-0.5,-0.5,-0.5,-0.5,-0.5,-0.5,-0.5,-0.5,-0.5,linear,0.025,TRUE,50,FALSE,1,NA,NA,0,0.5,6,splines_cal,0.0263,3.181233528376463e-4,0.007086281943270223,0,10000
10,250,0,250,500,750,1000,1250,1500,1750,2000,2250,2,0,1,0,0,0,0,0,0,0,0,0,0,-0.5,-0.5,-0.5,-0.5,-0.5,-0.5,-0.5,-0.5,-0.5,-0.5,-0.5,linear,0.025,TRUE,50,FALSE,1,NA,NA,0,0.5,7,fixmodel,0.0239,-9.905476571357222e-4,0.007080180012476697,0,10000
10,250,0,250,500,750,1000,1250,1500,1750,2000,2250,2,0,1,0,0,0,0,0,0,0,0,0,0,-0.5,-0.5,-0.5,-0.5,-0.5,-0.5,-0.5,-0.5,-0.5,-0.5,-0.5,linear,0.025,TRUE,50,FALSE,1,NA,NA,0,0.5,7,sepmodel,0.0241,-4.361765718611723e-4,0.008074632234726521,0,10000
10,250,0,250,500,750,1000,1250,1500,1750,2000,2250,2,0,1,0,0,0,0,0,0,0,0,0,0,-0.5,-0.5,-0.5,-0.5,-0.5,-0.5,-0.5,-0.5,-0.5,-0.5,-0.5,linear,0.025,TRUE,50,FALSE,1,NA,NA,0,0.5,7,splines,0.0245,-0.0010181270858853802,0.007058177438897768,0,10000
10,250,0,250,500,750,1000,1250,1500,1750,2000,2250,2,0,1,0,0,0,0,0,0,0,0,0,0,-0.5,-0.5,-0.5,-0.5,-0.5,-0.5,-0.5,-0.5,-0.5,-0.5,-0.5,linear,0.025,TRUE,50,FALSE,1,NA,NA,0,0.5,7,splines_cal,0.024,-8.982480350647786e-4,0.0070142006961028455,0,10000
10,250,0,250,500,750,1000,1250,1500,1750,2000,2250,2,0,1,0,0,0,0,0,0,0,0,0,0,-0.5,-0.5,-0.5,-0.5,-0.5,-0.5,-0.5,-0.5,-0.5,-0.5,-0.5,linear,0.025,TRUE,50,FALSE,1,NA,NA,0,0.5,8,fixmodel,0.0255,-6.661769799365531e-4,0.006872391400932103,0,10000
10,250,0,250,500,750,1000,1250,1500,1750,2000,2250,2,0,1,0,0,0,0,0,0,0,0,0,0,-0.5,-0.5,-0.5,-0.5,-0.5,-0.5,-0.5,-0.5,-0.5,-0.5,-0.5,linear,0.025,TRUE,50,FALSE,1,NA,NA,0,0.5,8,sepmodel,0.0259,9.197570917733558e-5,0.007881078231451835,0,10000
10,250,0,250,500,750,1000,1250,1500,1750,2000,2250,2,0,1,0,0,0,0,0,0,0,0,0,0,-0.5,-0.5,-0.5,-0.5,-0.5,-0.5,-0.5,-0.5,-0.5,-0.5,-0.5,linear,0.025,TRUE,50,FALSE,1,NA,NA,0,0.5,8,splines,0.0254,-6.442535801626886e-4,0.006840374101905845,0,10000
10,250,0,250,500,750,1000,1250,1500,1750,2000,2250,2,0,1,0,0,0,0,0,0,0,0,0,0,-0.5,-0.5,-0.5,-0.5,-0.5,-0.5,-0.5,-0.5,-0.5,-0.5,-0.5,linear,0.025,TRUE,50,FALSE,1,NA,NA,0,0.5,8,splines_cal,0.0262,-9.34334535497787e-4,0.0067758191734997525,0,10000
10,250,0,250,500,750,1000,1250,1500,1750,2000,2250,2,0,1,0,0,0,0,0,0,0,0,0,0,-0.5,-0.5,-0.5,-0.5,-0.5,-0.5,-0.5,-0.5,-0.5,-0.5,-0.5,linear,0.025,TRUE,50,FALSE,1,NA,NA,0,0.5,9,fixmodel,0.0251,-9.033757347593248e-4,0.006850364024613037,0,10000
10,250,0,250,500,750,1000,1250,1500,1750,2000,2250,2,0,1,0,0,0,0,0,0,0,0,0,0,-0.5,-0.5,-0.5,-0.5,-0.5,-0.5,-0.5,-0.5,-0.5,-0.5,-0.5,linear,0.025,TRUE,50,FALSE,1,NA,NA,0,0.5,9,sepmodel,0.0257,-3.657307574800774e-4,0.007931963375575373,0,10000
10,250,0,250,500,750,1000,1250,1500,1750,2000,2250,2,0,1,0,0,0,0,0,0,0,0,0,0,-0.5,-0.5,-0.5,-0.5,-0.5,-0.5,-0.5,-0.5,-0.5,-0.5,-0.5,linear,0.025,TRUE,50,FALSE,1,NA,NA,0,0.5,9,splines,0.0251,-8.808163294567819e-4,0.0068362445352532514,0,10000
10,250,0,250,500,750,1000,1250,1500,1750,2000,2250,2,0,1,0,0,0,0,0,0,0,0,0,0,-0.5,-0.5,-0.5,-0.5,-0.5,-0.5,-0.5,-0.5,-0.5,-0.5,-0.5,linear,0.025,TRUE,50,FALSE,1,NA,NA,0,0.5,9,splines_cal,0.0242,-9.02841997355076e-4,0.0068011553711750765,0,10000
10,250,0,250,500,750,1000,1250,1500,1750,2000,2250,2,0,1,0,0,0,0,0,0,0,0,0,0,-0.5,-0.5,-0.5,-0.5,-0.5,-0.5,-0.5,-0.5,-0.5,-0.5,-0.5,linear,0.025,TRUE,50,FALSE,1,NA,NA,0,0.5,10,fixmodel,0.0288,-6.348225713039428e-4,0.00702381689492757,0,10000
10,250,0,250,500,750,1000,1250,1500,1750,2000,2250,2,0,1,0,0,0,0,0,0,0,0,0,0,-0.5,-0.5,-0.5,-0.5,-0.5,-0.5,-0.5,-0.5,-0.5,-0.5,-0.5,linear,0.025,TRUE,50,FALSE,1,NA,NA,0,0.5,10,sepmodel,0.0272,-2.0128010489491686e-4,0.008133406305267321,0,10000
10,250,0,250,500,750,1000,1250,1500,1750,2000,2250,2,0,1,0,0,0,0,0,0,0,0,0,0,-0.5,-0.5,-0.5,-0.5,-0.5,-0.5,-0.5,-0.5,-0.5,-0.5,-0.5,linear,0.025,TRUE,50,FALSE,1,NA,NA,0,0.5,10,splines,0.0281,-6.465447232773027e-4,0.00700004713319306,0,10000
10,250,0,250,500,750,1000,1250,1500,1750,2000,2250,2,0,1,0,0,0,0,0,0,0,0,0,0,-0.5,-0.5,-0.5,-0.5,-0.5,-0.5,-0.5,-0.5,-0.5,-0.5,-0.5,linear,0.025,TRUE,50,FALSE,1,NA,NA,0,0.5,10,splines_cal,0.0283,-6.35961638033121e-4,0.007018704338157822,0,10000
10,250,0,250,500,750,1000,1250,1500,1750,2000,2250,2,0,1,0,0,0,0,0,0,0,0,0,0,-0.5,-0.5,-0.5,-0.5,-0.5,-0.5,-0.5,-0.5,-0.5,-0.5,-0.5,linear,0.025,TRUE,50,FALSE,2,NA,NA,0,0.5,2,fixmodel,0.0248,1.4383862693763213e-4,0.007586306755167686,0,10000
10,250,0,250,500,750,1000,1250,1500,1750,2000,2250,2,0,1,0,0,0,0,0,0,0,0,0,0,-0.5,-0.5,-0.5,-0.5,-0.5,-0.5,-0.5,-0.5,-0.5,-0.5,-0.5,linear,0.025,TRUE,50,FALSE,2,NA,NA,0,0.5,2,sepmodel,0.0266,1.4123352952875143e-5,0.008166714037285416,0,10000
10,250,0,250,500,750,1000,1250,1500,1750,2000,2250,2,0,1,0,0,0,0,0,0,0,0,0,0,-0.5,-0.5,-0.5,-0.5,-0.5,-0.5,-0.5,-0.5,-0.5,-0.5,-0.5,linear,0.025,TRUE,50,FALSE,2,NA,NA,0,0.5,2,splines,0.0266,1.1268472270936068e-4,0.007511473167722635,0,10000
10,250,0,250,500,750,1000,1250,1500,1750,2000,2250,2,0,1,0,0,0,0,0,0,0,0,0,0,-0.5,-0.5,-0.5,-0.5,-0.5,-0.5,-0.5,-0.5,-0.5,-0.5,-0.5,linear,0.025,TRUE,50,FALSE,2,NA,NA,0,0.5,2,splines_cal,0.0257,-5.090613677100287e-6,0.007482240535306269,0,10000
10,250,0,250,500,750,1000,1250,1500,1750,2000,2250,2,0,1,0,0,0,0,0,0,0,0,0,0,-0.5,-0.5,-0.5,-0.5,-0.5,-0.5,-0.5,-0.5,-0.5,-0.5,-0.5,linear,0.025,TRUE,50,FALSE,2,NA,NA,0,0.5,3,fixmodel,0.0236,2.7003536484507945e-4,0.007235386805703143,0,10000
10,250,0,250,500,750,1000,1250,1500,1750,2000,2250,2,0,1,0,0,0,0,0,0,0,0,0,0,-0.5,-0.5,-0.5,-0.5,-0.5,-0.5,-0.5,-0.5,-0.5,-0.5,-0.5,linear,0.025,TRUE,50,FALSE,2,NA,NA,0,0.5,3,sepmodel,0.0253,3.5152252298489817e-4,0.007927165896600114,0,10000
10,250,0,250,500,750,1000,1250,1500,1750,2000,2250,2,0,1,0,0,0,0,0,0,0,0,0,0,-0.5,-0.5,-0.5,-0.5,-0.5,-0.5,-0.5,-0.5,-0.5,-0.5,-0.5,linear,0.025,TRUE,50,FALSE,2,NA,NA,0,0.5,3,splines,0.0229,1.7213924823141595e-4,0.0071704604172798505,0,10000
10,250,0,250,500,750,1000,1250,1500,1750,2000,2250,2,0,1,0,0,0,0,0,0,0,0,0,0,-0.5,-0.5,-0.5,-0.5,-0.5,-0.5,-0.5,-0.5,-0.5,-0.5,-0.5,linear,0.025,TRUE,50,FALSE,2,NA,NA,0,0.5,3,splines_cal,0.023,2.5414182303069426e-4,0.0071889048633996255,0,10000
10,250,0,250,500,750,1000,1250,1500,1750,2000,2250,2,0,1,0,0,0,0,0,0,0,0,0,0,-0.5,-0.5,-0.5,-0.5,-0.5,-0.5,-0.5,-0.5,-0.5,-0.5,-0.5,linear,0.025,TRUE,50,FALSE,2,NA,NA,0,0.5,4,fixmodel,0.026,6.635105467580294e-4,0.007341251757506351,0,10000
10,250,0,250,500,750,1000,1250,1500,1750,2000,2250,2,0,1,0,0,0,0,0,0,0,0,0,0,-0.5,-0.5,-0.5,-0.5,-0.5,-0.5,-0.5,-0.5,-0.5,-0.5,-0.5,linear,0.025,TRUE,50,FALSE,2,NA,NA,0,0.5,4,sepmodel,0.028,7.877351030745898e-4,0.008181045669813581,0,10000
10,250,0,250,500,750,1000,1250,1500,1750,2000,2250,2,0,1,0,0,0,0,0,0,0,0,0,0,-0.5,-0.5,-0.5,-0.5,-0.5,-0.5,-0.5,-0.5,-0.5,-0.5,-0.5,linear,0.025,TRUE,50,FALSE,2,NA,NA,0,0.5,4,splines,0.0261,6.017970080999734e-4,0.0072827146001191055,0,10000
10,250,0,250,500,750,1000,1250,1500,1750,2000,2250,2,0,1,0,0,0,0,0,0,0,0,0,0,-0.5,-0.5,-0.5,-0.5,-0.5,-0.5,-0.5,-0.5,-0.5,-0.5,-0.5,linear,0.025,TRUE,50,FALSE,2,NA,NA,0,0.5,4,splines_cal,0.0272,5.868081959010223e-4,0.007269178685297209,0,10000
10,250,0,250,500,750,1000,1250,1500,1750,2000,2250,2,0,1,0,0,0,0,0,0,0,0,0,0,-0.5,-0.5,-0.5,-0.5,-0.5,-0.5,-0.5,-0.5,-0.5,-0.5,-0.5,linear,0.025,TRUE,50,FALSE,2,NA,NA,0,0.5,5,fixmodel,0.0251,-6.567254701612049e-4,0.007171086526867898,0,10000
10,250,0,250,500,750,1000,1250,1500,1750,2000,2250,2,0,1,0,0,0,0,0,0,0,0,0,0,-0.5,-0.5,-0.5,-0.5,-0.5,-0.5,-0.5,-0.5,-0.5,-0.5,-0.5,linear,0.025,TRUE,50,FALSE,2,NA,NA,0,0.5,5,sepmodel,0.0257,-7.193689490855139e-4,0.008104915457380655,0,10000
10,250,0,250,500,750,1000,1250,1500,1750,2000,2250,2,0,1,0,0,0,0,0,0,0,0,0,0,-0.5,-0.5,-0.5,-0.5,-0.5,-0.5,-0.5,-0.5,-0.5,-0.5,-0.5,linear,0.025,TRUE,50,FALSE,2,NA,NA,0,0.5,5,splines,0.025,-6.991891813845107e-4,0.007125246004952592,0,10000
10,250,0,250,500,750,1000,1250,1500,1750,2000,2250,2,0,1,0,0,0,0,0,0,0,0,0,0,-0.5,-0.5,-0.5,-0.5,-0.5,-0.5,-0.5,-0.5,-0.5,-0.5,-0.5,linear,0.025,TRUE,50,FALSE,2,NA,NA,0,0.5,5,splines_cal,0.0259,-7.502195654098448e-4,0.007158654657426323,0,10000
10,250,0,250,500,750,1000,1250,1500,1750,2000,2250,2,0,1,0,0,0,0,0,0,0,0,0,0,-0.5,-0.5,-0.5,-0.5,-0.5,-0.5,-0.5,-0.5,-0.5,-0.5,-0.5,linear,0.025,TRUE,50,FALSE,2,NA,NA,0,0.5,6,fixmodel,0.0229,-0.0012017978040540379,0.007159429499369743,0,10000
10,250,0,250,500,750,1000,1250,1500,1750,2000,2250,2,0,1,0,0,0,0,0,0,0,0,0,0,-0.5,-0.5,-0.5,-0.5,-0.5,-0.5,-0.5,-0.5,-0.5,-0.5,-0.5,linear,0.025,TRUE,50,FALSE,2,NA,NA,0,0.5,6,sepmodel,0.0216,-0.0013376820109174863,0.00813751523688162,0,10000
10,250,0,250,500,750,1000,1250,1500,1750,2000,2250,2,0,1,0,0,0,0,0,0,0,0,0,0,-0.5,-0.5,-0.5,-0.5,-0.5,-0.5,-0.5,-0.5,-0.5,-0.5,-0.5,linear,0.025,TRUE,50,FALSE,2,NA,NA,0,0.5,6,splines,0.0229,-0.001179058890042561,0.007122388385040001,0,10000
10,250,0,250,500,750,1000,1250,1500,1750,2000,2250,2,0,1,0,0,0,0,0,0,0,0,0,0,-0.5,-0.5,-0.5,-0.5,-0.5,-0.5,-0.5,-0.5,-0.5,-0.5,-0.5,linear,0.025,TRUE,50,FALSE,2,NA,NA,0,0.5,6,splines_cal,0.0221,-0.001228339806234049,0.007108153493857178,0,10000
10,250,0,250,500,750,1000,1250,1500,1750,2000,2250,2,0,1,0,0,0,0,0,0,0,0,0,0,-0.5,-0.5,-0.5,-0.5,-0.5,-0.5,-0.5,-0.5,-0.5,-0.5,-0.5,linear,0.025,TRUE,50,FALSE,2,NA,NA,0,0.5,7,fixmodel,0.0254,9.267452536825759e-4,0.0070313154807040415,0,10000
10,250,0,250,500,750,1000,1250,1500,1750,2000,2250,2,0,1,0,0,0,0,0,0,0,0,0,0,-0.5,-0.5,-0.5,-0.5,-0.5,-0.5,-0.5,-0.5,-0.5,-0.5,-0.5,linear,0.025,TRUE,50,FALSE,2,NA,NA,0,0.5,7,sepmodel,0.0268,0.001066636426524329,0.008079722462010233,0,10000
10,250,0,250,500,750,1000,1250,1500,1750,2000,2250,2,0,1,0,0,0,0,0,0,0,0,0,0,-0.5,-0.5,-0.5,-0.5,-0.5,-0.5,-0.5,-0.5,-0.5,-0.5,-0.5,linear,0.025,TRUE,50,FALSE,2,NA,NA,0,0.5,7,splines,0.0255,9.013624965426891e-4,0.007001581075325487,0,10000
10,250,0,250,500,750,1000,1250,1500,1750,2000,2250,2,0,1,0,0,0,0,0,0,0,0,0,0,-0.5,-0.5,-0.5,-0.5,-0.5,-0.5,-0.5,-0.5,-0.5,-0.5,-0.5,linear,0.025,TRUE,50,FALSE,2,NA,NA,0,0.5,7,splines_cal,0.0265,8.223989867629446e-4,0.006982533032677044,0,10000
10,250,0,250,500,750,1000,1250,1500,1750,2000,2250,2,0,1,0,0,0,0,0,0,0,0,0,0,-0.5,-0.5,-0.5,-0.5,-0.5,-0.5,-0.5,-0.5,-0.5,-0.5,-0.5,linear,0.025,TRUE,50,FALSE,2,NA,NA,0,0.5,8,fixmodel,0.0253,9.486338246250454e-4,0.006971317046389423,0,10000
10,250,0,250,500,750,1000,1250,1500,1750,2000,2250,2,0,1,0,0,0,0,0,0,0,0,0,0,-0.5,-0.5,-0.5,-0.5,-0.5,-0.5,-0.5,-0.5,-0.5,-0.5,-0.5,linear,0.025,TRUE,50,FALSE,2,NA,NA,0,0.5,8,sepmodel,0.0245,9.201535082680043e-4,0.008090493131054777,0,10000
10,250,0,250,500,750,1000,1250,1500,1750,2000,2250,2,0,1,0,0,0,0,0,0,0,0,0,0,-0.5,-0.5,-0.5,-0.5,-0.5,-0.5,-0.5,-0.5,-0.5,-0.5,-0.5,linear,0.025,TRUE,50,FALSE,2,NA,NA,0,0.5,8,splines,0.0262,9.91949823588706e-4,0.006961390035102382,0,10000
10,250,0,250,500,750,1000,1250,1500,1750,2000,2250,2,0,1,0,0,0,0,0,0,0,0,0,0,-0.5,-0.5,-0.5,-0.5,-0.5,-0.5,-0.5,-0.5,-0.5,-0.5,-0.5,linear,0.025,TRUE,50,FALSE,2,NA,NA,0,0.5,8,splines_cal,0.0268,9.471044958573294e-4,0.006922607657126745,0,10000
10,250,0,250,500,750,1000,1250,1500,1750,2000,2250,2,0,1,0,0,0,0,0,0,0,0,0,0,-0.5,-0.5,-0.5,-0.5,-0.5,-0.5,-0.5,-0.5,-0.5,-0.5,-0.5,linear,0.025,TRUE,50,FALSE,2,NA,NA,0,0.5,9,fixmodel,0.0271,0.0010916574403296653,0.006962930678578525,0,10000
10,250,0,250,500,750,1000,1250,1500,1750,2000,2250,2,0,1,0,0,0,0,0,0,0,0,0,0,-0.5,-0.5,-0.5,-0.5,-0.5,-0.5,-0.5,-0.5,-0.5,-0.5,-0.5,linear,0.025,TRUE,50,FALSE,2,NA,NA,0,0.5,9,sepmodel,0.0248,0.0010681528269844433,0.008068876442851492,0,10000
10,250,0,250,500,750,1000,1250,1500,1750,2000,2250,2,0,1,0,0,0,0,0,0,0,0,0,0,-0.5,-0.5,-0.5,-0.5,-0.5,-0.5,-0.5,-0.5,-0.5,-0.5,-0.5,linear,0.025,TRUE,50,FALSE,2,NA,NA,0,0.5,9,splines,0.0274,0.0010672651124304527,0.0069551228689197,0,10000
10,250,0,250,500,750,1000,1250,1500,1750,2000,2250,2,0,1,0,0,0,0,0,0,0,0,0,0,-0.5,-0.5,-0.5,-0.5,-0.5,-0.5,-0.5,-0.5,-0.5,-0.5,-0.5,linear,0.025,TRUE,50,FALSE,2,NA,NA,0,0.5,9,splines_cal,0.0267,0.001074427352445389,0.006954997441945392,0,10000
10,250,0,250,500,750,1000,1250,1500,1750,2000,2250,2,0,1,0,0,0,0,0,0,0,0,0,0,-0.5,-0.5,-0.5,-0.5,-0.5,-0.5,-0.5,-0.5,-0.5,-0.5,-0.5,linear,0.025,TRUE,50,FALSE,2,NA,NA,0,0.5,10,fixmodel,0.0264,6.930383809196086e-4,0.006952620710366332,0,10000
10,250,0,250,500,750,1000,1250,1500,1750,2000,2250,2,0,1,0,0,0,0,0,0,0,0,0,0,-0.5,-0.5,-0.5,-0.5,-0.5,-0.5,-0.5,-0.5,-0.5,-0.5,-0.5,linear,0.025,TRUE,50,FALSE,2,NA,NA,0,0.5,10,sepmodel,0.0264,4.746535698538695e-4,0.00801186216477251,0,10000
10,250,0,250,500,750,1000,1250,1500,1750,2000,2250,2,0,1,0,0,0,0,0,0,0,0,0,0,-0.5,-0.5,-0.5,-0.5,-0.5,-0.5,-0.5,-0.5,-0.5,-0.5,-0.5,linear,0.025,TRUE,50,FALSE,2,NA,NA,0,0.5,10,splines,0.0261,7.394538155335918e-4,0.006937279544273258,0,10000
10,250,0,250,500,750,1000,1250,1500,1750,2000,2250,2,0,1,0,0,0,0,0,0,0,0,0,0,-0.5,-0.5,-0.5,-0.5,-0.5,-0.5,-0.5,-0.5,-0.5,-0.5,-0.5,linear,0.025,TRUE,50,FALSE,2,NA,NA,0,0.5,10,splines_cal,0.0261,6.929495088940043e-4,0.006954598478034159,0,10000
10,250,0,250,500,750,1000,1250,1500,1750,2000,2250,2,0,1,0,0,0,0,0,0,0,0,0,0,-0.5,-0.5,-0.5,-0.5,-0.5,-0.5,-0.5,-0.5,-0.5,-0.5,-0.5,linear,0.025,TRUE,50,FALSE,3,NA,NA,0,0.5,2,fixmodel,0.0264,1.6328015764812534e-4,0.007732193753082781,0,10000
10,250,0,250,500,750,1000,1250,1500,1750,2000,2250,2,0,1,0,0,0,0,0,0,0,0,0,0,-0.5,-0.5,-0.5,-0.5,-0.5,-0.5,-0.5,-0.5,-0.5,-0.5,-0.5,linear,0.025,TRUE,50,FALSE,3,NA,NA,0,0.5,2,sepmodel,0.0281,4.02192591244368e-4,0.00833527799922415,0,10000
10,250,0,250,500,750,1000,1250,1500,1750,2000,2250,2,0,1,0,0,0,0,0,0,0,0,0,0,-0.5,-0.5,-0.5,-0.5,-0.5,-0.5,-0.5,-0.5,-0.5,-0.5,-0.5,linear,0.025,TRUE,50,FALSE,3,NA,NA,0,0.5,2,splines,0.0273,1.6322113131504934e-4,0.007653192898946748,0,10000
10,250,0,250,500,750,1000,1250,1500,1750,2000,2250,2,0,1,0,0,0,0,0,0,0,0,0,0,-0.5,-0.5,-0.5,-0.5,-0.5,-0.5,-0.5,-0.5,-0.5,-0.5,-0.5,linear,0.025,TRUE,50,FALSE,3,NA,NA,0,0.5,2,splines_cal,0.0268,1.9283271101505834e-4,0.0076265709285944635,0,10000
10,250,0,250,500,750,1000,1250,1500,1750,2000,2250,2,0,1,0,0,0,0,0,0,0,0,0,0,-0.5,-0.5,-0.5,-0.5,-0.5,-0.5,-0.5,-0.5,-0.5,-0.5,-0.5,linear,0.025,TRUE,50,FALSE,3,NA,NA,0,0.5,3,fixmodel,0.0256,-2.934918740147757e-5,0.007451248128598465,0,10000
10,250,0,250,500,750,1000,1250,1500,1750,2000,2250,2,0,1,0,0,0,0,0,0,0,0,0,0,-0.5,-0.5,-0.5,-0.5,-0.5,-0.5,-0.5,-0.5,-0.5,-0.5,-0.5,linear,0.025,TRUE,50,FALSE,3,NA,NA,0,0.5,3,sepmodel,0.0261,4.5591101073755096e-5,0.008134405786254238,0,10000
10,250,0,250,500,750,1000,1250,1500,1750,2000,2250,2,0,1,0,0,0,0,0,0,0,0,0,0,-0.5,-0.5,-0.5,-0.5,-0.5,-0.5,-0.5,-0.5,-0.5,-0.5,-0.5,linear,0.025,TRUE,50,FALSE,3,NA,NA,0,0.5,3,splines,0.0253,6.358176663157827e-5,0.00737840926951263,0,10000
10,250,0,250,500,750,1000,1250,1500,1750,2000,2250,2,0,1,0,0,0,0,0,0,0,0,0,0,-0.5,-0.5,-0.5,-0.5,-0.5,-0.5,-0.5,-0.5,-0.5,-0.5,-0.5,linear,0.025,TRUE,50,FALSE,3,NA,NA,0,0.5,3,splines_cal,0.0257,-7.645523645599813e-5,0.007400865940472335,0,10000
10,250,0,250,500,750,1000,1250,1500,1750,2000,2250,2,0,1,0,0,0,0,0,0,0,0,0,0,-0.5,-0.5,-0.5,-0.5,-0.5,-0.5,-0.5,-0.5,-0.5,-0.5,-0.5,linear,0.025,TRUE,50,FALSE,3,NA,NA,0,0.5,4,fixmodel,0.0251,-2.3123139978542424e-5,0.007477204892705482,0,10000
10,250,0,250,500,750,1000,1250,1500,1750,2000,2250,2,0,1,0,0,0,0,0,0,0,0,0,0,-0.5,-0.5,-0.5,-0.5,-0.5,-0.5,-0.5,-0.5,-0.5,-0.5,-0.5,linear,0.025,TRUE,50,FALSE,3,NA,NA,0,0.5,4,sepmodel,0.0252,-1.9672335552866352e-4,0.00836050859691925,0,10000
10,250,0,250,500,750,1000,1250,1500,1750,2000,2250,2,0,1,0,0,0,0,0,0,0,0,0,0,-0.5,-0.5,-0.5,-0.5,-0.5,-0.5,-0.5,-0.5,-0.5,-0.5,-0.5,linear,0.025,TRUE,50,FALSE,3,NA,NA,0,0.5,4,splines,0.0255,-1.3023085880243342e-5,0.007417589063511047,0,10000
10,250,0,250,500,750,1000,1250,1500,1750,2000,2250,2,0,1,0,0,0,0,0,0,0,0,0,0,-0.5,-0.5,-0.5,-0.5,-0.5,-0.5,-0.5,-0.5,-0.5,-0.5,-0.5,linear,0.025,TRUE,50,FALSE,3,NA,NA,0,0.5,4,splines_cal,0.0249,-1.7117233478518534e-5,0.007402403813515284,0,10000
10,250,0,250,500,750,1000,1250,1500,1750,2000,2250,2,0,1,0,0,0,0,0,0,0,0,0,0,-0.5,-0.5,-0.5,-0.5,-0.5,-0.5,-0.5,-0.5,-0.5,-0.5,-0.5,linear,0.025,TRUE,50,FALSE,3,NA,NA,0,0.5,5,fixmodel,0.0261,-1.9749231604523456e-4,0.007199613620383286,0,10000
10,250,0,250,500,750,1000,1250,1500,1750,2000,2250,2,0,1,0,0,0,0,0,0,0,0,0,0,-0.5,-0.5,-0.5,-0.5,-0.5,-0.5,-0.5,-0.5,-0.5,-0.5,-0.5,linear,0.025,TRUE,50,FALSE,3,NA,NA,0,0.5,5,sepmodel,0.0249,-5.585883541437966e-4,0.008099006000623833,0,10000
10,250,0,250,500,750,1000,1250,1500,1750,2000,2250,2,0,1,0,0,0,0,0,0,0,0,0,0,-0.5,-0.5,-0.5,-0.5,-0.5,-0.5,-0.5,-0.5,-0.5,-0.5,-0.5,linear,0.025,TRUE,50,FALSE,3,NA,NA,0,0.5,5,splines,0.0251,-9.469722652404788e-5,0.007168957722156141,0,10000
10,250,0,250,500,750,1000,1250,1500,1750,2000,2250,2,0,1,0,0,0,0,0,0,0,0,0,0,-0.5,-0.5,-0.5,-0.5,-0.5,-0.5,-0.5,-0.5,-0.5,-0.5,-0.5,linear,0.025,TRUE,50,FALSE,3,NA,NA,0,0.5,5,splines_cal,0.0257,-1.7428436701266375e-4,0.007180662059537364,0,10000
10,250,0,250,500,750,1000,1250,1500,1750,2000,2250,2,0,1,0,0,0,0,0,0,0,0,0,0,-0.5,-0.5,-0.5,-0.5,-0.5,-0.5,-0.5,-0.5,-0.5,-0.5,-0.5,linear,0.025,TRUE,50,FALSE,3,NA,NA,0,0.5,6,fixmodel,0.0279,5.920198954353901e-5,0.007190813077199478,0,10000
10,250,0,250,500,750,1000,1250,1500,1750,2000,2250,2,0,1,0,0,0,0,0,0,0,0,0,0,-0.5,-0.5,-0.5,-0.5,-0.5,-0.5,-0.5,-0.5,-0.5,-0.5,-0.5,linear,0.025,TRUE,50,FALSE,3,NA,NA,0,0.5,6,sepmodel,0.0273,-5.614863066952023e-4,0.008114568466244016,0,10000
10,250,0,250,500,750,1000,1250,1500,1750,2000,2250,2,0,1,0,0,0,0,0,0,0,0,0,0,-0.5,-0.5,-0.5,-0.5,-0.5,-0.5,-0.5,-0.5,-0.5,-0.5,-0.5,linear,0.025,TRUE,50,FALSE,3,NA,NA,0,0.5,6,splines,0.0285,7.576782893614976e-5,0.007167455246091444,0,10000
10,250,0,250,500,750,1000,1250,1500,1750,2000,2250,2,0,1,0,0,0,0,0,0,0,0,0,0,-0.5,-0.5,-0.5,-0.5,-0.5,-0.5,-0.5,-0.5,-0.5,-0.5,-0.5,linear,0.025,TRUE,50,FALSE,3,NA,NA,0,0.5,6,splines_cal,0.0277,1.8638657204888846e-4,0.007161794071140811,0,10000
10,250,0,250,500,750,1000,1250,1500,1750,2000,2250,2,0,1,0,0,0,0,0,0,0,0,0,0,-0.5,-0.5,-0.5,-0.5,-0.5,-0.5,-0.5,-0.5,-0.5,-0.5,-0.5,linear,0.025,TRUE,50,FALSE,3,NA,NA,0,0.5,7,fixmodel,0.023,-2.504273048404436e-4,0.006886586859958539,0,10000
10,250,0,250,500,750,1000,1250,1500,1750,2000,2250,2,0,1,0,0,0,0,0,0,0,0,0,0,-0.5,-0.5,-0.5,-0.5,-0.5,-0.5,-0.5,-0.5,-0.5,-0.5,-0.5,linear,0.025,TRUE,50,FALSE,3,NA,NA,0,0.5,7,sepmodel,0.025,-3.087134586787305e-4,0.0079076775705815925,0,10000
10,250,0,250,500,750,1000,1250,1500,1750,2000,2250,2,0,1,0,0,0,0,0,0,0,0,0,0,-0.5,-0.5,-0.5,-0.5,-0.5,-0.5,-0.5,-0.5,-0.5,-0.5,-0.5,linear,0.025,TRUE,50,FALSE,3,NA,NA,0,0.5,7,splines,0.0235,-2.4311051727414875e-4,0.006863879104550806,0,10000
10,250,0,250,500,750,1000,1250,1500,1750,2000,2250,2,0,1,0,0,0,0,0,0,0,0,0,0,-0.5,-0.5,-0.5,-0.5,-0.5,-0.5,-0.5,-0.5,-0.5,-0.5,-0.5,linear,0.025,TRUE,50,FALSE,3,NA,NA,0,0.5,7,splines_cal,0.0227,-2.4835049626500825e-4,0.0068406041891202595,0,10000
10,250,0,250,500,750,1000,1250,1500,1750,2000,2250,2,0,1,0,0,0,0,0,0,0,0,0,0,-0.5,-0.5,-0.5,-0.5,-0.5,-0.5,-0.5,-0.5,-0.5,-0.5,-0.5,linear,0.025,TRUE,50,FALSE,3,NA,NA,0,0.5,8,fixmodel,0.0264,-7.590446525045077e-4,0.006962448820939569,0,10000
10,250,0,250,500,750,1000,1250,1500,1750,2000,2250,2,0,1,0,0,0,0,0,0,0,0,0,0,-0.5,-0.5,-0.5,-0.5,-0.5,-0.5,-0.5,-0.5,-0.5,-0.5,-0.5,linear,0.025,TRUE,50,FALSE,3,NA,NA,0,0.5,8,sepmodel,0.0253,-9.522879529832259e-4,0.00800948422670043,0,10000
10,250,0,250,500,750,1000,1250,1500,1750,2000,2250,2,0,1,0,0,0,0,0,0,0,0,0,0,-0.5,-0.5,-0.5,-0.5,-0.5,-0.5,-0.5,-0.5,-0.5,-0.5,-0.5,linear,0.025,TRUE,50,FALSE,3,NA,NA,0,0.5,8,splines,0.0264,-7.242276920977668e-4,0.0069427923716744305,0,10000
10,250,0,250,500,750,1000,1250,1500,1750,2000,2250,2,0,1,0,0,0,0,0,0,0,0,0,0,-0.5,-0.5,-0.5,-0.5,-0.5,-0.5,-0.5,-0.5,-0.5,-0.5,-0.5,linear,0.025,TRUE,50,FALSE,3,NA,NA,0,0.5,8,splines_cal,0.0279,-7.340165186912974e-4,0.006879459037871408,0,10000
10,250,0,250,500,750,1000,1250,1500,1750,2000,2250,2,0,1,0,0,0,0,0,0,0,0,0,0,-0.5,-0.5,-0.5,-0.5,-0.5,-0.5,-0.5,-0.5,-0.5,-0.5,-0.5,linear,0.025,TRUE,50,FALSE,3,NA,NA,0,0.5,9,fixmodel,0.0264,6.592784620703452e-4,0.006987479444044038,0,10000
10,250,0,250,500,750,1000,1250,1500,1750,2000,2250,2,0,1,0,0,0,0,0,0,0,0,0,0,-0.5,-0.5,-0.5,-0.5,-0.5,-0.5,-0.5,-0.5,-0.5,-0.5,-0.5,linear,0.025,TRUE,50,FALSE,3,NA,NA,0,0.5,9,sepmodel,0.0251,4.8443149875316237e-4,0.008031771334325975,0,10000
10,250,0,250,500,750,1000,1250,1500,1750,2000,2250,2,0,1,0,0,0,0,0,0,0,0,0,0,-0.5,-0.5,-0.5,-0.5,-0.5,-0.5,-0.5,-0.5,-0.5,-0.5,-0.5,linear,0.025,TRUE,50,FALSE,3,NA,NA,0,0.5,9,splines,0.0257,6.860509035142809e-4,0.00696100571608872,0,10000
10,250,0,250,500,750,1000,1250,1500,1750,2000,2250,2,0,1,0,0,0,0,0,0,0,0,0,0,-0.5,-0.5,-0.5,-0.5,-0.5,-0.5,-0.5,-0.5,-0.5,-0.5,-0.5,linear,0.025,TRUE,50,FALSE,3,NA,NA,0,0.5,9,splines_cal,0.026,7.5401015412574e-4,0.006953605489458504,0,10000
10,250,0,250,500,750,1000,1250,1500,1750,2000,2250,2,0,1,0,0,0,0,0,0,0,0,0,0,-0.5,-0.5,-0.5,-0.5,-0.5,-0.5,-0.5,-0.5,-0.5,-0.5,-0.5,linear,0.025,TRUE,50,FALSE,3,NA,NA,0,0.5,10,fixmodel,0.0247,-2.227697326539284e-4,0.00686446542589692,0,10000
10,250,0,250,500,750,1000,1250,1500,1750,2000,2250,2,0,1,0,0,0,0,0,0,0,0,0,0,-0.5,-0.5,-0.5,-0.5,-0.5,-0.5,-0.5,-0.5,-0.5,-0.5,-0.5,linear,0.025,TRUE,50,FALSE,3,NA,NA,0,0.5,10,sepmodel,0.025,3.0456330510182283e-5,0.007962449751938654,0,10000
10,250,0,250,500,750,1000,1250,1500,1750,2000,2250,2,0,1,0,0,0,0,0,0,0,0,0,0,-0.5,-0.5,-0.5,-0.5,-0.5,-0.5,-0.5,-0.5,-0.5,-0.5,-0.5,linear,0.025,TRUE,50,FALSE,3,NA,NA,0,0.5,10,splines,0.0259,-1.6923720746893844e-4,0.006843134838941207,0,10000
10,250,0,250,500,750,1000,1250,1500,1750,2000,2250,2,0,1,0,0,0,0,0,0,0,0,0,0,-0.5,-0.5,-0.5,-0.5,-0.5,-0.5,-0.5,-0.5,-0.5,-0.5,-0.5,linear,0.025,TRUE,50,FALSE,3,NA,NA,0,0.5,10,splines_cal,0.0249,-1.7309260811537432e-4,0.006857377346532937,0,10000
10,250,0,250,500,750,1000,1250,1500,1750,2000,2250,2,0,1,0,0,0,0,0,0,0,0,0,0,-0.5,-0.5,-0.5,-0.5,-0.5,-0.5,-0.5,-0.5,-0.5,-0.5,-0.5,linear,0.025,TRUE,100,FALSE,1,NA,NA,0,0.5,2,fixmodel,0.0249,-8.275175316999561e-6,0.007642339364175404,0,10000
10,250,0,250,500,750,1000,1250,1500,1750,2000,2250,2,0,1,0,0,0,0,0,0,0,0,0,0,-0.5,-0.5,-0.5,-0.5,-0.5,-0.5,-0.5,-0.5,-0.5,-0.5,-0.5,linear,0.025,TRUE,100,FALSE,1,NA,NA,0,0.5,2,sepmodel,0.0238,2.4750706778667504e-4,0.008156847526566343,0,10000
10,250,0,250,500,750,1000,1250,1500,1750,2000,2250,2,0,1,0,0,0,0,0,0,0,0,0,0,-0.5,-0.5,-0.5,-0.5,-0.5,-0.5,-0.5,-0.5,-0.5,-0.5,-0.5,linear,0.025,TRUE,100,FALSE,1,NA,NA,0,0.5,2,splines,0.0251,-1.849742265436151e-4,0.007498378528787019,0,10000
10,250,0,250,500,750,1000,1250,1500,1750,2000,2250,2,0,1,0,0,0,0,0,0,0,0,0,0,-0.5,-0.5,-0.5,-0.5,-0.5,-0.5,-0.5,-0.5,-0.5,-0.5,-0.5,linear,0.025,TRUE,100,FALSE,1,NA,NA,0,0.5,2,splines_cal,0.026,-8.129589292879454e-5,0.0075298143256209505,0,10000
10,250,0,250,500,750,1000,1250,1500,1750,2000,2250,2,0,1,0,0,0,0,0,0,0,0,0,0,-0.5,-0.5,-0.5,-0.5,-0.5,-0.5,-0.5,-0.5,-0.5,-0.5,-0.5,linear,0.025,TRUE,100,FALSE,1,NA,NA,0,0.5,3,fixmodel,0.0237,9.426009763991252e-6,0.0071905495321037466,0,10000
10,250,0,250,500,750,1000,1250,1500,1750,2000,2250,2,0,1,0,0,0,0,0,0,0,0,0,0,-0.5,-0.5,-0.5,-0.5,-0.5,-0.5,-0.5,-0.5,-0.5,-0.5,-0.5,linear,0.025,TRUE,100,FALSE,1,NA,NA,0,0.5,3,sepmodel,0.0228,-1.2225845925811557e-4,0.007846302207420981,0,10000
10,250,0,250,500,750,1000,1250,1500,1750,2000,2250,2,0,1,0,0,0,0,0,0,0,0,0,0,-0.5,-0.5,-0.5,-0.5,-0.5,-0.5,-0.5,-0.5,-0.5,-0.5,-0.5,linear,0.025,TRUE,100,FALSE,1,NA,NA,0,0.5,3,splines,0.0234,5.398152326793992e-5,0.00714559462415912,0,10000
10,250,0,250,500,750,1000,1250,1500,1750,2000,2250,2,0,1,0,0,0,0,0,0,0,0,0,0,-0.5,-0.5,-0.5,-0.5,-0.5,-0.5,-0.5,-0.5,-0.5,-0.5,-0.5,linear,0.025,TRUE,100,FALSE,1,NA,NA,0,0.5,3,splines_cal,0.0235,1.0707325487477174e-4,0.007120827583506529,0,10000
10,250,0,250,500,750,1000,1250,1500,1750,2000,2250,2,0,1,0,0,0,0,0,0,0,0,0,0,-0.5,-0.5,-0.5,-0.5,-0.5,-0.5,-0.5,-0.5,-0.5,-0.5,-0.5,linear,0.025,TRUE,100,FALSE,1,NA,NA,0,0.5,4,fixmodel,0.0251,6.426549719235559e-5,0.007217284175804741,0,10000
10,250,0,250,500,750,1000,1250,1500,1750,2000,2250,2,0,1,0,0,0,0,0,0,0,0,0,0,-0.5,-0.5,-0.5,-0.5,-0.5,-0.5,-0.5,-0.5,-0.5,-0.5,-0.5,linear,0.025,TRUE,100,FALSE,1,NA,NA,0,0.5,4,sepmodel,0.0246,1.75000653815306e-4,0.007950058237461848,0,10000
10,250,0,250,500,750,1000,1250,1500,1750,2000,2250,2,0,1,0,0,0,0,0,0,0,0,0,0,-0.5,-0.5,-0.5,-0.5,-0.5,-0.5,-0.5,-0.5,-0.5,-0.5,-0.5,linear,0.025,TRUE,100,FALSE,1,NA,NA,0,0.5,4,splines,0.0254,1.3670309184364256e-4,0.007176867469063257,0,10000
10,250,0,250,500,750,1000,1250,1500,1750,2000,2250,2,0,1,0,0,0,0,0,0,0,0,0,0,-0.5,-0.5,-0.5,-0.5,-0.5,-0.5,-0.5,-0.5,-0.5,-0.5,-0.5,linear,0.025,TRUE,100,FALSE,1,NA,NA,0,0.5,4,splines_cal,0.0246,6.543004966604533e-5,0.007123136696219324,0,10000
10,250,0,250,500,750,1000,1250,1500,1750,2000,2250,2,0,1,0,0,0,0,0,0,0,0,0,0,-0.5,-0.5,-0.5,-0.5,-0.5,-0.5,-0.5,-0.5,-0.5,-0.5,-0.5,linear,0.025,TRUE,100,FALSE,1,NA,NA,0,0.5,5,fixmodel,0.0256,6.509922384618905e-4,0.007121169283184019,0,10000
10,250,0,250,500,750,1000,1250,1500,1750,2000,2250,2,0,1,0,0,0,0,0,0,0,0,0,0,-0.5,-0.5,-0.5,-0.5,-0.5,-0.5,-0.5,-0.5,-0.5,-0.5,-0.5,linear,0.025,TRUE,100,FALSE,1,NA,NA,0,0.5,5,sepmodel,0.0272,6.638318431602561e-4,0.008046561659630693,0,10000
10,250,0,250,500,750,1000,1250,1500,1750,2000,2250,2,0,1,0,0,0,0,0,0,0,0,0,0,-0.5,-0.5,-0.5,-0.5,-0.5,-0.5,-0.5,-0.5,-0.5,-0.5,-0.5,linear,0.025,TRUE,100,FALSE,1,NA,NA,0,0.5,5,splines,0.0257,6.502627533892329e-4,0.00708527047772362,0,10000
10,250,0,250,500,750,1000,1250,1500,1750,2000,2250,2,0,1,0,0,0,0,0,0,0,0,0,0,-0.5,-0.5,-0.5,-0.5,-0.5,-0.5,-0.5,-0.5,-0.5,-0.5,-0.5,linear,0.025,TRUE,100,FALSE,1,NA,NA,0,0.5,5,splines_cal,0.0261,6.597958838029725e-4,0.007026596233397806,0,10000
10,250,0,250,500,750,1000,1250,1500,1750,2000,2250,2,0,1,0,0,0,0,0,0,0,0,0,0,-0.5,-0.5,-0.5,-0.5,-0.5,-0.5,-0.5,-0.5,-0.5,-0.5,-0.5,linear,0.025,TRUE,100,FALSE,1,NA,NA,0,0.5,6,fixmodel,0.0263,-5.243986332419297e-4,0.0071002508048632965,0,10000
10,250,0,250,500,750,1000,1250,1500,1750,2000,2250,2,0,1,0,0,0,0,0,0,0,0,0,0,-0.5,-0.5,-0.5,-0.5,-0.5,-0.5,-0.5,-0.5,-0.5,-0.5,-0.5,linear,0.025,TRUE,100,FALSE,1,NA,NA,0,0.5,6,sepmodel,0.0257,-2.6277239719684056e-4,0.008026662276975922,0,10000
10,250,0,250,500,750,1000,1250,1500,1750,2000,2250,2,0,1,0,0,0,0,0,0,0,0,0,0,-0.5,-0.5,-0.5,-0.5,-0.5,-0.5,-0.5,-0.5,-0.5,-0.5,-0.5,linear,0.025,TRUE,100,FALSE,1,NA,NA,0,0.5,6,splines,0.0253,-5.108212723228926e-4,0.007066495324013579,0,10000
10,250,0,250,500,750,1000,1250,1500,1750,2000,2250,2,0,1,0,0,0,0,0,0,0,0,0,0,-0.5,-0.5,-0.5,-0.5,-0.5,-0.5,-0.5,-0.5,-0.5,-0.5,-0.5,linear,0.025,TRUE,100,FALSE,1,NA,NA,0,0.5,6,splines_cal,0.0258,-5.171577325551763e-4,0.007059096866724539,0,10000
10,250,0,250,500,750,1000,1250,1500,1750,2000,2250,2,0,1,0,0,0,0,0,0,0,0,0,0,-0.5,-0.5,-0.5,-0.5,-0.5,-0.5,-0.5,-0.5,-0.5,-0.5,-0.5,linear,0.025,TRUE,100,FALSE,1,NA,NA,0,0.5,7,fixmodel,0.0264,5.460500813096829e-4,0.007150655680576438,0,10000
10,250,0,250,500,750,1000,1250,1500,1750,2000,2250,2,0,1,0,0,0,0,0,0,0,0,0,0,-0.5,-0.5,-0.5,-0.5,-0.5,-0.5,-0.5,-0.5,-0.5,-0.5,-0.5,linear,0.025,TRUE,100,FALSE,1,NA,NA,0,0.5,7,sepmodel,0.0271,5.469174834200329e-4,0.008149944000062777,0,10000
10,250,0,250,500,750,1000,1250,1500,1750,2000,2250,2,0,1,0,0,0,0,0,0,0,0,0,0,-0.5,-0.5,-0.5,-0.5,-0.5,-0.5,-0.5,-0.5,-0.5,-0.5,-0.5,linear,0.025,TRUE,100,FALSE,1,NA,NA,0,0.5,7,splines,0.0258,5.951155906405332e-4,0.007122864662419315,0,10000
10,250,0,250,500,750,1000,1250,1500,1750,2000,2250,2,0,1,0,0,0,0,0,0,0,0,0,0,-0.5,-0.5,-0.5,-0.5,-0.5,-0.5,-0.5,-0.5,-0.5,-0.5,-0.5,linear,0.025,TRUE,100,FALSE,1,NA,NA,0,0.5,7,splines_cal,0.0265,6.222388606387283e-4,0.006964011349374201,0,10000
10,250,0,250,500,750,1000,1250,1500,1750,2000,2250,2,0,1,0,0,0,0,0,0,0,0,0,0,-0.5,-0.5,-0.5,-0.5,-0.5,-0.5,-0.5,-0.5,-0.5,-0.5,-0.5,linear,0.025,TRUE,100,FALSE,1,NA,NA,0,0.5,8,fixmodel,0.024,3.4597288172371845e-4,0.0070041105973361675,0,10000
10,250,0,250,500,750,1000,1250,1500,1750,2000,2250,2,0,1,0,0,0,0,0,0,0,0,0,0,-0.5,-0.5,-0.5,-0.5,-0.5,-0.5,-0.5,-0.5,-0.5,-0.5,-0.5,linear,0.025,TRUE,100,FALSE,1,NA,NA,0,0.5,8,sepmodel,0.0256,5.883872989668575e-4,0.00805229939762559,0,10000
10,250,0,250,500,750,1000,1250,1500,1750,2000,2250,2,0,1,0,0,0,0,0,0,0,0,0,0,-0.5,-0.5,-0.5,-0.5,-0.5,-0.5,-0.5,-0.5,-0.5,-0.5,-0.5,linear,0.025,TRUE,100,FALSE,1,NA,NA,0,0.5,8,splines,0.0236,3.8439529124918844e-4,0.0069878517503693255,0,10000
10,250,0,250,500,750,1000,1250,1500,1750,2000,2250,2,0,1,0,0,0,0,0,0,0,0,0,0,-0.5,-0.5,-0.5,-0.5,-0.5,-0.5,-0.5,-0.5,-0.5,-0.5,-0.5,linear,0.025,TRUE,100,FALSE,1,NA,NA,0,0.5,8,splines_cal,0.0227,3.5706435676300134e-4,0.006801655317531286,0,10000
10,250,0,250,500,750,1000,1250,1500,1750,2000,2250,2,0,1,0,0,0,0,0,0,0,0,0,0,-0.5,-0.5,-0.5,-0.5,-0.5,-0.5,-0.5,-0.5,-0.5,-0.5,-0.5,linear,0.025,TRUE,100,FALSE,1,NA,NA,0,0.5,9,fixmodel,0.0238,6.072282433533714e-4,0.006949113779105437,0,10000
10,250,0,250,500,750,1000,1250,1500,1750,2000,2250,2,0,1,0,0,0,0,0,0,0,0,0,0,-0.5,-0.5,-0.5,-0.5,-0.5,-0.5,-0.5,-0.5,-0.5,-0.5,-0.5,linear,0.025,TRUE,100,FALSE,1,NA,NA,0,0.5,9,sepmodel,0.0264,0.0010645736298717122,0.0080222833524125,0,10000
10,250,0,250,500,750,1000,1250,1500,1750,2000,2250,2,0,1,0,0,0,0,0,0,0,0,0,0,-0.5,-0.5,-0.5,-0.5,-0.5,-0.5,-0.5,-0.5,-0.5,-0.5,-0.5,linear,0.025,TRUE,100,FALSE,1,NA,NA,0,0.5,9,splines,0.0238,6.350489327429259e-4,0.006938904793882006,0,10000
10,250,0,250,500,750,1000,1250,1500,1750,2000,2250,2,0,1,0,0,0,0,0,0,0,0,0,0,-0.5,-0.5,-0.5,-0.5,-0.5,-0.5,-0.5,-0.5,-0.5,-0.5,-0.5,linear,0.025,TRUE,100,FALSE,1,NA,NA,0,0.5,9,splines_cal,0.0251,7.370051472420733e-4,0.006778242575540365,0,10000
10,250,0,250,500,750,1000,1250,1500,1750,2000,2250,2,0,1,0,0,0,0,0,0,0,0,0,0,-0.5,-0.5,-0.5,-0.5,-0.5,-0.5,-0.5,-0.5,-0.5,-0.5,-0.5,linear,0.025,TRUE,100,FALSE,1,NA,NA,0,0.5,10,fixmodel,0.0256,0.0017905201726096454,0.006851859573076047,0,10000
10,250,0,250,500,750,1000,1250,1500,1750,2000,2250,2,0,1,0,0,0,0,0,0,0,0,0,0,-0.5,-0.5,-0.5,-0.5,-0.5,-0.5,-0.5,-0.5,-0.5,-0.5,-0.5,linear,0.025,TRUE,100,FALSE,1,NA,NA,0,0.5,10,sepmodel,0.0264,0.002059009691222533,0.007955850357959251,0,10000
10,250,0,250,500,750,1000,1250,1500,1750,2000,2250,2,0,1,0,0,0,0,0,0,0,0,0,0,-0.5,-0.5,-0.5,-0.5,-0.5,-0.5,-0.5,-0.5,-0.5,-0.5,-0.5,linear,0.025,TRUE,100,FALSE,1,NA,NA,0,0.5,10,splines,0.026,0.0018254622294532376,0.006837837212822874,0,10000
10,250,0,250,500,750,1000,1250,1500,1750,2000,2250,2,0,1,0,0,0,0,0,0,0,0,0,0,-0.5,-0.5,-0.5,-0.5,-0.5,-0.5,-0.5,-0.5,-0.5,-0.5,-0.5,linear,0.025,TRUE,100,FALSE,1,NA,NA,0,0.5,10,splines_cal,0.0256,0.0018268009247567763,0.00684125153021611,0,10000
10,250,0,250,500,750,1000,1250,1500,1750,2000,2250,2,0,1,0,0,0,0,0,0,0,0,0,0,-0.5,-0.5,-0.5,-0.5,-0.5,-0.5,-0.5,-0.5,-0.5,-0.5,-0.5,linear,0.025,TRUE,100,FALSE,2,NA,NA,0,0.5,2,fixmodel,0.0258,2.84884510410873e-4,0.007318631297950849,0,10000
10,250,0,250,500,750,1000,1250,1500,1750,2000,2250,2,0,1,0,0,0,0,0,0,0,0,0,0,-0.5,-0.5,-0.5,-0.5,-0.5,-0.5,-0.5,-0.5,-0.5,-0.5,-0.5,linear,0.025,TRUE,100,FALSE,2,NA,NA,0,0.5,2,sepmodel,0.0263,2.9827284609161895e-4,0.007861521681885208,0,10000
10,250,0,250,500,750,1000,1250,1500,1750,2000,2250,2,0,1,0,0,0,0,0,0,0,0,0,0,-0.5,-0.5,-0.5,-0.5,-0.5,-0.5,-0.5,-0.5,-0.5,-0.5,-0.5,linear,0.025,TRUE,100,FALSE,2,NA,NA,0,0.5,2,splines,0.0261,2.4227716933494873e-4,0.007234465742872324,0,10000
10,250,0,250,500,750,1000,1250,1500,1750,2000,2250,2,0,1,0,0,0,0,0,0,0,0,0,0,-0.5,-0.5,-0.5,-0.5,-0.5,-0.5,-0.5,-0.5,-0.5,-0.5,-0.5,linear,0.025,TRUE,100,FALSE,2,NA,NA,0,0.5,2,splines_cal,0.0257,2.561045707871088e-4,0.0071694287919794935,0,10000
10,250,0,250,500,750,1000,1250,1500,1750,2000,2250,2,0,1,0,0,0,0,0,0,0,0,0,0,-0.5,-0.5,-0.5,-0.5,-0.5,-0.5,-0.5,-0.5,-0.5,-0.5,-0.5,linear,0.025,TRUE,100,FALSE,2,NA,NA,0,0.5,3,fixmodel,0.0273,7.748010788694023e-4,0.00752726672568145,0,10000
10,250,0,250,500,750,1000,1250,1500,1750,2000,2250,2,0,1,0,0,0,0,0,0,0,0,0,0,-0.5,-0.5,-0.5,-0.5,-0.5,-0.5,-0.5,-0.5,-0.5,-0.5,-0.5,linear,0.025,TRUE,100,FALSE,2,NA,NA,0,0.5,3,sepmodel,0.0264,7.585994154370389e-4,0.008288815030475733,0,10000
10,250,0,250,500,750,1000,1250,1500,1750,2000,2250,2,0,1,0,0,0,0,0,0,0,0,0,0,-0.5,-0.5,-0.5,-0.5,-0.5,-0.5,-0.5,-0.5,-0.5,-0.5,-0.5,linear,0.025,TRUE,100,FALSE,2,NA,NA,0,0.5,3,splines,0.0269,8.519393227324054e-4,0.007456381166493611,0,10000
10,250,0,250,500,750,1000,1250,1500,1750,2000,2250,2,0,1,0,0,0,0,0,0,0,0,0,0,-0.5,-0.5,-0.5,-0.5,-0.5,-0.5,-0.5,-0.5,-0.5,-0.5,-0.5,linear,0.025,TRUE,100,FALSE,2,NA,NA,0,0.5,3,splines_cal,0.0276,8.400440935949875e-4,0.0074618762321320385,0,10000
10,250,0,250,500,750,1000,1250,1500,1750,2000,2250,2,0,1,0,0,0,0,0,0,0,0,0,0,-0.5,-0.5,-0.5,-0.5,-0.5,-0.5,-0.5,-0.5,-0.5,-0.5,-0.5,linear,0.025,TRUE,100,FALSE,2,NA,NA,0,0.5,4,fixmodel,0.0254,-4.986603582778342e-4,0.007081151340237185,0,10000
10,250,0,250,500,750,1000,1250,1500,1750,2000,2250,2,0,1,0,0,0,0,0,0,0,0,0,0,-0.5,-0.5,-0.5,-0.5,-0.5,-0.5,-0.5,-0.5,-0.5,-0.5,-0.5,linear,0.025,TRUE,100,FALSE,2,NA,NA,0,0.5,4,sepmodel,0.0274,-3.198708232825546e-4,0.007878415983733886,0,10000
10,250,0,250,500,750,1000,1250,1500,1750,2000,2250,2,0,1,0,0,0,0,0,0,0,0,0,0,-0.5,-0.5,-0.5,-0.5,-0.5,-0.5,-0.5,-0.5,-0.5,-0.5,-0.5,linear,0.025,TRUE,100,FALSE,2,NA,NA,0,0.5,4,splines,0.026,-4.1887814759409046e-4,0.0070400138579756,0,10000
10,250,0,250,500,750,1000,1250,1500,1750,2000,2250,2,0,1,0,0,0,0,0,0,0,0,0,0,-0.5,-0.5,-0.5,-0.5,-0.5,-0.5,-0.5,-0.5,-0.5,-0.5,-0.5,linear,0.025,TRUE,100,FALSE,2,NA,NA,0,0.5,4,splines_cal,0.0253,-5.183272139068826e-4,0.007003853932087147,0,10000
10,250,0,250,500,750,1000,1250,1500,1750,2000,2250,2,0,1,0,0,0,0,0,0,0,0,0,0,-0.5,-0.5,-0.5,-0.5,-0.5,-0.5,-0.5,-0.5,-0.5,-0.5,-0.5,linear,0.025,TRUE,100,FALSE,2,NA,NA,0,0.5,5,fixmodel,0.0274,9.161973050494361e-4,0.007254003792176527,0,10000
10,250,0,250,500,750,1000,1250,1500,1750,2000,2250,2,0,1,0,0,0,0,0,0,0,0,0,0,-0.5,-0.5,-0.5,-0.5,-0.5,-0.5,-0.5,-0.5,-0.5,-0.5,-0.5,linear,0.025,TRUE,100,FALSE,2,NA,NA,0,0.5,5,sepmodel,0.0268,8.116850767862313e-4,0.008142005465524127,0,10000
10,250,0,250,500,750,1000,1250,1500,1750,2000,2250,2,0,1,0,0,0,0,0,0,0,0,0,0,-0.5,-0.5,-0.5,-0.5,-0.5,-0.5,-0.5,-0.5,-0.5,-0.5,-0.5,linear,0.025,TRUE,100,FALSE,2,NA,NA,0,0.5,5,splines,0.0265,9.41926919611004e-4,0.007205773968631356,0,10000
10,250,0,250,500,750,1000,1250,1500,1750,2000,2250,2,0,1,0,0,0,0,0,0,0,0,0,0,-0.5,-0.5,-0.5,-0.5,-0.5,-0.5,-0.5,-0.5,-0.5,-0.5,-0.5,linear,0.025,TRUE,100,FALSE,2,NA,NA,0,0.5,5,splines_cal,0.0267,8.641674420999894e-4,0.007154931043947833,0,10000
10,250,0,250,500,750,1000,1250,1500,1750,2000,2250,2,0,1,0,0,0,0,0,0,0,0,0,0,-0.5,-0.5,-0.5,-0.5,-0.5,-0.5,-0.5,-0.5,-0.5,-0.5,-0.5,linear,0.025,TRUE,100,FALSE,2,NA,NA,0,0.5,6,fixmodel,0.0244,5.709917574739208e-4,0.007100995099669989,0,10000
10,250,0,250,500,750,1000,1250,1500,1750,2000,2250,2,0,1,0,0,0,0,0,0,0,0,0,0,-0.5,-0.5,-0.5,-0.5,-0.5,-0.5,-0.5,-0.5,-0.5,-0.5,-0.5,linear,0.025,TRUE,100,FALSE,2,NA,NA,0,0.5,6,sepmodel,0.0239,9.465965984805098e-4,0.008107475976049024,0,10000
10,250,0,250,500,750,1000,1250,1500,1750,2000,2250,2,0,1,0,0,0,0,0,0,0,0,0,0,-0.5,-0.5,-0.5,-0.5,-0.5,-0.5,-0.5,-0.5,-0.5,-0.5,-0.5,linear,0.025,TRUE,100,FALSE,2,NA,NA,0,0.5,6,splines,0.0242,5.647096607143334e-4,0.007070756394629309,0,10000
10,250,0,250,500,750,1000,1250,1500,1750,2000,2250,2,0,1,0,0,0,0,0,0,0,0,0,0,-0.5,-0.5,-0.5,-0.5,-0.5,-0.5,-0.5,-0.5,-0.5,-0.5,-0.5,linear,0.025,TRUE,100,FALSE,2,NA,NA,0,0.5,6,splines_cal,0.0256,5.385064615240881e-4,0.007032191491321811,0,10000
10,250,0,250,500,750,1000,1250,1500,1750,2000,2250,2,0,1,0,0,0,0,0,0,0,0,0,0,-0.5,-0.5,-0.5,-0.5,-0.5,-0.5,-0.5,-0.5,-0.5,-0.5,-0.5,linear,0.025,TRUE,100,FALSE,2,NA,NA,0,0.5,7,fixmodel,0.025,7.235485442740004e-4,0.006989613958095061,0,10000
10,250,0,250,500,750,1000,1250,1500,1750,2000,2250,2,0,1,0,0,0,0,0,0,0,0,0,0,-0.5,-0.5,-0.5,-0.5,-0.5,-0.5,-0.5,-0.5,-0.5,-0.5,-0.5,linear,0.025,TRUE,100,FALSE,2,NA,NA,0,0.5,7,sepmodel,0.0278,0.0012489186913208707,0.008033452861432406,0,10000
10,250,0,250,500,750,1000,1250,1500,1750,2000,2250,2,0,1,0,0,0,0,0,0,0,0,0,0,-0.5,-0.5,-0.5,-0.5,-0.5,-0.5,-0.5,-0.5,-0.5,-0.5,-0.5,linear,0.025,TRUE,100,FALSE,2,NA,NA,0,0.5,7,splines,0.0258,7.742592010233328e-4,0.006975892279995825,0,10000
10,250,0,250,500,750,1000,1250,1500,1750,2000,2250,2,0,1,0,0,0,0,0,0,0,0,0,0,-0.5,-0.5,-0.5,-0.5,-0.5,-0.5,-0.5,-0.5,-0.5,-0.5,-0.5,linear,0.025,TRUE,100,FALSE,2,NA,NA,0,0.5,7,splines_cal,0.0269,6.366989565936719e-4,0.006850381672790328,0,10000
10,250,0,250,500,750,1000,1250,1500,1750,2000,2250,2,0,1,0,0,0,0,0,0,0,0,0,0,-0.5,-0.5,-0.5,-0.5,-0.5,-0.5,-0.5,-0.5,-0.5,-0.5,-0.5,linear,0.025,TRUE,100,FALSE,2,NA,NA,0,0.5,8,fixmodel,0.0256,-3.30866448481627e-4,0.007011217425335508,0,10000
10,250,0,250,500,750,1000,1250,1500,1750,2000,2250,2,0,1,0,0,0,0,0,0,0,0,0,0,-0.5,-0.5,-0.5,-0.5,-0.5,-0.5,-0.5,-0.5,-0.5,-0.5,-0.5,linear,0.025,TRUE,100,FALSE,2,NA,NA,0,0.5,8,sepmodel,0.0272,2.7624645717717843e-5,0.008145936555155876,0,10000
10,250,0,250,500,750,1000,1250,1500,1750,2000,2250,2,0,1,0,0,0,0,0,0,0,0,0,0,-0.5,-0.5,-0.5,-0.5,-0.5,-0.5,-0.5,-0.5,-0.5,-0.5,-0.5,linear,0.025,TRUE,100,FALSE,2,NA,NA,0,0.5,8,splines,0.0258,-2.875586549212364e-4,0.006983999115023636,0,10000
10,250,0,250,500,750,1000,1250,1500,1750,2000,2250,2,0,1,0,0,0,0,0,0,0,0,0,0,-0.5,-0.5,-0.5,-0.5,-0.5,-0.5,-0.5,-0.5,-0.5,-0.5,-0.5,linear,0.025,TRUE,100,FALSE,2,NA,NA,0,0.5,8,splines_cal,0.0248,-2.921313904937034e-4,0.006837158600065526,0,10000
10,250,0,250,500,750,1000,1250,1500,1750,2000,2250,2,0,1,0,0,0,0,0,0,0,0,0,0,-0.5,-0.5,-0.5,-0.5,-0.5,-0.5,-0.5,-0.5,-0.5,-0.5,-0.5,linear,0.025,TRUE,100,FALSE,2,NA,NA,0,0.5,9,fixmodel,0.0261,6.64003326430293e-4,0.007070215427718423,0,10000
10,250,0,250,500,750,1000,1250,1500,1750,2000,2250,2,0,1,0,0,0,0,0,0,0,0,0,0,-0.5,-0.5,-0.5,-0.5,-0.5,-0.5,-0.5,-0.5,-0.5,-0.5,-0.5,linear,0.025,TRUE,100,FALSE,2,NA,NA,0,0.5,9,sepmodel,0.0245,7.876654655927143e-4,0.008176833695468996,0,10000
10,250,0,250,500,750,1000,1250,1500,1750,2000,2250,2,0,1,0,0,0,0,0,0,0,0,0,0,-0.5,-0.5,-0.5,-0.5,-0.5,-0.5,-0.5,-0.5,-0.5,-0.5,-0.5,linear,0.025,TRUE,100,FALSE,2,NA,NA,0,0.5,9,splines,0.0267,7.502248279569073e-4,0.007056497909273532,0,10000
10,250,0,250,500,750,1000,1250,1500,1750,2000,2250,2,0,1,0,0,0,0,0,0,0,0,0,0,-0.5,-0.5,-0.5,-0.5,-0.5,-0.5,-0.5,-0.5,-0.5,-0.5,-0.5,linear,0.025,TRUE,100,FALSE,2,NA,NA,0,0.5,9,splines_cal,0.0264,6.023668716356155e-4,0.006894913876379688,0,10000
10,250,0,250,500,750,1000,1250,1500,1750,2000,2250,2,0,1,0,0,0,0,0,0,0,0,0,0,-0.5,-0.5,-0.5,-0.5,-0.5,-0.5,-0.5,-0.5,-0.5,-0.5,-0.5,linear,0.025,TRUE,100,FALSE,2,NA,NA,0,0.5,10,fixmodel,0.0254,5.498342973577168e-4,0.006962218920742826,0,10000
10,250,0,250,500,750,1000,1250,1500,1750,2000,2250,2,0,1,0,0,0,0,0,0,0,0,0,0,-0.5,-0.5,-0.5,-0.5,-0.5,-0.5,-0.5,-0.5,-0.5,-0.5,-0.5,linear,0.025,TRUE,100,FALSE,2,NA,NA,0,0.5,10,sepmodel,0.0253,4.405972445787205e-4,0.008131517219024588,0,10000
10,250,0,250,500,750,1000,1250,1500,1750,2000,2250,2,0,1,0,0,0,0,0,0,0,0,0,0,-0.5,-0.5,-0.5,-0.5,-0.5,-0.5,-0.5,-0.5,-0.5,-0.5,-0.5,linear,0.025,TRUE,100,FALSE,2,NA,NA,0,0.5,10,splines,0.0257,5.842494490027571e-4,0.006950851948042306,0,10000
10,250,0,250,500,750,1000,1250,1500,1750,2000,2250,2,0,1,0,0,0,0,0,0,0,0,0,0,-0.5,-0.5,-0.5,-0.5,-0.5,-0.5,-0.5,-0.5,-0.5,-0.5,-0.5,linear,0.025,TRUE,100,FALSE,2,NA,NA,0,0.5,10,splines_cal,0.0258,5.446963654156878e-4,0.006955946321290879,0,10000
10,250,0,250,500,750,1000,1250,1500,1750,2000,2250,2,0,1,0,0,0,0,0,0,0,0,0,0,-0.5,-0.5,-0.5,-0.5,-0.5,-0.5,-0.5,-0.5,-0.5,-0.5,-0.5,linear,0.025,TRUE,100,FALSE,3,NA,NA,0,0.5,2,fixmodel,0.0259,5.535981855761591e-4,0.007403683903818654,0,10000
10,250,0,250,500,750,1000,1250,1500,1750,2000,2250,2,0,1,0,0,0,0,0,0,0,0,0,0,-0.5,-0.5,-0.5,-0.5,-0.5,-0.5,-0.5,-0.5,-0.5,-0.5,-0.5,linear,0.025,TRUE,100,FALSE,3,NA,NA,0,0.5,2,sepmodel,0.0262,3.153013151919286e-4,0.008012047031924879,0,10000
10,250,0,250,500,750,1000,1250,1500,1750,2000,2250,2,0,1,0,0,0,0,0,0,0,0,0,0,-0.5,-0.5,-0.5,-0.5,-0.5,-0.5,-0.5,-0.5,-0.5,-0.5,-0.5,linear,0.025,TRUE,100,FALSE,3,NA,NA,0,0.5,2,splines,0.025,5.576809579556485e-4,0.007314460322053795,0,10000
10,250,0,250,500,750,1000,1250,1500,1750,2000,2250,2,0,1,0,0,0,0,0,0,0,0,0,0,-0.5,-0.5,-0.5,-0.5,-0.5,-0.5,-0.5,-0.5,-0.5,-0.5,-0.5,linear,0.025,TRUE,100,FALSE,3,NA,NA,0,0.5,2,splines_cal,0.0243,6.004238736126086e-4,0.007306165864067812,0,10000
10,250,0,250,500,750,1000,1250,1500,1750,2000,2250,2,0,1,0,0,0,0,0,0,0,0,0,0,-0.5,-0.5,-0.5,-0.5,-0.5,-0.5,-0.5,-0.5,-0.5,-0.5,-0.5,linear,0.025,TRUE,100,FALSE,3,NA,NA,0,0.5,3,fixmodel,0.024,-0.001008479595564221,0.007223585694704537,0,10000
10,250,0,250,500,750,1000,1250,1500,1750,2000,2250,2,0,1,0,0,0,0,0,0,0,0,0,0,-0.5,-0.5,-0.5,-0.5,-0.5,-0.5,-0.5,-0.5,-0.5,-0.5,-0.5,linear,0.025,TRUE,100,FALSE,3,NA,NA,0,0.5,3,sepmodel,0.0245,-9.835389718969969e-4,0.00803075544036009,0,10000
10,250,0,250,500,750,1000,1250,1500,1750,2000,2250,2,0,1,0,0,0,0,0,0,0,0,0,0,-0.5,-0.5,-0.5,-0.5,-0.5,-0.5,-0.5,-0.5,-0.5,-0.5,-0.5,linear,0.025,TRUE,100,FALSE,3,NA,NA,0,0.5,3,splines,0.0243,-0.0010420357688052733,0.007181870882069217,0,10000
10,250,0,250,500,750,1000,1250,1500,1750,2000,2250,2,0,1,0,0,0,0,0,0,0,0,0,0,-0.5,-0.5,-0.5,-0.5,-0.5,-0.5,-0.5,-0.5,-0.5,-0.5,-0.5,linear,0.025,TRUE,100,FALSE,3,NA,NA,0,0.5,3,splines_cal,0.0245,-0.0010314721873450378,0.00718080537605689,0,10000
10,250,0,250,500,750,1000,1250,1500,1750,2000,2250,2,0,1,0,0,0,0,0,0,0,0,0,0,-0.5,-0.5,-0.5,-0.5,-0.5,-0.5,-0.5,-0.5,-0.5,-0.5,-0.5,linear,0.025,TRUE,100,FALSE,3,NA,NA,0,0.5,4,fixmodel,0.0263,-8.574097612617859e-4,0.007327229817412552,0,10000
10,250,0,250,500,750,1000,1250,1500,1750,2000,2250,2,0,1,0,0,0,0,0,0,0,0,0,0,-0.5,-0.5,-0.5,-0.5,-0.5,-0.5,-0.5,-0.5,-0.5,-0.5,-0.5,linear,0.025,TRUE,100,FALSE,3,NA,NA,0,0.5,4,sepmodel,0.0272,-7.968494344407037e-4,0.008107227007140588,0,10000
10,250,0,250,500,750,1000,1250,1500,1750,2000,2250,2,0,1,0,0,0,0,0,0,0,0,0,0,-0.5,-0.5,-0.5,-0.5,-0.5,-0.5,-0.5,-0.5,-0.5,-0.5,-0.5,linear,0.025,TRUE,100,FALSE,3,NA,NA,0,0.5,4,splines,0.0266,-8.312269408160004e-4,0.0072955663533601596,0,10000
10,250,0,250,500,750,1000,1250,1500,1750,2000,2250,2,0,1,0,0,0,0,0,0,0,0,0,0,-0.5,-0.5,-0.5,-0.5,-0.5,-0.5,-0.5,-0.5,-0.5,-0.5,-0.5,linear,0.025,TRUE,100,FALSE,3,NA,NA,0,0.5,4,splines_cal,0.0256,-8.220037214095191e-4,0.007232918742029542,0,10000
10,250,0,250,500,750,1000,1250,1500,1750,2000,2250,2,0,1,0,0,0,0,0,0,0,0,0,0,-0.5,-0.5,-0.5,-0.5,-0.5,-0.5,-0.5,-0.5,-0.5,-0.5,-0.5,linear,0.025,TRUE,100,FALSE,3,NA,NA,0,0.5,5,fixmodel,0.0268,2.9583982189427552e-5,0.0071476302184509625,0,10000
10,250,0,250,500,750,1000,1250,1500,1750,2000,2250,2,0,1,0,0,0,0,0,0,0,0,0,0,-0.5,-0.5,-0.5,-0.5,-0.5,-0.5,-0.5,-0.5,-0.5,-0.5,-0.5,linear,0.025,TRUE,100,FALSE,3,NA,NA,0,0.5,5,sepmodel,0.0249,1.9633386085074003e-5,0.008063758766487131,0,10000
10,250,0,250,500,750,1000,1250,1500,1750,2000,2250,2,0,1,0,0,0,0,0,0,0,0,0,0,-0.5,-0.5,-0.5,-0.5,-0.5,-0.5,-0.5,-0.5,-0.5,-0.5,-0.5,linear,0.025,TRUE,100,FALSE,3,NA,NA,0,0.5,5,splines,0.0263,1.713865084601935e-5,0.007119654588625642,0,10000
10,250,0,250,500,750,1000,1250,1500,1750,2000,2250,2,0,1,0,0,0,0,0,0,0,0,0,0,-0.5,-0.5,-0.5,-0.5,-0.5,-0.5,-0.5,-0.5,-0.5,-0.5,-0.5,linear,0.025,TRUE,100,FALSE,3,NA,NA,0,0.5,5,splines_cal,0.0275,3.872953815307141e-5,0.007083528426865386,0,10000
10,250,0,250,500,750,1000,1250,1500,1750,2000,2250,2,0,1,0,0,0,0,0,0,0,0,0,0,-0.5,-0.5,-0.5,-0.5,-0.5,-0.5,-0.5,-0.5,-0.5,-0.5,-0.5,linear,0.025,TRUE,100,FALSE,3,NA,NA,0,0.5,6,fixmodel,0.0261,-4.395195662366708e-6,0.0070846297234906375,0,10000
10,250,0,250,500,750,1000,1250,1500,1750,2000,2250,2,0,1,0,0,0,0,0,0,0,0,0,0,-0.5,-0.5,-0.5,-0.5,-0.5,-0.5,-0.5,-0.5,-0.5,-0.5,-0.5,linear,0.025,TRUE,100,FALSE,3,NA,NA,0,0.5,6,sepmodel,0.0268,2.61281257618655e-4,0.008050674257753252,0,10000
10,250,0,250,500,750,1000,1250,1500,1750,2000,2250,2,0,1,0,0,0,0,0,0,0,0,0,0,-0.5,-0.5,-0.5,-0.5,-0.5,-0.5,-0.5,-0.5,-0.5,-0.5,-0.5,linear,0.025,TRUE,100,FALSE,3,NA,NA,0,0.5,6,splines,0.0262,-3.2088014842251595e-5,0.0070556871082114,0,10000
10,250,0,250,500,750,1000,1250,1500,1750,2000,2250,2,0,1,0,0,0,0,0,0,0,0,0,0,-0.5,-0.5,-0.5,-0.5,-0.5,-0.5,-0.5,-0.5,-0.5,-0.5,-0.5,linear,0.025,TRUE,100,FALSE,3,NA,NA,0,0.5,6,splines_cal,0.0255,-4.0133367285918486e-5,0.007030533672474506,0,10000
10,250,0,250,500,750,1000,1250,1500,1750,2000,2250,2,0,1,0,0,0,0,0,0,0,0,0,0,-0.5,-0.5,-0.5,-0.5,-0.5,-0.5,-0.5,-0.5,-0.5,-0.5,-0.5,linear,0.025,TRUE,100,FALSE,3,NA,NA,0,0.5,7,fixmodel,0.0247,-1.0051088606040252e-4,0.006963167726323564,0,10000
10,250,0,250,500,750,1000,1250,1500,1750,2000,2250,2,0,1,0,0,0,0,0,0,0,0,0,0,-0.5,-0.5,-0.5,-0.5,-0.5,-0.5,-0.5,-0.5,-0.5,-0.5,-0.5,linear,0.025,TRUE,100,FALSE,3,NA,NA,0,0.5,7,sepmodel,0.0229,9.75708239436729e-5,0.007994686787326084,0,10000
10,250,0,250,500,750,1000,1250,1500,1750,2000,2250,2,0,1,0,0,0,0,0,0,0,0,0,0,-0.5,-0.5,-0.5,-0.5,-0.5,-0.5,-0.5,-0.5,-0.5,-0.5,-0.5,linear,0.025,TRUE,100,FALSE,3,NA,NA,0,0.5,7,splines,0.0255,-7.776175528219516e-5,0.006961022606253314,0,10000
10,250,0,250,500,750,1000,1250,1500,1750,2000,2250,2,0,1,0,0,0,0,0,0,0,0,0,0,-0.5,-0.5,-0.5,-0.5,-0.5,-0.5,-0.5,-0.5,-0.5,-0.5,-0.5,linear,0.025,TRUE,100,FALSE,3,NA,NA,0,0.5,7,splines_cal,0.0248,-1.4617744877882098e-4,0.006805109530898497,0,10000
10,250,0,250,500,750,1000,1250,1500,1750,2000,2250,2,0,1,0,0,0,0,0,0,0,0,0,0,-0.5,-0.5,-0.5,-0.5,-0.5,-0.5,-0.5,-0.5,-0.5,-0.5,-0.5,linear,0.025,TRUE,100,FALSE,3,NA,NA,0,0.5,8,fixmodel,0.0275,5.677561808398933e-4,0.006989167539609793,0,10000
10,250,0,250,500,750,1000,1250,1500,1750,2000,2250,2,0,1,0,0,0,0,0,0,0,0,0,0,-0.5,-0.5,-0.5,-0.5,-0.5,-0.5,-0.5,-0.5,-0.5,-0.5,-0.5,linear,0.025,TRUE,100,FALSE,3,NA,NA,0,0.5,8,sepmodel,0.026,5.442638801648987e-4,0.008062915468718741,0,10000
10,250,0,250,500,750,1000,1250,1500,1750,2000,2250,2,0,1,0,0,0,0,0,0,0,0,0,0,-0.5,-0.5,-0.5,-0.5,-0.5,-0.5,-0.5,-0.5,-0.5,-0.5,-0.5,linear,0.025,TRUE,100,FALSE,3,NA,NA,0,0.5,8,splines,0.0273,6.089435867827898e-4,0.0069760114767638375,0,10000
10,250,0,250,500,750,1000,1250,1500,1750,2000,2250,2,0,1,0,0,0,0,0,0,0,0,0,0,-0.5,-0.5,-0.5,-0.5,-0.5,-0.5,-0.5,-0.5,-0.5,-0.5,-0.5,linear,0.025,TRUE,100,FALSE,3,NA,NA,0,0.5,8,splines_cal,0.0268,5.59879077056296e-4,0.006819679156685276,0,10000
10,250,0,250,500,750,1000,1250,1500,1750,2000,2250,2,0,1,0,0,0,0,0,0,0,0,0,0,-0.5,-0.5,-0.5,-0.5,-0.5,-0.5,-0.5,-0.5,-0.5,-0.5,-0.5,linear,0.025,TRUE,100,FALSE,3,NA,NA,0,0.5,9,fixmodel,0.0261,4.324745658005354e-4,0.0069467158348817315,0,10000
10,250,0,250,500,750,1000,1250,1500,1750,2000,2250,2,0,1,0,0,0,0,0,0,0,0,0,0,-0.5,-0.5,-0.5,-0.5,-0.5,-0.5,-0.5,-0.5,-0.5,-0.5,-0.5,linear,0.025,TRUE,100,FALSE,3,NA,NA,0,0.5,9,sepmodel,0.0257,4.8237151093289695e-4,0.008031550939144063,0,10000
10,250,0,250,500,750,1000,1250,1500,1750,2000,2250,2,0,1,0,0,0,0,0,0,0,0,0,0,-0.5,-0.5,-0.5,-0.5,-0.5,-0.5,-0.5,-0.5,-0.5,-0.5,-0.5,linear,0.025,TRUE,100,FALSE,3,NA,NA,0,0.5,9,splines,0.0262,4.435687820486654e-4,0.00692557032799802,0,10000
10,250,0,250,500,750,1000,1250,1500,1750,2000,2250,2,0,1,0,0,0,0,0,0,0,0,0,0,-0.5,-0.5,-0.5,-0.5,-0.5,-0.5,-0.5,-0.5,-0.5,-0.5,-0.5,linear,0.025,TRUE,100,FALSE,3,NA,NA,0,0.5,9,splines_cal,0.0247,4.8286358231401134e-4,0.006823219964552689,0,10000
10,250,0,250,500,750,1000,1250,1500,1750,2000,2250,2,0,1,0,0,0,0,0,0,0,0,0,0,-0.5,-0.5,-0.5,-0.5,-0.5,-0.5,-0.5,-0.5,-0.5,-0.5,-0.5,linear,0.025,TRUE,100,FALSE,3,NA,NA,0,0.5,10,fixmodel,0.0264,-1.5644856026218612e-4,0.0069513238408955595,0,10000
10,250,0,250,500,750,1000,1250,1500,1750,2000,2250,2,0,1,0,0,0,0,0,0,0,0,0,0,-0.5,-0.5,-0.5,-0.5,-0.5,-0.5,-0.5,-0.5,-0.5,-0.5,-0.5,linear,0.025,TRUE,100,FALSE,3,NA,NA,0,0.5,10,sepmodel,0.0268,-1.7246007533945062e-4,0.008111791690673827,0,10000
10,250,0,250,500,750,1000,1250,1500,1750,2000,2250,2,0,1,0,0,0,0,0,0,0,0,0,0,-0.5,-0.5,-0.5,-0.5,-0.5,-0.5,-0.5,-0.5,-0.5,-0.5,-0.5,linear,0.025,TRUE,100,FALSE,3,NA,NA,0,0.5,10,splines,0.0263,-1.511808927392073e-4,0.006929274070036484,0,10000
10,250,0,250,500,750,1000,1250,1500,1750,2000,2250,2,0,1,0,0,0,0,0,0,0,0,0,0,-0.5,-0.5,-0.5,-0.5,-0.5,-0.5,-0.5,-0.5,-0.5,-0.5,-0.5,linear,0.025,TRUE,100,FALSE,3,NA,NA,0,0.5,10,splines_cal,0.0263,-1.361421371949927e-4,0.006942845212252297,0,10000
10,250,0,250,500,750,1000,1250,1500,1750,2000,2250,2,0,1,0,0,0,0,0,0,0,0,0,0,-0.375,-0.375,-0.375,-0.375,-0.375,-0.375,-0.375,-0.375,-0.375,-0.375,-0.375,linear,0.025,TRUE,25,FALSE,1,NA,NA,0,0.5,2,fixmodel,0.0255,-9.74643282267135e-5,0.007552085546992183,0,10000
10,250,0,250,500,750,1000,1250,1500,1750,2000,2250,2,0,1,0,0,0,0,0,0,0,0,0,0,-0.375,-0.375,-0.375,-0.375,-0.375,-0.375,-0.375,-0.375,-0.375,-0.375,-0.375,linear,0.025,TRUE,25,FALSE,1,NA,NA,0,0.5,2,sepmodel,0.0255,1.9341600894533372e-4,0.008104787636693353,0,10000
10,250,0,250,500,750,1000,1250,1500,1750,2000,2250,2,0,1,0,0,0,0,0,0,0,0,0,0,-0.375,-0.375,-0.375,-0.375,-0.375,-0.375,-0.375,-0.375,-0.375,-0.375,-0.375,linear,0.025,TRUE,25,FALSE,1,NA,NA,0,0.5,2,splines,0.0262,-2.965177132940661e-4,0.007400826262379383,0,10000
10,250,0,250,500,750,1000,1250,1500,1750,2000,2250,2,0,1,0,0,0,0,0,0,0,0,0,0,-0.375,-0.375,-0.375,-0.375,-0.375,-0.375,-0.375,-0.375,-0.375,-0.375,-0.375,linear,0.025,TRUE,25,FALSE,1,NA,NA,0,0.5,2,splines_cal,0.0257,-3.036563117649515e-5,0.0075401028153049485,0,10000
10,250,0,250,500,750,1000,1250,1500,1750,2000,2250,2,0,1,0,0,0,0,0,0,0,0,0,0,-0.375,-0.375,-0.375,-0.375,-0.375,-0.375,-0.375,-0.375,-0.375,-0.375,-0.375,linear,0.025,TRUE,25,FALSE,1,NA,NA,0,0.5,3,fixmodel,0.0228,-1.877856139235198e-4,0.007169527484253118,0,10000
10,250,0,250,500,750,1000,1250,1500,1750,2000,2250,2,0,1,0,0,0,0,0,0,0,0,0,0,-0.375,-0.375,-0.375,-0.375,-0.375,-0.375,-0.375,-0.375,-0.375,-0.375,-0.375,linear,0.025,TRUE,25,FALSE,1,NA,NA,0,0.5,3,sepmodel,0.0237,3.813346741360646e-4,0.007904360914230012,0,10000
10,250,0,250,500,750,1000,1250,1500,1750,2000,2250,2,0,1,0,0,0,0,0,0,0,0,0,0,-0.375,-0.375,-0.375,-0.375,-0.375,-0.375,-0.375,-0.375,-0.375,-0.375,-0.375,linear,0.025,TRUE,25,FALSE,1,NA,NA,0,0.5,3,splines,0.0221,-1.606003027821517e-4,0.007092096864468157,0,10000
10,250,0,250,500,750,1000,1250,1500,1750,2000,2250,2,0,1,0,0,0,0,0,0,0,0,0,0,-0.375,-0.375,-0.375,-0.375,-0.375,-0.375,-0.375,-0.375,-0.375,-0.375,-0.375,linear,0.025,TRUE,25,FALSE,1,NA,NA,0,0.5,3,splines_cal,0.023,-6.502854244293024e-5,0.0071452243414533954,0,10000
10,250,0,250,500,750,1000,1250,1500,1750,2000,2250,2,0,1,0,0,0,0,0,0,0,0,0,0,-0.375,-0.375,-0.375,-0.375,-0.375,-0.375,-0.375,-0.375,-0.375,-0.375,-0.375,linear,0.025,TRUE,25,FALSE,1,NA,NA,0,0.5,4,fixmodel,0.0245,1.661230996386647e-4,0.0071196682103936435,0,10000
10,250,0,250,500,750,1000,1250,1500,1750,2000,2250,2,0,1,0,0,0,0,0,0,0,0,0,0,-0.375,-0.375,-0.375,-0.375,-0.375,-0.375,-0.375,-0.375,-0.375,-0.375,-0.375,linear,0.025,TRUE,25,FALSE,1,NA,NA,0,0.5,4,sepmodel,0.0246,5.971282916804958e-4,0.007903079972982327,0,10000
10,250,0,250,500,750,1000,1250,1500,1750,2000,2250,2,0,1,0,0,0,0,0,0,0,0,0,0,-0.375,-0.375,-0.375,-0.375,-0.375,-0.375,-0.375,-0.375,-0.375,-0.375,-0.375,linear,0.025,TRUE,25,FALSE,1,NA,NA,0,0.5,4,splines,0.0237,1.4492676103803904e-4,0.007053205674140504,0,10000
10,250,0,250,500,750,1000,1250,1500,1750,2000,2250,2,0,1,0,0,0,0,0,0,0,0,0,0,-0.375,-0.375,-0.375,-0.375,-0.375,-0.375,-0.375,-0.375,-0.375,-0.375,-0.375,linear,0.025,TRUE,25,FALSE,1,NA,NA,0,0.5,4,splines_cal,0.025,1.5551774777551624e-4,0.007106471034176555,0,10000
10,250,0,250,500,750,1000,1250,1500,1750,2000,2250,2,0,1,0,0,0,0,0,0,0,0,0,0,-0.375,-0.375,-0.375,-0.375,-0.375,-0.375,-0.375,-0.375,-0.375,-0.375,-0.375,linear,0.025,TRUE,25,FALSE,1,NA,NA,0,0.5,5,fixmodel,0.0248,-5.048849055466739e-4,0.006894679118630288,0,10000
10,250,0,250,500,750,1000,1250,1500,1750,2000,2250,2,0,1,0,0,0,0,0,0,0,0,0,0,-0.375,-0.375,-0.375,-0.375,-0.375,-0.375,-0.375,-0.375,-0.375,-0.375,-0.375,linear,0.025,TRUE,25,FALSE,1,NA,NA,0,0.5,5,sepmodel,0.0233,-4.0553244802468273e-4,0.007855259847094927,0,10000
10,250,0,250,500,750,1000,1250,1500,1750,2000,2250,2,0,1,0,0,0,0,0,0,0,0,0,0,-0.375,-0.375,-0.375,-0.375,-0.375,-0.375,-0.375,-0.375,-0.375,-0.375,-0.375,linear,0.025,TRUE,25,FALSE,1,NA,NA,0,0.5,5,splines,0.0246,-5.736356738544589e-4,0.006863724633059218,0,10000
10,250,0,250,500,750,1000,1250,1500,1750,2000,2250,2,0,1,0,0,0,0,0,0,0,0,0,0,-0.375,-0.375,-0.375,-0.375,-0.375,-0.375,-0.375,-0.375,-0.375,-0.375,-0.375,linear,0.025,TRUE,25,FALSE,1,NA,NA,0,0.5,5,splines_cal,0.0244,-3.954767483194116e-4,0.006900495466272763,0,10000
10,250,0,250,500,750,1000,1250,1500,1750,2000,2250,2,0,1,0,0,0,0,0,0,0,0,0,0,-0.375,-0.375,-0.375,-0.375,-0.375,-0.375,-0.375,-0.375,-0.375,-0.375,-0.375,linear,0.025,TRUE,25,FALSE,1,NA,NA,0,0.5,6,fixmodel,0.0256,0.0012673244762205597,0.006969677116387437,0,10000
10,250,0,250,500,750,1000,1250,1500,1750,2000,2250,2,0,1,0,0,0,0,0,0,0,0,0,0,-0.375,-0.375,-0.375,-0.375,-0.375,-0.375,-0.375,-0.375,-0.375,-0.375,-0.375,linear,0.025,TRUE,25,FALSE,1,NA,NA,0,0.5,6,sepmodel,0.0243,5.81578809659533e-4,0.007896236340577475,0,10000
10,250,0,250,500,750,1000,1250,1500,1750,2000,2250,2,0,1,0,0,0,0,0,0,0,0,0,0,-0.375,-0.375,-0.375,-0.375,-0.375,-0.375,-0.375,-0.375,-0.375,-0.375,-0.375,linear,0.025,TRUE,25,FALSE,1,NA,NA,0,0.5,6,splines,0.0263,0.0011350438491040122,0.006943286481263838,0,10000
10,250,0,250,500,750,1000,1250,1500,1750,2000,2250,2,0,1,0,0,0,0,0,0,0,0,0,0,-0.375,-0.375,-0.375,-0.375,-0.375,-0.375,-0.375,-0.375,-0.375,-0.375,-0.375,linear,0.025,TRUE,25,FALSE,1,NA,NA,0,0.5,6,splines_cal,0.0259,0.0013584738154887362,0.006990497273316136,0,10000
10,250,0,250,500,750,1000,1250,1500,1750,2000,2250,2,0,1,0,0,0,0,0,0,0,0,0,0,-0.375,-0.375,-0.375,-0.375,-0.375,-0.375,-0.375,-0.375,-0.375,-0.375,-0.375,linear,0.025,TRUE,25,FALSE,1,NA,NA,0,0.5,7,fixmodel,0.0245,3.400100646728049e-4,0.006893955560328544,0,10000
10,250,0,250,500,750,1000,1250,1500,1750,2000,2250,2,0,1,0,0,0,0,0,0,0,0,0,0,-0.375,-0.375,-0.375,-0.375,-0.375,-0.375,-0.375,-0.375,-0.375,-0.375,-0.375,linear,0.025,TRUE,25,FALSE,1,NA,NA,0,0.5,7,sepmodel,0.0249,-2.8085654291475413e-5,0.007929289899538398,0,10000
10,250,0,250,500,750,1000,1250,1500,1750,2000,2250,2,0,1,0,0,0,0,0,0,0,0,0,0,-0.375,-0.375,-0.375,-0.375,-0.375,-0.375,-0.375,-0.375,-0.375,-0.375,-0.375,linear,0.025,TRUE,25,FALSE,1,NA,NA,0,0.5,7,splines,0.0246,3.362996207994973e-4,0.006879562899494751,0,10000
10,250,0,250,500,750,1000,1250,1500,1750,2000,2250,2,0,1,0,0,0,0,0,0,0,0,0,0,-0.375,-0.375,-0.375,-0.375,-0.375,-0.375,-0.375,-0.375,-0.375,-0.375,-0.375,linear,0.025,TRUE,25,FALSE,1,NA,NA,0,0.5,7,splines_cal,0.0247,4.4975164477296627e-4,0.006918874394659885,0,10000
10,250,0,250,500,750,1000,1250,1500,1750,2000,2250,2,0,1,0,0,0,0,0,0,0,0,0,0,-0.375,-0.375,-0.375,-0.375,-0.375,-0.375,-0.375,-0.375,-0.375,-0.375,-0.375,linear,0.025,TRUE,25,FALSE,1,NA,NA,0,0.5,8,fixmodel,0.0239,-9.752742265858817e-5,0.006797412969245148,0,10000
10,250,0,250,500,750,1000,1250,1500,1750,2000,2250,2,0,1,0,0,0,0,0,0,0,0,0,0,-0.375,-0.375,-0.375,-0.375,-0.375,-0.375,-0.375,-0.375,-0.375,-0.375,-0.375,linear,0.025,TRUE,25,FALSE,1,NA,NA,0,0.5,8,sepmodel,0.024,-7.901046441193228e-4,0.007858203434633898,0,10000
10,250,0,250,500,750,1000,1250,1500,1750,2000,2250,2,0,1,0,0,0,0,0,0,0,0,0,0,-0.375,-0.375,-0.375,-0.375,-0.375,-0.375,-0.375,-0.375,-0.375,-0.375,-0.375,linear,0.025,TRUE,25,FALSE,1,NA,NA,0,0.5,8,splines,0.0238,-1.8969319244247344e-4,0.006780418156546146,0,10000
10,250,0,250,500,750,1000,1250,1500,1750,2000,2250,2,0,1,0,0,0,0,0,0,0,0,0,0,-0.375,-0.375,-0.375,-0.375,-0.375,-0.375,-0.375,-0.375,-0.375,-0.375,-0.375,linear,0.025,TRUE,25,FALSE,1,NA,NA,0,0.5,8,splines_cal,0.0245,-3.8064512919578345e-5,0.00679176274796434,0,10000
10,250,0,250,500,750,1000,1250,1500,1750,2000,2250,2,0,1,0,0,0,0,0,0,0,0,0,0,-0.375,-0.375,-0.375,-0.375,-0.375,-0.375,-0.375,-0.375,-0.375,-0.375,-0.375,linear,0.025,TRUE,25,FALSE,1,NA,NA,0,0.5,9,fixmodel,0.0242,6.210552978705477e-4,0.006816081967216374,0,10000
10,250,0,250,500,750,1000,1250,1500,1750,2000,2250,2,0,1,0,0,0,0,0,0,0,0,0,0,-0.375,-0.375,-0.375,-0.375,-0.375,-0.375,-0.375,-0.375,-0.375,-0.375,-0.375,linear,0.025,TRUE,25,FALSE,1,NA,NA,0,0.5,9,sepmodel,0.0245,7.931686235063426e-5,0.007914374248289797,0,10000
10,250,0,250,500,750,1000,1250,1500,1750,2000,2250,2,0,1,0,0,0,0,0,0,0,0,0,0,-0.375,-0.375,-0.375,-0.375,-0.375,-0.375,-0.375,-0.375,-0.375,-0.375,-0.375,linear,0.025,TRUE,25,FALSE,1,NA,NA,0,0.5,9,splines,0.025,5.624578888993546e-4,0.006806029036547521,0,10000
10,250,0,250,500,750,1000,1250,1500,1750,2000,2250,2,0,1,0,0,0,0,0,0,0,0,0,0,-0.375,-0.375,-0.375,-0.375,-0.375,-0.375,-0.375,-0.375,-0.375,-0.375,-0.375,linear,0.025,TRUE,25,FALSE,1,NA,NA,0,0.5,9,splines_cal,0.0239,6.319777940405826e-4,0.006817854502179428,0,10000
10,250,0,250,500,750,1000,1250,1500,1750,2000,2250,2,0,1,0,0,0,0,0,0,0,0,0,0,-0.375,-0.375,-0.375,-0.375,-0.375,-0.375,-0.375,-0.375,-0.375,-0.375,-0.375,linear,0.025,TRUE,25,FALSE,1,NA,NA,0,0.5,10,fixmodel,0.0249,-0.0011266444411283235,0.006746212886766687,0,10000
10,250,0,250,500,750,1000,1250,1500,1750,2000,2250,2,0,1,0,0,0,0,0,0,0,0,0,0,-0.375,-0.375,-0.375,-0.375,-0.375,-0.375,-0.375,-0.375,-0.375,-0.375,-0.375,linear,0.025,TRUE,25,FALSE,1,NA,NA,0,0.5,10,sepmodel,0.0242,-0.0016074344664599905,0.007877110954484092,0,10000
10,250,0,250,500,750,1000,1250,1500,1750,2000,2250,2,0,1,0,0,0,0,0,0,0,0,0,0,-0.375,-0.375,-0.375,-0.375,-0.375,-0.375,-0.375,-0.375,-0.375,-0.375,-0.375,linear,0.025,TRUE,25,FALSE,1,NA,NA,0,0.5,10,splines,0.0247,-0.0010725599657641885,0.006719440372472271,0,10000
10,250,0,250,500,750,1000,1250,1500,1750,2000,2250,2,0,1,0,0,0,0,0,0,0,0,0,0,-0.375,-0.375,-0.375,-0.375,-0.375,-0.375,-0.375,-0.375,-0.375,-0.375,-0.375,linear,0.025,TRUE,25,FALSE,1,NA,NA,0,0.5,10,splines_cal,0.0261,-9.920753635907491e-4,0.006759124730715336,0,10000
10,250,0,250,500,750,1000,1250,1500,1750,2000,2250,2,0,1,0,0,0,0,0,0,0,0,0,0,-0.375,-0.375,-0.375,-0.375,-0.375,-0.375,-0.375,-0.375,-0.375,-0.375,-0.375,linear,0.025,TRUE,25,FALSE,2,NA,NA,0,0.5,2,fixmodel,0.026,4.5175525036182684e-4,0.007399213165166736,0,10000
10,250,0,250,500,750,1000,1250,1500,1750,2000,2250,2,0,1,0,0,0,0,0,0,0,0,0,0,-0.375,-0.375,-0.375,-0.375,-0.375,-0.375,-0.375,-0.375,-0.375,-0.375,-0.375,linear,0.025,TRUE,25,FALSE,2,NA,NA,0,0.5,2,sepmodel,0.0277,7.336120123288887e-4,0.0080201495694026,0,10000
10,250,0,250,500,750,1000,1250,1500,1750,2000,2250,2,0,1,0,0,0,0,0,0,0,0,0,0,-0.375,-0.375,-0.375,-0.375,-0.375,-0.375,-0.375,-0.375,-0.375,-0.375,-0.375,linear,0.025,TRUE,25,FALSE,2,NA,NA,0,0.5,2,splines,0.026,5.287076046728867e-4,0.0073383958862533755,0,10000
10,250,0,250,500,750,1000,1250,1500,1750,2000,2250,2,0,1,0,0,0,0,0,0,0,0,0,0,-0.375,-0.375,-0.375,-0.375,-0.375,-0.375,-0.375,-0.375,-0.375,-0.375,-0.375,linear,0.025,TRUE,25,FALSE,2,NA,NA,0,0.5,2,splines_cal,0.0257,3.766057459227886e-4,0.007382470638159984,0,10000
10,250,0,250,500,750,1000,1250,1500,1750,2000,2250,2,0,1,0,0,0,0,0,0,0,0,0,0,-0.375,-0.375,-0.375,-0.375,-0.375,-0.375,-0.375,-0.375,-0.375,-0.375,-0.375,linear,0.025,TRUE,25,FALSE,2,NA,NA,0,0.5,3,fixmodel,0.0257,-1.3946634771941912e-5,0.007418412495746322,0,10000
10,250,0,250,500,750,1000,1250,1500,1750,2000,2250,2,0,1,0,0,0,0,0,0,0,0,0,0,-0.375,-0.375,-0.375,-0.375,-0.375,-0.375,-0.375,-0.375,-0.375,-0.375,-0.375,linear,0.025,TRUE,25,FALSE,2,NA,NA,0,0.5,3,sepmodel,0.0273,7.081124305799548e-5,0.008126125987839884,0,10000
10,250,0,250,500,750,1000,1250,1500,1750,2000,2250,2,0,1,0,0,0,0,0,0,0,0,0,0,-0.375,-0.375,-0.375,-0.375,-0.375,-0.375,-0.375,-0.375,-0.375,-0.375,-0.375,linear,0.025,TRUE,25,FALSE,2,NA,NA,0,0.5,3,splines,0.0256,4.604521081689357e-5,0.007357227362750253,0,10000
10,250,0,250,500,750,1000,1250,1500,1750,2000,2250,2,0,1,0,0,0,0,0,0,0,0,0,0,-0.375,-0.375,-0.375,-0.375,-0.375,-0.375,-0.375,-0.375,-0.375,-0.375,-0.375,linear,0.025,TRUE,25,FALSE,2,NA,NA,0,0.5,3,splines_cal,0.0259,-1.0092752819737027e-4,0.007398791323506073,0,10000
10,250,0,250,500,750,1000,1250,1500,1750,2000,2250,2,0,1,0,0,0,0,0,0,0,0,0,0,-0.375,-0.375,-0.375,-0.375,-0.375,-0.375,-0.375,-0.375,-0.375,-0.375,-0.375,linear,0.025,TRUE,25,FALSE,2,NA,NA,0,0.5,4,fixmodel,0.0241,4.1117508802890915e-4,0.007162150524062705,0,10000
10,250,0,250,500,750,1000,1250,1500,1750,2000,2250,2,0,1,0,0,0,0,0,0,0,0,0,0,-0.375,-0.375,-0.375,-0.375,-0.375,-0.375,-0.375,-0.375,-0.375,-0.375,-0.375,linear,0.025,TRUE,25,FALSE,2,NA,NA,0,0.5,4,sepmodel,0.0225,5.606375214123557e-4,0.007889735048641577,0,10000
10,250,0,250,500,750,1000,1250,1500,1750,2000,2250,2,0,1,0,0,0,0,0,0,0,0,0,0,-0.375,-0.375,-0.375,-0.375,-0.375,-0.375,-0.375,-0.375,-0.375,-0.375,-0.375,linear,0.025,TRUE,25,FALSE,2,NA,NA,0,0.5,4,splines,0.0237,3.3689050417449567e-4,0.007122704285702828,0,10000
10,250,0,250,500,750,1000,1250,1500,1750,2000,2250,2,0,1,0,0,0,0,0,0,0,0,0,0,-0.375,-0.375,-0.375,-0.375,-0.375,-0.375,-0.375,-0.375,-0.375,-0.375,-0.375,linear,0.025,TRUE,25,FALSE,2,NA,NA,0,0.5,4,splines_cal,0.0243,3.8305878296512224e-4,0.007157026891498367,0,10000
10,250,0,250,500,750,1000,1250,1500,1750,2000,2250,2,0,1,0,0,0,0,0,0,0,0,0,0,-0.375,-0.375,-0.375,-0.375,-0.375,-0.375,-0.375,-0.375,-0.375,-0.375,-0.375,linear,0.025,TRUE,25,FALSE,2,NA,NA,0,0.5,5,fixmodel,0.0282,-3.103732157598869e-4,0.007249825487395685,0,10000
10,250,0,250,500,750,1000,1250,1500,1750,2000,2250,2,0,1,0,0,0,0,0,0,0,0,0,0,-0.375,-0.375,-0.375,-0.375,-0.375,-0.375,-0.375,-0.375,-0.375,-0.375,-0.375,linear,0.025,TRUE,25,FALSE,2,NA,NA,0,0.5,5,sepmodel,0.0272,-6.07539413159132e-5,0.0081335321564652,0,10000
10,250,0,250,500,750,1000,1250,1500,1750,2000,2250,2,0,1,0,0,0,0,0,0,0,0,0,0,-0.375,-0.375,-0.375,-0.375,-0.375,-0.375,-0.375,-0.375,-0.375,-0.375,-0.375,linear,0.025,TRUE,25,FALSE,2,NA,NA,0,0.5,5,splines,0.0288,-3.637995976988766e-4,0.007218163262898554,0,10000
10,250,0,250,500,750,1000,1250,1500,1750,2000,2250,2,0,1,0,0,0,0,0,0,0,0,0,0,-0.375,-0.375,-0.375,-0.375,-0.375,-0.375,-0.375,-0.375,-0.375,-0.375,-0.375,linear,0.025,TRUE,25,FALSE,2,NA,NA,0,0.5,5,splines_cal,0.0276,-3.3674812896999164e-4,0.0072558232212848565,0,10000
10,250,0,250,500,750,1000,1250,1500,1750,2000,2250,2,0,1,0,0,0,0,0,0,0,0,0,0,-0.375,-0.375,-0.375,-0.375,-0.375,-0.375,-0.375,-0.375,-0.375,-0.375,-0.375,linear,0.025,TRUE,25,FALSE,2,NA,NA,0,0.5,6,fixmodel,0.0253,3.8841468369396566e-4,0.007158684663384333,0,10000
10,250,0,250,500,750,1000,1250,1500,1750,2000,2250,2,0,1,0,0,0,0,0,0,0,0,0,0,-0.375,-0.375,-0.375,-0.375,-0.375,-0.375,-0.375,-0.375,-0.375,-0.375,-0.375,linear,0.025,TRUE,25,FALSE,2,NA,NA,0,0.5,6,sepmodel,0.0253,5.638751676350492e-4,0.00809349639870277,0,10000
10,250,0,250,500,750,1000,1250,1500,1750,2000,2250,2,0,1,0,0,0,0,0,0,0,0,0,0,-0.375,-0.375,-0.375,-0.375,-0.375,-0.375,-0.375,-0.375,-0.375,-0.375,-0.375,linear,0.025,TRUE,25,FALSE,2,NA,NA,0,0.5,6,splines,0.0251,3.4992811544985053e-4,0.007123572361701672,0,10000
10,250,0,250,500,750,1000,1250,1500,1750,2000,2250,2,0,1,0,0,0,0,0,0,0,0,0,0,-0.375,-0.375,-0.375,-0.375,-0.375,-0.375,-0.375,-0.375,-0.375,-0.375,-0.375,linear,0.025,TRUE,25,FALSE,2,NA,NA,0,0.5,6,splines_cal,0.0247,3.279342874376286e-4,0.007177096210085853,0,10000
10,250,0,250,500,750,1000,1250,1500,1750,2000,2250,2,0,1,0,0,0,0,0,0,0,0,0,0,-0.375,-0.375,-0.375,-0.375,-0.375,-0.375,-0.375,-0.375,-0.375,-0.375,-0.375,linear,0.025,TRUE,25,FALSE,2,NA,NA,0,0.5,7,fixmodel,0.0234,-3.7535501581257495e-4,0.0069000209002446035,0,10000
10,250,0,250,500,750,1000,1250,1500,1750,2000,2250,2,0,1,0,0,0,0,0,0,0,0,0,0,-0.375,-0.375,-0.375,-0.375,-0.375,-0.375,-0.375,-0.375,-0.375,-0.375,-0.375,linear,0.025,TRUE,25,FALSE,2,NA,NA,0,0.5,7,sepmodel,0.0217,-5.690265801157279e-5,0.007878711076464005,0,10000
10,250,0,250,500,750,1000,1250,1500,1750,2000,2250,2,0,1,0,0,0,0,0,0,0,0,0,0,-0.375,-0.375,-0.375,-0.375,-0.375,-0.375,-0.375,-0.375,-0.375,-0.375,-0.375,linear,0.025,TRUE,25,FALSE,2,NA,NA,0,0.5,7,splines,0.0239,-4.245001083242531e-4,0.006873938446444467,0,10000
10,250,0,250,500,750,1000,1250,1500,1750,2000,2250,2,0,1,0,0,0,0,0,0,0,0,0,0,-0.375,-0.375,-0.375,-0.375,-0.375,-0.375,-0.375,-0.375,-0.375,-0.375,-0.375,linear,0.025,TRUE,25,FALSE,2,NA,NA,0,0.5,7,splines_cal,0.0236,-4.081606629319353e-4,0.006908596174698533,0,10000
10,250,0,250,500,750,1000,1250,1500,1750,2000,2250,2,0,1,0,0,0,0,0,0,0,0,0,0,-0.375,-0.375,-0.375,-0.375,-0.375,-0.375,-0.375,-0.375,-0.375,-0.375,-0.375,linear,0.025,TRUE,25,FALSE,2,NA,NA,0,0.5,8,fixmodel,0.0263,-4.2087861386740056e-4,0.006969528577205538,0,10000
10,250,0,250,500,750,1000,1250,1500,1750,2000,2250,2,0,1,0,0,0,0,0,0,0,0,0,0,-0.375,-0.375,-0.375,-0.375,-0.375,-0.375,-0.375,-0.375,-0.375,-0.375,-0.375,linear,0.025,TRUE,25,FALSE,2,NA,NA,0,0.5,8,sepmodel,0.0269,2.3425123322397707e-5,0.008114916541398946,0,10000
10,250,0,250,500,750,1000,1250,1500,1750,2000,2250,2,0,1,0,0,0,0,0,0,0,0,0,0,-0.375,-0.375,-0.375,-0.375,-0.375,-0.375,-0.375,-0.375,-0.375,-0.375,-0.375,linear,0.025,TRUE,25,FALSE,2,NA,NA,0,0.5,8,splines,0.0266,-4.639786690983684e-4,0.006940964892463665,0,10000
10,250,0,250,500,750,1000,1250,1500,1750,2000,2250,2,0,1,0,0,0,0,0,0,0,0,0,0,-0.375,-0.375,-0.375,-0.375,-0.375,-0.375,-0.375,-0.375,-0.375,-0.375,-0.375,linear,0.025,TRUE,25,FALSE,2,NA,NA,0,0.5,8,splines_cal,0.026,-4.8051541645336066e-4,0.006958746869358342,0,10000
10,250,0,250,500,750,1000,1250,1500,1750,2000,2250,2,0,1,0,0,0,0,0,0,0,0,0,0,-0.375,-0.375,-0.375,-0.375,-0.375,-0.375,-0.375,-0.375,-0.375,-0.375,-0.375,linear,0.025,TRUE,25,FALSE,2,NA,NA,0,0.5,9,fixmodel,0.0268,1.3771478204805735e-4,0.006955299955340448,0,10000
10,250,0,250,500,750,1000,1250,1500,1750,2000,2250,2,0,1,0,0,0,0,0,0,0,0,0,0,-0.375,-0.375,-0.375,-0.375,-0.375,-0.375,-0.375,-0.375,-0.375,-0.375,-0.375,linear,0.025,TRUE,25,FALSE,2,NA,NA,0,0.5,9,sepmodel,0.024,2.768242315846641e-4,0.008040291302464808,0,10000
10,250,0,250,500,750,1000,1250,1500,1750,2000,2250,2,0,1,0,0,0,0,0,0,0,0,0,0,-0.375,-0.375,-0.375,-0.375,-0.375,-0.375,-0.375,-0.375,-0.375,-0.375,-0.375,linear,0.025,TRUE,25,FALSE,2,NA,NA,0,0.5,9,splines,0.0269,1.0754179111626861e-4,0.006932806591982707,0,10000
10,250,0,250,500,750,1000,1250,1500,1750,2000,2250,2,0,1,0,0,0,0,0,0,0,0,0,0,-0.375,-0.375,-0.375,-0.375,-0.375,-0.375,-0.375,-0.375,-0.375,-0.375,-0.375,linear,0.025,TRUE,25,FALSE,2,NA,NA,0,0.5,9,splines_cal,0.0274,2.4391426903004704e-4,0.0069485561577384,0,10000
10,250,0,250,500,750,1000,1250,1500,1750,2000,2250,2,0,1,0,0,0,0,0,0,0,0,0,0,-0.375,-0.375,-0.375,-0.375,-0.375,-0.375,-0.375,-0.375,-0.375,-0.375,-0.375,linear,0.025,TRUE,25,FALSE,2,NA,NA,0,0.5,10,fixmodel,0.0265,-8.523381339494657e-5,0.006999609387465624,0,10000
10,250,0,250,500,750,1000,1250,1500,1750,2000,2250,2,0,1,0,0,0,0,0,0,0,0,0,0,-0.375,-0.375,-0.375,-0.375,-0.375,-0.375,-0.375,-0.375,-0.375,-0.375,-0.375,linear,0.025,TRUE,25,FALSE,2,NA,NA,0,0.5,10,sepmodel,0.0269,1.5390254979810454e-4,0.008083271499349782,0,10000
10,250,0,250,500,750,1000,1250,1500,1750,2000,2250,2,0,1,0,0,0,0,0,0,0,0,0,0,-0.375,-0.375,-0.375,-0.375,-0.375,-0.375,-0.375,-0.375,-0.375,-0.375,-0.375,linear,0.025,TRUE,25,FALSE,2,NA,NA,0,0.5,10,splines,0.0269,-5.663796144730053e-5,0.006979981054269713,0,10000
10,250,0,250,500,750,1000,1250,1500,1750,2000,2250,2,0,1,0,0,0,0,0,0,0,0,0,0,-0.375,-0.375,-0.375,-0.375,-0.375,-0.375,-0.375,-0.375,-0.375,-0.375,-0.375,linear,0.025,TRUE,25,FALSE,2,NA,NA,0,0.5,10,splines_cal,0.0265,-9.401004138412634e-5,0.00702798426654098,0,10000
10,250,0,250,500,750,1000,1250,1500,1750,2000,2250,2,0,1,0,0,0,0,0,0,0,0,0,0,-0.375,-0.375,-0.375,-0.375,-0.375,-0.375,-0.375,-0.375,-0.375,-0.375,-0.375,linear,0.025,TRUE,25,FALSE,3,NA,NA,0,0.5,2,fixmodel,0.0221,3.062117349148923e-5,0.007194288605266379,0,10000
10,250,0,250,500,750,1000,1250,1500,1750,2000,2250,2,0,1,0,0,0,0,0,0,0,0,0,0,-0.375,-0.375,-0.375,-0.375,-0.375,-0.375,-0.375,-0.375,-0.375,-0.375,-0.375,linear,0.025,TRUE,25,FALSE,3,NA,NA,0,0.5,2,sepmodel,0.0219,-2.9067099977523254e-5,0.007717557293826541,0,10000
10,250,0,250,500,750,1000,1250,1500,1750,2000,2250,2,0,1,0,0,0,0,0,0,0,0,0,0,-0.375,-0.375,-0.375,-0.375,-0.375,-0.375,-0.375,-0.375,-0.375,-0.375,-0.375,linear,0.025,TRUE,25,FALSE,3,NA,NA,0,0.5,2,splines,0.0221,1.3723612479083952e-5,0.007098060678455181,0,10000
10,250,0,250,500,750,1000,1250,1500,1750,2000,2250,2,0,1,0,0,0,0,0,0,0,0,0,0,-0.375,-0.375,-0.375,-0.375,-0.375,-0.375,-0.375,-0.375,-0.375,-0.375,-0.375,linear,0.025,TRUE,25,FALSE,3,NA,NA,0,0.5,2,splines_cal,0.0217,-8.621012623080742e-6,0.007183595064060736,0,10000
10,250,0,250,500,750,1000,1250,1500,1750,2000,2250,2,0,1,0,0,0,0,0,0,0,0,0,0,-0.375,-0.375,-0.375,-0.375,-0.375,-0.375,-0.375,-0.375,-0.375,-0.375,-0.375,linear,0.025,TRUE,25,FALSE,3,NA,NA,0,0.5,3,fixmodel,0.0247,-1.2656338130619072e-4,0.007230816419563603,0,10000
10,250,0,250,500,750,1000,1250,1500,1750,2000,2250,2,0,1,0,0,0,0,0,0,0,0,0,0,-0.375,-0.375,-0.375,-0.375,-0.375,-0.375,-0.375,-0.375,-0.375,-0.375,-0.375,linear,0.025,TRUE,25,FALSE,3,NA,NA,0,0.5,3,sepmodel,0.0244,-5.707909244480564e-4,0.007893977542099334,0,10000
10,250,0,250,500,750,1000,1250,1500,1750,2000,2250,2,0,1,0,0,0,0,0,0,0,0,0,0,-0.375,-0.375,-0.375,-0.375,-0.375,-0.375,-0.375,-0.375,-0.375,-0.375,-0.375,linear,0.025,TRUE,25,FALSE,3,NA,NA,0,0.5,3,splines,0.0247,-1.1141229998842983e-4,0.007185189153178346,0,10000
