pavlakrotka/NCC_FreqModels/simulations/results/results_setting_1_splines_pow.csv
num_arms,n_arm,d1,d2,d3,d4,d5,d6,d7,d8,d9,d10,period_blocks,mu0,sigma,theta1,theta2,theta3,theta4,theta5,theta6,theta7,theta8,theta9,theta10,lambda0,lambda1,lambda2,lambda3,lambda4,lambda5,lambda6,lambda7,lambda8,lambda9,lambda10,trend,alpha,ncc,unit_size,ci,bs_degree,n_wave,N_peak,trend_mean,trend_var,study_arm,model,reject_h0,bias,MSE,failed,nsim
10,250,0,250,500,750,1000,1250,1500,1750,2000,2250,2,0,1,0.25,0.25,0.25,0.25,0.25,0.25,0.25,0.25,0.25,0.25,-0.5,-0.5,-0.5,-0.5,-0.5,-0.5,-0.5,-0.5,-0.5,-0.5,-0.5,linear,0.025,TRUE,25,FALSE,1,NA,NA,0,0.5,2,fixmodel,0.8271,-2.520578104056584e-4,0.007333308122670526,0,10000
10,250,0,250,500,750,1000,1250,1500,1750,2000,2250,2,0,1,0.25,0.25,0.25,0.25,0.25,0.25,0.25,0.25,0.25,0.25,-0.5,-0.5,-0.5,-0.5,-0.5,-0.5,-0.5,-0.5,-0.5,-0.5,-0.5,linear,0.025,TRUE,25,FALSE,1,NA,NA,0,0.5,2,sepmodel,0.8023,-9.43008511695281e-6,0.007841540503813563,0,10000
10,250,0,250,500,750,1000,1250,1500,1750,2000,2250,2,0,1,0.25,0.25,0.25,0.25,0.25,0.25,0.25,0.25,0.25,0.25,-0.5,-0.5,-0.5,-0.5,-0.5,-0.5,-0.5,-0.5,-0.5,-0.5,-0.5,linear,0.025,TRUE,25,FALSE,1,NA,NA,0,0.5,2,splines,0.8362,-2.8690639543184853e-4,0.007180889004073703,0,10000
10,250,0,250,500,750,1000,1250,1500,1750,2000,2250,2,0,1,0.25,0.25,0.25,0.25,0.25,0.25,0.25,0.25,0.25,0.25,-0.5,-0.5,-0.5,-0.5,-0.5,-0.5,-0.5,-0.5,-0.5,-0.5,-0.5,linear,0.025,TRUE,25,FALSE,1,NA,NA,0,0.5,2,splines_cal,0.8293,-2.0979338956053683e-4,0.0072923080832822664,0,10000
10,250,0,250,500,750,1000,1250,1500,1750,2000,2250,2,0,1,0.25,0.25,0.25,0.25,0.25,0.25,0.25,0.25,0.25,0.25,-0.5,-0.5,-0.5,-0.5,-0.5,-0.5,-0.5,-0.5,-0.5,-0.5,-0.5,linear,0.025,TRUE,25,FALSE,1,NA,NA,0,0.5,3,fixmodel,0.8351,7.52840514227422e-4,0.007371799508826932,0,10000
10,250,0,250,500,750,1000,1250,1500,1750,2000,2250,2,0,1,0.25,0.25,0.25,0.25,0.25,0.25,0.25,0.25,0.25,0.25,-0.5,-0.5,-0.5,-0.5,-0.5,-0.5,-0.5,-0.5,-0.5,-0.5,-0.5,linear,0.025,TRUE,25,FALSE,1,NA,NA,0,0.5,3,sepmodel,0.7955,5.704291158966973e-4,0.008175436080172361,0,10000
10,250,0,250,500,750,1000,1250,1500,1750,2000,2250,2,0,1,0.25,0.25,0.25,0.25,0.25,0.25,0.25,0.25,0.25,0.25,-0.5,-0.5,-0.5,-0.5,-0.5,-0.5,-0.5,-0.5,-0.5,-0.5,-0.5,linear,0.025,TRUE,25,FALSE,1,NA,NA,0,0.5,3,splines,0.8366,7.471519357691514e-4,0.007298504257332538,0,10000
10,250,0,250,500,750,1000,1250,1500,1750,2000,2250,2,0,1,0.25,0.25,0.25,0.25,0.25,0.25,0.25,0.25,0.25,0.25,-0.5,-0.5,-0.5,-0.5,-0.5,-0.5,-0.5,-0.5,-0.5,-0.5,-0.5,linear,0.025,TRUE,25,FALSE,1,NA,NA,0,0.5,3,splines_cal,0.8345,7.727269322369383e-4,0.007342381219494751,0,10000
10,250,0,250,500,750,1000,1250,1500,1750,2000,2250,2,0,1,0.25,0.25,0.25,0.25,0.25,0.25,0.25,0.25,0.25,0.25,-0.5,-0.5,-0.5,-0.5,-0.5,-0.5,-0.5,-0.5,-0.5,-0.5,-0.5,linear,0.025,TRUE,25,FALSE,1,NA,NA,0,0.5,4,fixmodel,0.8372,-4.918827189540282e-4,0.007229084721895218,0,10000
10,250,0,250,500,750,1000,1250,1500,1750,2000,2250,2,0,1,0.25,0.25,0.25,0.25,0.25,0.25,0.25,0.25,0.25,0.25,-0.5,-0.5,-0.5,-0.5,-0.5,-0.5,-0.5,-0.5,-0.5,-0.5,-0.5,linear,0.025,TRUE,25,FALSE,1,NA,NA,0,0.5,4,sepmodel,0.7976,-5.397454054958311e-4,0.008033671055831257,0,10000
10,250,0,250,500,750,1000,1250,1500,1750,2000,2250,2,0,1,0.25,0.25,0.25,0.25,0.25,0.25,0.25,0.25,0.25,0.25,-0.5,-0.5,-0.5,-0.5,-0.5,-0.5,-0.5,-0.5,-0.5,-0.5,-0.5,linear,0.025,TRUE,25,FALSE,1,NA,NA,0,0.5,4,splines,0.8383,-5.524033254128156e-4,0.0071709117761837,0,10000
10,250,0,250,500,750,1000,1250,1500,1750,2000,2250,2,0,1,0.25,0.25,0.25,0.25,0.25,0.25,0.25,0.25,0.25,0.25,-0.5,-0.5,-0.5,-0.5,-0.5,-0.5,-0.5,-0.5,-0.5,-0.5,-0.5,linear,0.025,TRUE,25,FALSE,1,NA,NA,0,0.5,4,splines_cal,0.8382,-3.927204376982746e-4,0.007217627446324904,0,10000
10,250,0,250,500,750,1000,1250,1500,1750,2000,2250,2,0,1,0.25,0.25,0.25,0.25,0.25,0.25,0.25,0.25,0.25,0.25,-0.5,-0.5,-0.5,-0.5,-0.5,-0.5,-0.5,-0.5,-0.5,-0.5,-0.5,linear,0.025,TRUE,25,FALSE,1,NA,NA,0,0.5,5,fixmodel,0.8385,-2.2618876148447633e-4,0.007255384999419909,0,10000
10,250,0,250,500,750,1000,1250,1500,1750,2000,2250,2,0,1,0.25,0.25,0.25,0.25,0.25,0.25,0.25,0.25,0.25,0.25,-0.5,-0.5,-0.5,-0.5,-0.5,-0.5,-0.5,-0.5,-0.5,-0.5,-0.5,linear,0.025,TRUE,25,FALSE,1,NA,NA,0,0.5,5,sepmodel,0.7944,-1.1371305593920199e-4,0.00813106304182261,0,10000
10,250,0,250,500,750,1000,1250,1500,1750,2000,2250,2,0,1,0.25,0.25,0.25,0.25,0.25,0.25,0.25,0.25,0.25,0.25,-0.5,-0.5,-0.5,-0.5,-0.5,-0.5,-0.5,-0.5,-0.5,-0.5,-0.5,linear,0.025,TRUE,25,FALSE,1,NA,NA,0,0.5,5,splines,0.8413,-2.145442713078103e-4,0.007217907153767615,0,10000
10,250,0,250,500,750,1000,1250,1500,1750,2000,2250,2,0,1,0.25,0.25,0.25,0.25,0.25,0.25,0.25,0.25,0.25,0.25,-0.5,-0.5,-0.5,-0.5,-0.5,-0.5,-0.5,-0.5,-0.5,-0.5,-0.5,linear,0.025,TRUE,25,FALSE,1,NA,NA,0,0.5,5,splines_cal,0.839,-2.3715336729835087e-4,0.0072649982654308335,0,10000
10,250,0,250,500,750,1000,1250,1500,1750,2000,2250,2,0,1,0.25,0.25,0.25,0.25,0.25,0.25,0.25,0.25,0.25,0.25,-0.5,-0.5,-0.5,-0.5,-0.5,-0.5,-0.5,-0.5,-0.5,-0.5,-0.5,linear,0.025,TRUE,25,FALSE,1,NA,NA,0,0.5,6,fixmodel,0.8451,-7.054861971404451e-4,0.007126865932248708,0,10000
10,250,0,250,500,750,1000,1250,1500,1750,2000,2250,2,0,1,0.25,0.25,0.25,0.25,0.25,0.25,0.25,0.25,0.25,0.25,-0.5,-0.5,-0.5,-0.5,-0.5,-0.5,-0.5,-0.5,-0.5,-0.5,-0.5,linear,0.025,TRUE,25,FALSE,1,NA,NA,0,0.5,6,sepmodel,0.7914,-4.696347229539168e-4,0.008132286045558514,0,10000
10,250,0,250,500,750,1000,1250,1500,1750,2000,2250,2,0,1,0.25,0.25,0.25,0.25,0.25,0.25,0.25,0.25,0.25,0.25,-0.5,-0.5,-0.5,-0.5,-0.5,-0.5,-0.5,-0.5,-0.5,-0.5,-0.5,linear,0.025,TRUE,25,FALSE,1,NA,NA,0,0.5,6,splines,0.8452,-7.363704764510957e-4,0.00709713948253398,0,10000
10,250,0,250,500,750,1000,1250,1500,1750,2000,2250,2,0,1,0.25,0.25,0.25,0.25,0.25,0.25,0.25,0.25,0.25,0.25,-0.5,-0.5,-0.5,-0.5,-0.5,-0.5,-0.5,-0.5,-0.5,-0.5,-0.5,linear,0.025,TRUE,25,FALSE,1,NA,NA,0,0.5,6,splines_cal,0.8435,-7.676092883396012e-4,0.007152102952864174,0,10000
10,250,0,250,500,750,1000,1250,1500,1750,2000,2250,2,0,1,0.25,0.25,0.25,0.25,0.25,0.25,0.25,0.25,0.25,0.25,-0.5,-0.5,-0.5,-0.5,-0.5,-0.5,-0.5,-0.5,-0.5,-0.5,-0.5,linear,0.025,TRUE,25,FALSE,1,NA,NA,0,0.5,7,fixmodel,0.8409,-0.0015095917733808765,0.0070322243138425935,0,10000
10,250,0,250,500,750,1000,1250,1500,1750,2000,2250,2,0,1,0.25,0.25,0.25,0.25,0.25,0.25,0.25,0.25,0.25,0.25,-0.5,-0.5,-0.5,-0.5,-0.5,-0.5,-0.5,-0.5,-0.5,-0.5,-0.5,linear,0.025,TRUE,25,FALSE,1,NA,NA,0,0.5,7,sepmodel,0.7924,-0.0011095005904045727,0.008123405617184146,0,10000
10,250,0,250,500,750,1000,1250,1500,1750,2000,2250,2,0,1,0.25,0.25,0.25,0.25,0.25,0.25,0.25,0.25,0.25,0.25,-0.5,-0.5,-0.5,-0.5,-0.5,-0.5,-0.5,-0.5,-0.5,-0.5,-0.5,linear,0.025,TRUE,25,FALSE,1,NA,NA,0,0.5,7,splines,0.842,-0.0014819430227076679,0.007015961503315847,0,10000
10,250,0,250,500,750,1000,1250,1500,1750,2000,2250,2,0,1,0.25,0.25,0.25,0.25,0.25,0.25,0.25,0.25,0.25,0.25,-0.5,-0.5,-0.5,-0.5,-0.5,-0.5,-0.5,-0.5,-0.5,-0.5,-0.5,linear,0.025,TRUE,25,FALSE,1,NA,NA,0,0.5,7,splines_cal,0.8417,-0.001501459102052947,0.007038620106173069,0,10000
10,250,0,250,500,750,1000,1250,1500,1750,2000,2250,2,0,1,0.25,0.25,0.25,0.25,0.25,0.25,0.25,0.25,0.25,0.25,-0.5,-0.5,-0.5,-0.5,-0.5,-0.5,-0.5,-0.5,-0.5,-0.5,-0.5,linear,0.025,TRUE,25,FALSE,1,NA,NA,0,0.5,8,fixmodel,0.8447,-0.0019535603033255,0.006940848376240479,0,10000
10,250,0,250,500,750,1000,1250,1500,1750,2000,2250,2,0,1,0.25,0.25,0.25,0.25,0.25,0.25,0.25,0.25,0.25,0.25,-0.5,-0.5,-0.5,-0.5,-0.5,-0.5,-0.5,-0.5,-0.5,-0.5,-0.5,linear,0.025,TRUE,25,FALSE,1,NA,NA,0,0.5,8,sepmodel,0.7851,-0.001604089928520806,0.008002406887687654,0,10000
10,250,0,250,500,750,1000,1250,1500,1750,2000,2250,2,0,1,0.25,0.25,0.25,0.25,0.25,0.25,0.25,0.25,0.25,0.25,-0.5,-0.5,-0.5,-0.5,-0.5,-0.5,-0.5,-0.5,-0.5,-0.5,-0.5,linear,0.025,TRUE,25,FALSE,1,NA,NA,0,0.5,8,splines,0.8469,-0.0019653788845085877,0.0069178570315472886,0,10000
10,250,0,250,500,750,1000,1250,1500,1750,2000,2250,2,0,1,0.25,0.25,0.25,0.25,0.25,0.25,0.25,0.25,0.25,0.25,-0.5,-0.5,-0.5,-0.5,-0.5,-0.5,-0.5,-0.5,-0.5,-0.5,-0.5,linear,0.025,TRUE,25,FALSE,1,NA,NA,0,0.5,8,splines_cal,0.8455,-0.001893782651443263,0.0069265217066094885,0,10000
10,250,0,250,500,750,1000,1250,1500,1750,2000,2250,2,0,1,0.25,0.25,0.25,0.25,0.25,0.25,0.25,0.25,0.25,0.25,-0.5,-0.5,-0.5,-0.5,-0.5,-0.5,-0.5,-0.5,-0.5,-0.5,-0.5,linear,0.025,TRUE,25,FALSE,1,NA,NA,0,0.5,9,fixmodel,0.8533,2.3019873931470492e-4,0.006811095566730338,0,10000
10,250,0,250,500,750,1000,1250,1500,1750,2000,2250,2,0,1,0.25,0.25,0.25,0.25,0.25,0.25,0.25,0.25,0.25,0.25,-0.5,-0.5,-0.5,-0.5,-0.5,-0.5,-0.5,-0.5,-0.5,-0.5,-0.5,linear,0.025,TRUE,25,FALSE,1,NA,NA,0,0.5,9,sepmodel,0.7978,6.567286414063484e-4,0.007861550234755944,0,10000
10,250,0,250,500,750,1000,1250,1500,1750,2000,2250,2,0,1,0.25,0.25,0.25,0.25,0.25,0.25,0.25,0.25,0.25,0.25,-0.5,-0.5,-0.5,-0.5,-0.5,-0.5,-0.5,-0.5,-0.5,-0.5,-0.5,linear,0.025,TRUE,25,FALSE,1,NA,NA,0,0.5,9,splines,0.8538,2.0415407702505244e-4,0.006798803465013591,0,10000
10,250,0,250,500,750,1000,1250,1500,1750,2000,2250,2,0,1,0.25,0.25,0.25,0.25,0.25,0.25,0.25,0.25,0.25,0.25,-0.5,-0.5,-0.5,-0.5,-0.5,-0.5,-0.5,-0.5,-0.5,-0.5,-0.5,linear,0.025,TRUE,25,FALSE,1,NA,NA,0,0.5,9,splines_cal,0.8549,2.159299787267424e-4,0.006799341726919489,0,10000
10,250,0,250,500,750,1000,1250,1500,1750,2000,2250,2,0,1,0.25,0.25,0.25,0.25,0.25,0.25,0.25,0.25,0.25,0.25,-0.5,-0.5,-0.5,-0.5,-0.5,-0.5,-0.5,-0.5,-0.5,-0.5,-0.5,linear,0.025,TRUE,25,FALSE,1,NA,NA,0,0.5,10,fixmodel,0.8532,-1.6739103315167143e-4,0.006875866074854001,0,10000
10,250,0,250,500,750,1000,1250,1500,1750,2000,2250,2,0,1,0.25,0.25,0.25,0.25,0.25,0.25,0.25,0.25,0.25,0.25,-0.5,-0.5,-0.5,-0.5,-0.5,-0.5,-0.5,-0.5,-0.5,-0.5,-0.5,linear,0.025,TRUE,25,FALSE,1,NA,NA,0,0.5,10,sepmodel,0.7963,2.3052322606840884e-4,0.008054086057318862,0,10000
10,250,0,250,500,750,1000,1250,1500,1750,2000,2250,2,0,1,0.25,0.25,0.25,0.25,0.25,0.25,0.25,0.25,0.25,0.25,-0.5,-0.5,-0.5,-0.5,-0.5,-0.5,-0.5,-0.5,-0.5,-0.5,-0.5,linear,0.025,TRUE,25,FALSE,1,NA,NA,0,0.5,10,splines,0.8541,-1.6256069353898515e-4,0.006865858632066221,0,10000
10,250,0,250,500,750,1000,1250,1500,1750,2000,2250,2,0,1,0.25,0.25,0.25,0.25,0.25,0.25,0.25,0.25,0.25,0.25,-0.5,-0.5,-0.5,-0.5,-0.5,-0.5,-0.5,-0.5,-0.5,-0.5,-0.5,linear,0.025,TRUE,25,FALSE,1,NA,NA,0,0.5,10,splines_cal,0.853,-1.452947812811855e-4,0.006889553479415895,0,10000
10,250,0,250,500,750,1000,1250,1500,1750,2000,2250,2,0,1,0.25,0.25,0.25,0.25,0.25,0.25,0.25,0.25,0.25,0.25,-0.5,-0.5,-0.5,-0.5,-0.5,-0.5,-0.5,-0.5,-0.5,-0.5,-0.5,linear,0.025,TRUE,25,FALSE,2,NA,NA,0,0.5,2,fixmodel,0.8202,-5.82371239876835e-4,0.007552001747299478,0,10000
10,250,0,250,500,750,1000,1250,1500,1750,2000,2250,2,0,1,0.25,0.25,0.25,0.25,0.25,0.25,0.25,0.25,0.25,0.25,-0.5,-0.5,-0.5,-0.5,-0.5,-0.5,-0.5,-0.5,-0.5,-0.5,-0.5,linear,0.025,TRUE,25,FALSE,2,NA,NA,0,0.5,2,sepmodel,0.7958,-9.214874872716577e-4,0.008073072691153333,0,10000
10,250,0,250,500,750,1000,1250,1500,1750,2000,2250,2,0,1,0.25,0.25,0.25,0.25,0.25,0.25,0.25,0.25,0.25,0.25,-0.5,-0.5,-0.5,-0.5,-0.5,-0.5,-0.5,-0.5,-0.5,-0.5,-0.5,linear,0.025,TRUE,25,FALSE,2,NA,NA,0,0.5,2,splines,0.8224,-4.8825082377551647e-4,0.0074662916404419286,0,10000
10,250,0,250,500,750,1000,1250,1500,1750,2000,2250,2,0,1,0.25,0.25,0.25,0.25,0.25,0.25,0.25,0.25,0.25,0.25,-0.5,-0.5,-0.5,-0.5,-0.5,-0.5,-0.5,-0.5,-0.5,-0.5,-0.5,linear,0.025,TRUE,25,FALSE,2,NA,NA,0,0.5,2,splines_cal,0.8218,-5.58362643688583e-4,0.0075355801149018554,0,10000
10,250,0,250,500,750,1000,1250,1500,1750,2000,2250,2,0,1,0.25,0.25,0.25,0.25,0.25,0.25,0.25,0.25,0.25,0.25,-0.5,-0.5,-0.5,-0.5,-0.5,-0.5,-0.5,-0.5,-0.5,-0.5,-0.5,linear,0.025,TRUE,25,FALSE,2,NA,NA,0,0.5,3,fixmodel,0.8279,-7.531722774079644e-4,0.00734012719015757,0,10000
10,250,0,250,500,750,1000,1250,1500,1750,2000,2250,2,0,1,0.25,0.25,0.25,0.25,0.25,0.25,0.25,0.25,0.25,0.25,-0.5,-0.5,-0.5,-0.5,-0.5,-0.5,-0.5,-0.5,-0.5,-0.5,-0.5,linear,0.025,TRUE,25,FALSE,2,NA,NA,0,0.5,3,sepmodel,0.7896,-4.1489833138660254e-4,0.008085290002280737,0,10000
10,250,0,250,500,750,1000,1250,1500,1750,2000,2250,2,0,1,0.25,0.25,0.25,0.25,0.25,0.25,0.25,0.25,0.25,0.25,-0.5,-0.5,-0.5,-0.5,-0.5,-0.5,-0.5,-0.5,-0.5,-0.5,-0.5,linear,0.025,TRUE,25,FALSE,2,NA,NA,0,0.5,3,splines,0.8329,-7.186128733995314e-4,0.007280896116914337,0,10000
10,250,0,250,500,750,1000,1250,1500,1750,2000,2250,2,0,1,0.25,0.25,0.25,0.25,0.25,0.25,0.25,0.25,0.25,0.25,-0.5,-0.5,-0.5,-0.5,-0.5,-0.5,-0.5,-0.5,-0.5,-0.5,-0.5,linear,0.025,TRUE,25,FALSE,2,NA,NA,0,0.5,3,splines_cal,0.8293,-7.81423595719532e-4,0.007298805137273761,0,10000
10,250,0,250,500,750,1000,1250,1500,1750,2000,2250,2,0,1,0.25,0.25,0.25,0.25,0.25,0.25,0.25,0.25,0.25,0.25,-0.5,-0.5,-0.5,-0.5,-0.5,-0.5,-0.5,-0.5,-0.5,-0.5,-0.5,linear,0.025,TRUE,25,FALSE,2,NA,NA,0,0.5,4,fixmodel,0.8343,-0.0010750834530260124,0.007119693034852121,0,10000
10,250,0,250,500,750,1000,1250,1500,1750,2000,2250,2,0,1,0.25,0.25,0.25,0.25,0.25,0.25,0.25,0.25,0.25,0.25,-0.5,-0.5,-0.5,-0.5,-0.5,-0.5,-0.5,-0.5,-0.5,-0.5,-0.5,linear,0.025,TRUE,25,FALSE,2,NA,NA,0,0.5,4,sepmodel,0.7927,-0.0010979383035668703,0.007921650587447053,0,10000
10,250,0,250,500,750,1000,1250,1500,1750,2000,2250,2,0,1,0.25,0.25,0.25,0.25,0.25,0.25,0.25,0.25,0.25,0.25,-0.5,-0.5,-0.5,-0.5,-0.5,-0.5,-0.5,-0.5,-0.5,-0.5,-0.5,linear,0.025,TRUE,25,FALSE,2,NA,NA,0,0.5,4,splines,0.8356,-0.0010480320771197392,0.007105960538660792,0,10000
10,250,0,250,500,750,1000,1250,1500,1750,2000,2250,2,0,1,0.25,0.25,0.25,0.25,0.25,0.25,0.25,0.25,0.25,0.25,-0.5,-0.5,-0.5,-0.5,-0.5,-0.5,-0.5,-0.5,-0.5,-0.5,-0.5,linear,0.025,TRUE,25,FALSE,2,NA,NA,0,0.5,4,splines_cal,0.8342,-0.0010905566130360548,0.007117995340637443,0,10000
10,250,0,250,500,750,1000,1250,1500,1750,2000,2250,2,0,1,0.25,0.25,0.25,0.25,0.25,0.25,0.25,0.25,0.25,0.25,-0.5,-0.5,-0.5,-0.5,-0.5,-0.5,-0.5,-0.5,-0.5,-0.5,-0.5,linear,0.025,TRUE,25,FALSE,2,NA,NA,0,0.5,5,fixmodel,0.8405,-3.9909456598116874e-4,0.007265960726429043,0,10000
10,250,0,250,500,750,1000,1250,1500,1750,2000,2250,2,0,1,0.25,0.25,0.25,0.25,0.25,0.25,0.25,0.25,0.25,0.25,-0.5,-0.5,-0.5,-0.5,-0.5,-0.5,-0.5,-0.5,-0.5,-0.5,-0.5,linear,0.025,TRUE,25,FALSE,2,NA,NA,0,0.5,5,sepmodel,0.788,-4.583158458174513e-4,0.008252983316649027,0,10000
10,250,0,250,500,750,1000,1250,1500,1750,2000,2250,2,0,1,0.25,0.25,0.25,0.25,0.25,0.25,0.25,0.25,0.25,0.25,-0.5,-0.5,-0.5,-0.5,-0.5,-0.5,-0.5,-0.5,-0.5,-0.5,-0.5,linear,0.025,TRUE,25,FALSE,2,NA,NA,0,0.5,5,splines,0.8401,-3.5345167528102355e-4,0.007251549267837383,0,10000
10,250,0,250,500,750,1000,1250,1500,1750,2000,2250,2,0,1,0.25,0.25,0.25,0.25,0.25,0.25,0.25,0.25,0.25,0.25,-0.5,-0.5,-0.5,-0.5,-0.5,-0.5,-0.5,-0.5,-0.5,-0.5,-0.5,linear,0.025,TRUE,25,FALSE,2,NA,NA,0,0.5,5,splines_cal,0.8401,-3.908371254605722e-4,0.007264417197796991,0,10000
10,250,0,250,500,750,1000,1250,1500,1750,2000,2250,2,0,1,0.25,0.25,0.25,0.25,0.25,0.25,0.25,0.25,0.25,0.25,-0.5,-0.5,-0.5,-0.5,-0.5,-0.5,-0.5,-0.5,-0.5,-0.5,-0.5,linear,0.025,TRUE,25,FALSE,2,NA,NA,0,0.5,6,fixmodel,0.8465,-0.0010123210098754367,0.006967797691929761,0,10000
10,250,0,250,500,750,1000,1250,1500,1750,2000,2250,2,0,1,0.25,0.25,0.25,0.25,0.25,0.25,0.25,0.25,0.25,0.25,-0.5,-0.5,-0.5,-0.5,-0.5,-0.5,-0.5,-0.5,-0.5,-0.5,-0.5,linear,0.025,TRUE,25,FALSE,2,NA,NA,0,0.5,6,sepmodel,0.7921,-0.0011550642092147583,0.007981044243461308,0,10000
10,250,0,250,500,750,1000,1250,1500,1750,2000,2250,2,0,1,0.25,0.25,0.25,0.25,0.25,0.25,0.25,0.25,0.25,0.25,-0.5,-0.5,-0.5,-0.5,-0.5,-0.5,-0.5,-0.5,-0.5,-0.5,-0.5,linear,0.025,TRUE,25,FALSE,2,NA,NA,0,0.5,6,splines,0.848,-9.304340346425865e-4,0.006936598642869676,0,10000
10,250,0,250,500,750,1000,1250,1500,1750,2000,2250,2,0,1,0.25,0.25,0.25,0.25,0.25,0.25,0.25,0.25,0.25,0.25,-0.5,-0.5,-0.5,-0.5,-0.5,-0.5,-0.5,-0.5,-0.5,-0.5,-0.5,linear,0.025,TRUE,25,FALSE,2,NA,NA,0,0.5,6,splines_cal,0.8457,-0.0010066975107746578,0.00697278357938259,0,10000
10,250,0,250,500,750,1000,1250,1500,1750,2000,2250,2,0,1,0.25,0.25,0.25,0.25,0.25,0.25,0.25,0.25,0.25,0.25,-0.5,-0.5,-0.5,-0.5,-0.5,-0.5,-0.5,-0.5,-0.5,-0.5,-0.5,linear,0.025,TRUE,25,FALSE,2,NA,NA,0,0.5,7,fixmodel,0.8457,-2.861544776889114e-5,0.007059573679034556,0,10000
10,250,0,250,500,750,1000,1250,1500,1750,2000,2250,2,0,1,0.25,0.25,0.25,0.25,0.25,0.25,0.25,0.25,0.25,0.25,-0.5,-0.5,-0.5,-0.5,-0.5,-0.5,-0.5,-0.5,-0.5,-0.5,-0.5,linear,0.025,TRUE,25,FALSE,2,NA,NA,0,0.5,7,sepmodel,0.7934,-2.073366349665196e-4,0.008108999733942279,0,10000
10,250,0,250,500,750,1000,1250,1500,1750,2000,2250,2,0,1,0.25,0.25,0.25,0.25,0.25,0.25,0.25,0.25,0.25,0.25,-0.5,-0.5,-0.5,-0.5,-0.5,-0.5,-0.5,-0.5,-0.5,-0.5,-0.5,linear,0.025,TRUE,25,FALSE,2,NA,NA,0,0.5,7,splines,0.848,2.8156992275586723e-5,0.007031966635667966,0,10000
10,250,0,250,500,750,1000,1250,1500,1750,2000,2250,2,0,1,0.25,0.25,0.25,0.25,0.25,0.25,0.25,0.25,0.25,0.25,-0.5,-0.5,-0.5,-0.5,-0.5,-0.5,-0.5,-0.5,-0.5,-0.5,-0.5,linear,0.025,TRUE,25,FALSE,2,NA,NA,0,0.5,7,splines_cal,0.8456,-3.530832839504792e-5,0.007049883717187805,0,10000
10,250,0,250,500,750,1000,1250,1500,1750,2000,2250,2,0,1,0.25,0.25,0.25,0.25,0.25,0.25,0.25,0.25,0.25,0.25,-0.5,-0.5,-0.5,-0.5,-0.5,-0.5,-0.5,-0.5,-0.5,-0.5,-0.5,linear,0.025,TRUE,25,FALSE,2,NA,NA,0,0.5,8,fixmodel,0.8467,-0.0014569090468503658,0.006832394098365912,0,10000
10,250,0,250,500,750,1000,1250,1500,1750,2000,2250,2,0,1,0.25,0.25,0.25,0.25,0.25,0.25,0.25,0.25,0.25,0.25,-0.5,-0.5,-0.5,-0.5,-0.5,-0.5,-0.5,-0.5,-0.5,-0.5,-0.5,linear,0.025,TRUE,25,FALSE,2,NA,NA,0,0.5,8,sepmodel,0.7874,-0.0016013765953130784,0.007883008609575812,0,10000
10,250,0,250,500,750,1000,1250,1500,1750,2000,2250,2,0,1,0.25,0.25,0.25,0.25,0.25,0.25,0.25,0.25,0.25,0.25,-0.5,-0.5,-0.5,-0.5,-0.5,-0.5,-0.5,-0.5,-0.5,-0.5,-0.5,linear,0.025,TRUE,25,FALSE,2,NA,NA,0,0.5,8,splines,0.8495,-0.0013909203769604435,0.006804798966255648,0,10000
10,250,0,250,500,750,1000,1250,1500,1750,2000,2250,2,0,1,0.25,0.25,0.25,0.25,0.25,0.25,0.25,0.25,0.25,0.25,-0.5,-0.5,-0.5,-0.5,-0.5,-0.5,-0.5,-0.5,-0.5,-0.5,-0.5,linear,0.025,TRUE,25,FALSE,2,NA,NA,0,0.5,8,splines_cal,0.8475,-0.0014177151119386007,0.006826295987562055,0,10000
10,250,0,250,500,750,1000,1250,1500,1750,2000,2250,2,0,1,0.25,0.25,0.25,0.25,0.25,0.25,0.25,0.25,0.25,0.25,-0.5,-0.5,-0.5,-0.5,-0.5,-0.5,-0.5,-0.5,-0.5,-0.5,-0.5,linear,0.025,TRUE,25,FALSE,2,NA,NA,0,0.5,9,fixmodel,0.8481,-0.002026149386722451,0.006843822386944682,0,10000
10,250,0,250,500,750,1000,1250,1500,1750,2000,2250,2,0,1,0.25,0.25,0.25,0.25,0.25,0.25,0.25,0.25,0.25,0.25,-0.5,-0.5,-0.5,-0.5,-0.5,-0.5,-0.5,-0.5,-0.5,-0.5,-0.5,linear,0.025,TRUE,25,FALSE,2,NA,NA,0,0.5,9,sepmodel,0.7914,-0.0017020401527404647,0.007926655712777994,0,10000
10,250,0,250,500,750,1000,1250,1500,1750,2000,2250,2,0,1,0.25,0.25,0.25,0.25,0.25,0.25,0.25,0.25,0.25,0.25,-0.5,-0.5,-0.5,-0.5,-0.5,-0.5,-0.5,-0.5,-0.5,-0.5,-0.5,linear,0.025,TRUE,25,FALSE,2,NA,NA,0,0.5,9,splines,0.8497,-0.002036671770643723,0.006821712209192169,0,10000
10,250,0,250,500,750,1000,1250,1500,1750,2000,2250,2,0,1,0.25,0.25,0.25,0.25,0.25,0.25,0.25,0.25,0.25,0.25,-0.5,-0.5,-0.5,-0.5,-0.5,-0.5,-0.5,-0.5,-0.5,-0.5,-0.5,linear,0.025,TRUE,25,FALSE,2,NA,NA,0,0.5,9,splines_cal,0.8486,-0.0020053664370856166,0.006830191204881973,0,10000
10,250,0,250,500,750,1000,1250,1500,1750,2000,2250,2,0,1,0.25,0.25,0.25,0.25,0.25,0.25,0.25,0.25,0.25,0.25,-0.5,-0.5,-0.5,-0.5,-0.5,-0.5,-0.5,-0.5,-0.5,-0.5,-0.5,linear,0.025,TRUE,25,FALSE,2,NA,NA,0,0.5,10,fixmodel,0.8548,-1.9342397709787166e-4,0.006798532382553355,0,10000
10,250,0,250,500,750,1000,1250,1500,1750,2000,2250,2,0,1,0.25,0.25,0.25,0.25,0.25,0.25,0.25,0.25,0.25,0.25,-0.5,-0.5,-0.5,-0.5,-0.5,-0.5,-0.5,-0.5,-0.5,-0.5,-0.5,linear,0.025,TRUE,25,FALSE,2,NA,NA,0,0.5,10,sepmodel,0.7955,3.62749400344921e-5,0.007862055083639357,0,10000
10,250,0,250,500,750,1000,1250,1500,1750,2000,2250,2,0,1,0.25,0.25,0.25,0.25,0.25,0.25,0.25,0.25,0.25,0.25,-0.5,-0.5,-0.5,-0.5,-0.5,-0.5,-0.5,-0.5,-0.5,-0.5,-0.5,linear,0.025,TRUE,25,FALSE,2,NA,NA,0,0.5,10,splines,0.8565,-1.7560601580681503e-4,0.006774204002141773,0,10000
10,250,0,250,500,750,1000,1250,1500,1750,2000,2250,2,0,1,0.25,0.25,0.25,0.25,0.25,0.25,0.25,0.25,0.25,0.25,-0.5,-0.5,-0.5,-0.5,-0.5,-0.5,-0.5,-0.5,-0.5,-0.5,-0.5,linear,0.025,TRUE,25,FALSE,2,NA,NA,0,0.5,10,splines_cal,0.8544,-1.5946062342018358e-4,0.006816791764847069,0,10000
10,250,0,250,500,750,1000,1250,1500,1750,2000,2250,2,0,1,0.25,0.25,0.25,0.25,0.25,0.25,0.25,0.25,0.25,0.25,-0.5,-0.5,-0.5,-0.5,-0.5,-0.5,-0.5,-0.5,-0.5,-0.5,-0.5,linear,0.025,TRUE,25,FALSE,3,NA,NA,0,0.5,2,fixmodel,0.8259,0.0019742001552227125,0.007484077062295868,0,10000
10,250,0,250,500,750,1000,1250,1500,1750,2000,2250,2,0,1,0.25,0.25,0.25,0.25,0.25,0.25,0.25,0.25,0.25,0.25,-0.5,-0.5,-0.5,-0.5,-0.5,-0.5,-0.5,-0.5,-0.5,-0.5,-0.5,linear,0.025,TRUE,25,FALSE,3,NA,NA,0,0.5,2,sepmodel,0.7978,0.001851015365033797,0.008044913405960901,0,10000
10,250,0,250,500,750,1000,1250,1500,1750,2000,2250,2,0,1,0.25,0.25,0.25,0.25,0.25,0.25,0.25,0.25,0.25,0.25,-0.5,-0.5,-0.5,-0.5,-0.5,-0.5,-0.5,-0.5,-0.5,-0.5,-0.5,linear,0.025,TRUE,25,FALSE,3,NA,NA,0,0.5,2,splines,0.8278,0.001907818071540653,0.007393548315617535,0,10000
10,250,0,250,500,750,1000,1250,1500,1750,2000,2250,2,0,1,0.25,0.25,0.25,0.25,0.25,0.25,0.25,0.25,0.25,0.25,-0.5,-0.5,-0.5,-0.5,-0.5,-0.5,-0.5,-0.5,-0.5,-0.5,-0.5,linear,0.025,TRUE,25,FALSE,3,NA,NA,0,0.5,2,splines_cal,0.8257,0.002095521795844634,0.00748757608960507,0,10000
10,250,0,250,500,750,1000,1250,1500,1750,2000,2250,2,0,1,0.25,0.25,0.25,0.25,0.25,0.25,0.25,0.25,0.25,0.25,-0.5,-0.5,-0.5,-0.5,-0.5,-0.5,-0.5,-0.5,-0.5,-0.5,-0.5,linear,0.025,TRUE,25,FALSE,3,NA,NA,0,0.5,3,fixmodel,0.8382,0.0010106731539689968,0.00719774344579743,0,10000
10,250,0,250,500,750,1000,1250,1500,1750,2000,2250,2,0,1,0.25,0.25,0.25,0.25,0.25,0.25,0.25,0.25,0.25,0.25,-0.5,-0.5,-0.5,-0.5,-0.5,-0.5,-0.5,-0.5,-0.5,-0.5,-0.5,linear,0.025,TRUE,25,FALSE,3,NA,NA,0,0.5,3,sepmodel,0.8027,9.983443844414214e-4,0.007855124572060192,0,10000
10,250,0,250,500,750,1000,1250,1500,1750,2000,2250,2,0,1,0.25,0.25,0.25,0.25,0.25,0.25,0.25,0.25,0.25,0.25,-0.5,-0.5,-0.5,-0.5,-0.5,-0.5,-0.5,-0.5,-0.5,-0.5,-0.5,linear,0.025,TRUE,25,FALSE,3,NA,NA,0,0.5,3,splines,0.841,0.0011651666046970629,0.0071566331031903355,0,10000
10,250,0,250,500,750,1000,1250,1500,1750,2000,2250,2,0,1,0.25,0.25,0.25,0.25,0.25,0.25,0.25,0.25,0.25,0.25,-0.5,-0.5,-0.5,-0.5,-0.5,-0.5,-0.5,-0.5,-0.5,-0.5,-0.5,linear,0.025,TRUE,25,FALSE,3,NA,NA,0,0.5,3,splines_cal,0.8395,0.0010915796433929193,0.0071628010758382245,0,10000
10,250,0,250,500,750,1000,1250,1500,1750,2000,2250,2,0,1,0.25,0.25,0.25,0.25,0.25,0.25,0.25,0.25,0.25,0.25,-0.5,-0.5,-0.5,-0.5,-0.5,-0.5,-0.5,-0.5,-0.5,-0.5,-0.5,linear,0.025,TRUE,25,FALSE,3,NA,NA,0,0.5,4,fixmodel,0.8366,-6.143341324572706e-4,0.007214059522685524,0,10000
10,250,0,250,500,750,1000,1250,1500,1750,2000,2250,2,0,1,0.25,0.25,0.25,0.25,0.25,0.25,0.25,0.25,0.25,0.25,-0.5,-0.5,-0.5,-0.5,-0.5,-0.5,-0.5,-0.5,-0.5,-0.5,-0.5,linear,0.025,TRUE,25,FALSE,3,NA,NA,0,0.5,4,sepmodel,0.7939,-3.902488367778241e-4,0.008062427795015195,0,10000
10,250,0,250,500,750,1000,1250,1500,1750,2000,2250,2,0,1,0.25,0.25,0.25,0.25,0.25,0.25,0.25,0.25,0.25,0.25,-0.5,-0.5,-0.5,-0.5,-0.5,-0.5,-0.5,-0.5,-0.5,-0.5,-0.5,linear,0.025,TRUE,25,FALSE,3,NA,NA,0,0.5,4,splines,0.8383,-4.304493256912698e-4,0.007170784336858533,0,10000
10,250,0,250,500,750,1000,1250,1500,1750,2000,2250,2,0,1,0.25,0.25,0.25,0.25,0.25,0.25,0.25,0.25,0.25,0.25,-0.5,-0.5,-0.5,-0.5,-0.5,-0.5,-0.5,-0.5,-0.5,-0.5,-0.5,linear,0.025,TRUE,25,FALSE,3,NA,NA,0,0.5,4,splines_cal,0.8385,-5.608038044123743e-4,0.007206980047541913,0,10000
10,250,0,250,500,750,1000,1250,1500,1750,2000,2250,2,0,1,0.25,0.25,0.25,0.25,0.25,0.25,0.25,0.25,0.25,0.25,-0.5,-0.5,-0.5,-0.5,-0.5,-0.5,-0.5,-0.5,-0.5,-0.5,-0.5,linear,0.025,TRUE,25,FALSE,3,NA,NA,0,0.5,5,fixmodel,0.8371,-1.1431784652472961e-4,0.00732301588665625,0,10000
10,250,0,250,500,750,1000,1250,1500,1750,2000,2250,2,0,1,0.25,0.25,0.25,0.25,0.25,0.25,0.25,0.25,0.25,0.25,-0.5,-0.5,-0.5,-0.5,-0.5,-0.5,-0.5,-0.5,-0.5,-0.5,-0.5,linear,0.025,TRUE,25,FALSE,3,NA,NA,0,0.5,5,sepmodel,0.792,4.9156760795088564e-5,0.008256122614287762,0,10000
10,250,0,250,500,750,1000,1250,1500,1750,2000,2250,2,0,1,0.25,0.25,0.25,0.25,0.25,0.25,0.25,0.25,0.25,0.25,-0.5,-0.5,-0.5,-0.5,-0.5,-0.5,-0.5,-0.5,-0.5,-0.5,-0.5,linear,0.025,TRUE,25,FALSE,3,NA,NA,0,0.5,5,splines,0.8392,-2.474022556064944e-5,0.007294606016476809,0,10000
10,250,0,250,500,750,1000,1250,1500,1750,2000,2250,2,0,1,0.25,0.25,0.25,0.25,0.25,0.25,0.25,0.25,0.25,0.25,-0.5,-0.5,-0.5,-0.5,-0.5,-0.5,-0.5,-0.5,-0.5,-0.5,-0.5,linear,0.025,TRUE,25,FALSE,3,NA,NA,0,0.5,5,splines_cal,0.8361,-4.476070141950201e-5,0.007321704102874397,0,10000
10,250,0,250,500,750,1000,1250,1500,1750,2000,2250,2,0,1,0.25,0.25,0.25,0.25,0.25,0.25,0.25,0.25,0.25,0.25,-0.5,-0.5,-0.5,-0.5,-0.5,-0.5,-0.5,-0.5,-0.5,-0.5,-0.5,linear,0.025,TRUE,25,FALSE,3,NA,NA,0,0.5,6,fixmodel,0.8428,-0.0012537076512301715,0.0069097752500539246,0,10000
10,250,0,250,500,750,1000,1250,1500,1750,2000,2250,2,0,1,0.25,0.25,0.25,0.25,0.25,0.25,0.25,0.25,0.25,0.25,-0.5,-0.5,-0.5,-0.5,-0.5,-0.5,-0.5,-0.5,-0.5,-0.5,-0.5,linear,0.025,TRUE,25,FALSE,3,NA,NA,0,0.5,6,sepmodel,0.794,-9.927951127911322e-4,0.007857880504012024,0,10000
10,250,0,250,500,750,1000,1250,1500,1750,2000,2250,2,0,1,0.25,0.25,0.25,0.25,0.25,0.25,0.25,0.25,0.25,0.25,-0.5,-0.5,-0.5,-0.5,-0.5,-0.5,-0.5,-0.5,-0.5,-0.5,-0.5,linear,0.025,TRUE,25,FALSE,3,NA,NA,0,0.5,6,splines,0.8444,-0.0012517063704004542,0.006885223096038152,0,10000
10,250,0,250,500,750,1000,1250,1500,1750,2000,2250,2,0,1,0.25,0.25,0.25,0.25,0.25,0.25,0.25,0.25,0.25,0.25,-0.5,-0.5,-0.5,-0.5,-0.5,-0.5,-0.5,-0.5,-0.5,-0.5,-0.5,linear,0.025,TRUE,25,FALSE,3,NA,NA,0,0.5,6,splines_cal,0.8439,-0.0011918219357395729,0.006916543386206663,0,10000
10,250,0,250,500,750,1000,1250,1500,1750,2000,2250,2,0,1,0.25,0.25,0.25,0.25,0.25,0.25,0.25,0.25,0.25,0.25,-0.5,-0.5,-0.5,-0.5,-0.5,-0.5,-0.5,-0.5,-0.5,-0.5,-0.5,linear,0.025,TRUE,25,FALSE,3,NA,NA,0,0.5,7,fixmodel,0.8451,-0.0013376583082529085,0.007037001156210695,0,10000
10,250,0,250,500,750,1000,1250,1500,1750,2000,2250,2,0,1,0.25,0.25,0.25,0.25,0.25,0.25,0.25,0.25,0.25,0.25,-0.5,-0.5,-0.5,-0.5,-0.5,-0.5,-0.5,-0.5,-0.5,-0.5,-0.5,linear,0.025,TRUE,25,FALSE,3,NA,NA,0,0.5,7,sepmodel,0.7965,-0.0010566089351147694,0.008036505899269807,0,10000
10,250,0,250,500,750,1000,1250,1500,1750,2000,2250,2,0,1,0.25,0.25,0.25,0.25,0.25,0.25,0.25,0.25,0.25,0.25,-0.5,-0.5,-0.5,-0.5,-0.5,-0.5,-0.5,-0.5,-0.5,-0.5,-0.5,linear,0.025,TRUE,25,FALSE,3,NA,NA,0,0.5,7,splines,0.8471,-0.0013297838514052672,0.007021211752994731,0,10000
10,250,0,250,500,750,1000,1250,1500,1750,2000,2250,2,0,1,0.25,0.25,0.25,0.25,0.25,0.25,0.25,0.25,0.25,0.25,-0.5,-0.5,-0.5,-0.5,-0.5,-0.5,-0.5,-0.5,-0.5,-0.5,-0.5,linear,0.025,TRUE,25,FALSE,3,NA,NA,0,0.5,7,splines_cal,0.8454,-0.0013424270793554309,0.0070473220075244454,0,10000
10,250,0,250,500,750,1000,1250,1500,1750,2000,2250,2,0,1,0.25,0.25,0.25,0.25,0.25,0.25,0.25,0.25,0.25,0.25,-0.5,-0.5,-0.5,-0.5,-0.5,-0.5,-0.5,-0.5,-0.5,-0.5,-0.5,linear,0.025,TRUE,25,FALSE,3,NA,NA,0,0.5,8,fixmodel,0.8481,3.5485528446534256e-5,0.0070627905075337245,0,10000
10,250,0,250,500,750,1000,1250,1500,1750,2000,2250,2,0,1,0.25,0.25,0.25,0.25,0.25,0.25,0.25,0.25,0.25,0.25,-0.5,-0.5,-0.5,-0.5,-0.5,-0.5,-0.5,-0.5,-0.5,-0.5,-0.5,linear,0.025,TRUE,25,FALSE,3,NA,NA,0,0.5,8,sepmodel,0.7979,3.2741366058232867e-4,0.008134259820549479,0,10000
10,250,0,250,500,750,1000,1250,1500,1750,2000,2250,2,0,1,0.25,0.25,0.25,0.25,0.25,0.25,0.25,0.25,0.25,0.25,-0.5,-0.5,-0.5,-0.5,-0.5,-0.5,-0.5,-0.5,-0.5,-0.5,-0.5,linear,0.025,TRUE,25,FALSE,3,NA,NA,0,0.5,8,splines,0.8496,8.855349705626737e-7,0.00704175850112872,0,10000
10,250,0,250,500,750,1000,1250,1500,1750,2000,2250,2,0,1,0.25,0.25,0.25,0.25,0.25,0.25,0.25,0.25,0.25,0.25,-0.5,-0.5,-0.5,-0.5,-0.5,-0.5,-0.5,-0.5,-0.5,-0.5,-0.5,linear,0.025,TRUE,25,FALSE,3,NA,NA,0,0.5,8,splines_cal,0.849,2.1566234696411082e-5,0.007064434291949736,0,10000
10,250,0,250,500,750,1000,1250,1500,1750,2000,2250,2,0,1,0.25,0.25,0.25,0.25,0.25,0.25,0.25,0.25,0.25,0.25,-0.5,-0.5,-0.5,-0.5,-0.5,-0.5,-0.5,-0.5,-0.5,-0.5,-0.5,linear,0.025,TRUE,25,FALSE,3,NA,NA,0,0.5,9,fixmodel,0.8485,-1.7811257496164022e-4,0.006894294179156229,0,10000
10,250,0,250,500,750,1000,1250,1500,1750,2000,2250,2,0,1,0.25,0.25,0.25,0.25,0.25,0.25,0.25,0.25,0.25,0.25,-0.5,-0.5,-0.5,-0.5,-0.5,-0.5,-0.5,-0.5,-0.5,-0.5,-0.5,linear,0.025,TRUE,25,FALSE,3,NA,NA,0,0.5,9,sepmodel,0.7947,-1.2225740202176076e-4,0.007978828102429692,0,10000
10,250,0,250,500,750,1000,1250,1500,1750,2000,2250,2,0,1,0.25,0.25,0.25,0.25,0.25,0.25,0.25,0.25,0.25,0.25,-0.5,-0.5,-0.5,-0.5,-0.5,-0.5,-0.5,-0.5,-0.5,-0.5,-0.5,linear,0.025,TRUE,25,FALSE,3,NA,NA,0,0.5,9,splines,0.8504,-1.7956937706758752e-4,0.006876508936828788,0,10000
10,250,0,250,500,750,1000,1250,1500,1750,2000,2250,2,0,1,0.25,0.25,0.25,0.25,0.25,0.25,0.25,0.25,0.25,0.25,-0.5,-0.5,-0.5,-0.5,-0.5,-0.5,-0.5,-0.5,-0.5,-0.5,-0.5,linear,0.025,TRUE,25,FALSE,3,NA,NA,0,0.5,9,splines_cal,0.8489,-2.04644573823884e-4,0.006906390235697315,0,10000
10,250,0,250,500,750,1000,1250,1500,1750,2000,2250,2,0,1,0.25,0.25,0.25,0.25,0.25,0.25,0.25,0.25,0.25,0.25,-0.5,-0.5,-0.5,-0.5,-0.5,-0.5,-0.5,-0.5,-0.5,-0.5,-0.5,linear,0.025,TRUE,25,FALSE,3,NA,NA,0,0.5,10,fixmodel,0.8532,-6.437621503149023e-4,0.0070018056972392185,0,10000
10,250,0,250,500,750,1000,1250,1500,1750,2000,2250,2,0,1,0.25,0.25,0.25,0.25,0.25,0.25,0.25,0.25,0.25,0.25,-0.5,-0.5,-0.5,-0.5,-0.5,-0.5,-0.5,-0.5,-0.5,-0.5,-0.5,linear,0.025,TRUE,25,FALSE,3,NA,NA,0,0.5,10,sepmodel,0.7935,-3.443889590339274e-4,0.008128421361247225,0,10000
10,250,0,250,500,750,1000,1250,1500,1750,2000,2250,2,0,1,0.25,0.25,0.25,0.25,0.25,0.25,0.25,0.25,0.25,0.25,-0.5,-0.5,-0.5,-0.5,-0.5,-0.5,-0.5,-0.5,-0.5,-0.5,-0.5,linear,0.025,TRUE,25,FALSE,3,NA,NA,0,0.5,10,splines,0.8536,-5.756222632078919e-4,0.006984265840898869,0,10000
10,250,0,250,500,750,1000,1250,1500,1750,2000,2250,2,0,1,0.25,0.25,0.25,0.25,0.25,0.25,0.25,0.25,0.25,0.25,-0.5,-0.5,-0.5,-0.5,-0.5,-0.5,-0.5,-0.5,-0.5,-0.5,-0.5,linear,0.025,TRUE,25,FALSE,3,NA,NA,0,0.5,10,splines_cal,0.8519,-6.206762574205649e-4,0.007018929006870559,0,10000
10,250,0,250,500,750,1000,1250,1500,1750,2000,2250,2,0,1,0.25,0.25,0.25,0.25,0.25,0.25,0.25,0.25,0.25,0.25,-0.5,-0.5,-0.5,-0.5,-0.5,-0.5,-0.5,-0.5,-0.5,-0.5,-0.5,linear,0.025,TRUE,50,FALSE,1,NA,NA,0,0.5,2,fixmodel,0.8239,-3.380429717901817e-4,0.007669304698581443,0,10000
10,250,0,250,500,750,1000,1250,1500,1750,2000,2250,2,0,1,0.25,0.25,0.25,0.25,0.25,0.25,0.25,0.25,0.25,0.25,-0.5,-0.5,-0.5,-0.5,-0.5,-0.5,-0.5,-0.5,-0.5,-0.5,-0.5,linear,0.025,TRUE,50,FALSE,1,NA,NA,0,0.5,2,sepmodel,0.7939,-6.117476799125773e-5,0.008168904669992552,0,10000
10,250,0,250,500,750,1000,1250,1500,1750,2000,2250,2,0,1,0.25,0.25,0.25,0.25,0.25,0.25,0.25,0.25,0.25,0.25,-0.5,-0.5,-0.5,-0.5,-0.5,-0.5,-0.5,-0.5,-0.5,-0.5,-0.5,linear,0.025,TRUE,50,FALSE,1,NA,NA,0,0.5,2,splines,0.8282,-2.1722159494115228e-4,0.007534114911069742,0,10000
10,250,0,250,500,750,1000,1250,1500,1750,2000,2250,2,0,1,0.25,0.25,0.25,0.25,0.25,0.25,0.25,0.25,0.25,0.25,-0.5,-0.5,-0.5,-0.5,-0.5,-0.5,-0.5,-0.5,-0.5,-0.5,-0.5,linear,0.025,TRUE,50,FALSE,1,NA,NA,0,0.5,2,splines_cal,0.8261,-3.0506909617761366e-4,0.007574319531060476,0,10000
10,250,0,250,500,750,1000,1250,1500,1750,2000,2250,2,0,1,0.25,0.25,0.25,0.25,0.25,0.25,0.25,0.25,0.25,0.25,-0.5,-0.5,-0.5,-0.5,-0.5,-0.5,-0.5,-0.5,-0.5,-0.5,-0.5,linear,0.025,TRUE,50,FALSE,1,NA,NA,0,0.5,3,fixmodel,0.8286,-0.0011043987236225386,0.007421394731282016,0,10000
10,250,0,250,500,750,1000,1250,1500,1750,2000,2250,2,0,1,0.25,0.25,0.25,0.25,0.25,0.25,0.25,0.25,0.25,0.25,-0.5,-0.5,-0.5,-0.5,-0.5,-0.5,-0.5,-0.5,-0.5,-0.5,-0.5,linear,0.025,TRUE,50,FALSE,1,NA,NA,0,0.5,3,sepmodel,0.7945,-0.001037383259473451,0.008150038621808063,0,10000
10,250,0,250,500,750,1000,1250,1500,1750,2000,2250,2,0,1,0.25,0.25,0.25,0.25,0.25,0.25,0.25,0.25,0.25,0.25,-0.5,-0.5,-0.5,-0.5,-0.5,-0.5,-0.5,-0.5,-0.5,-0.5,-0.5,linear,0.025,TRUE,50,FALSE,1,NA,NA,0,0.5,3,splines,0.8316,-0.0011709712999447377,0.007339154906303404,0,10000
10,250,0,250,500,750,1000,1250,1500,1750,2000,2250,2,0,1,0.25,0.25,0.25,0.25,0.25,0.25,0.25,0.25,0.25,0.25,-0.5,-0.5,-0.5,-0.5,-0.5,-0.5,-0.5,-0.5,-0.5,-0.5,-0.5,linear,0.025,TRUE,50,FALSE,1,NA,NA,0,0.5,3,splines_cal,0.8319,-0.0010170155380134715,0.007353515495125429,0,10000
10,250,0,250,500,750,1000,1250,1500,1750,2000,2250,2,0,1,0.25,0.25,0.25,0.25,0.25,0.25,0.25,0.25,0.25,0.25,-0.5,-0.5,-0.5,-0.5,-0.5,-0.5,-0.5,-0.5,-0.5,-0.5,-0.5,linear,0.025,TRUE,50,FALSE,1,NA,NA,0,0.5,4,fixmodel,0.8265,-0.0015268976820491207,0.007453821135714621,0,10000
10,250,0,250,500,750,1000,1250,1500,1750,2000,2250,2,0,1,0.25,0.25,0.25,0.25,0.25,0.25,0.25,0.25,0.25,0.25,-0.5,-0.5,-0.5,-0.5,-0.5,-0.5,-0.5,-0.5,-0.5,-0.5,-0.5,linear,0.025,TRUE,50,FALSE,1,NA,NA,0,0.5,4,sepmodel,0.7886,-0.0016155147284301907,0.008315832709930084,0,10000
10,250,0,250,500,750,1000,1250,1500,1750,2000,2250,2,0,1,0.25,0.25,0.25,0.25,0.25,0.25,0.25,0.25,0.25,0.25,-0.5,-0.5,-0.5,-0.5,-0.5,-0.5,-0.5,-0.5,-0.5,-0.5,-0.5,linear,0.025,TRUE,50,FALSE,1,NA,NA,0,0.5,4,splines,0.8291,-0.0015707977248448951,0.00738684377373756,0,10000
10,250,0,250,500,750,1000,1250,1500,1750,2000,2250,2,0,1,0.25,0.25,0.25,0.25,0.25,0.25,0.25,0.25,0.25,0.25,-0.5,-0.5,-0.5,-0.5,-0.5,-0.5,-0.5,-0.5,-0.5,-0.5,-0.5,linear,0.025,TRUE,50,FALSE,1,NA,NA,0,0.5,4,splines_cal,0.8313,-0.001430653865458423,0.007345070021118134,0,10000
10,250,0,250,500,750,1000,1250,1500,1750,2000,2250,2,0,1,0.25,0.25,0.25,0.25,0.25,0.25,0.25,0.25,0.25,0.25,-0.5,-0.5,-0.5,-0.5,-0.5,-0.5,-0.5,-0.5,-0.5,-0.5,-0.5,linear,0.025,TRUE,50,FALSE,1,NA,NA,0,0.5,5,fixmodel,0.8389,-0.0011118937941236443,0.0071603537810236385,0,10000
10,250,0,250,500,750,1000,1250,1500,1750,2000,2250,2,0,1,0.25,0.25,0.25,0.25,0.25,0.25,0.25,0.25,0.25,0.25,-0.5,-0.5,-0.5,-0.5,-0.5,-0.5,-0.5,-0.5,-0.5,-0.5,-0.5,linear,0.025,TRUE,50,FALSE,1,NA,NA,0,0.5,5,sepmodel,0.7904,-0.001212981637590056,0.008122739643341684,0,10000
10,250,0,250,500,750,1000,1250,1500,1750,2000,2250,2,0,1,0.25,0.25,0.25,0.25,0.25,0.25,0.25,0.25,0.25,0.25,-0.5,-0.5,-0.5,-0.5,-0.5,-0.5,-0.5,-0.5,-0.5,-0.5,-0.5,linear,0.025,TRUE,50,FALSE,1,NA,NA,0,0.5,5,splines,0.839,-0.0012038269753522084,0.007124648641525101,0,10000
10,250,0,250,500,750,1000,1250,1500,1750,2000,2250,2,0,1,0.25,0.25,0.25,0.25,0.25,0.25,0.25,0.25,0.25,0.25,-0.5,-0.5,-0.5,-0.5,-0.5,-0.5,-0.5,-0.5,-0.5,-0.5,-0.5,linear,0.025,TRUE,50,FALSE,1,NA,NA,0,0.5,5,splines_cal,0.8382,-0.001130057031969752,0.0071374941329623584,0,10000
10,250,0,250,500,750,1000,1250,1500,1750,2000,2250,2,0,1,0.25,0.25,0.25,0.25,0.25,0.25,0.25,0.25,0.25,0.25,-0.5,-0.5,-0.5,-0.5,-0.5,-0.5,-0.5,-0.5,-0.5,-0.5,-0.5,linear,0.025,TRUE,50,FALSE,1,NA,NA,0,0.5,6,fixmodel,0.8483,6.027057758795309e-4,0.007051866028607574,0,10000
10,250,0,250,500,750,1000,1250,1500,1750,2000,2250,2,0,1,0.25,0.25,0.25,0.25,0.25,0.25,0.25,0.25,0.25,0.25,-0.5,-0.5,-0.5,-0.5,-0.5,-0.5,-0.5,-0.5,-0.5,-0.5,-0.5,linear,0.025,TRUE,50,FALSE,1,NA,NA,0,0.5,6,sepmodel,0.7976,5.078055899488951e-4,0.008075177062423732,0,10000
10,250,0,250,500,750,1000,1250,1500,1750,2000,2250,2,0,1,0.25,0.25,0.25,0.25,0.25,0.25,0.25,0.25,0.25,0.25,-0.5,-0.5,-0.5,-0.5,-0.5,-0.5,-0.5,-0.5,-0.5,-0.5,-0.5,linear,0.025,TRUE,50,FALSE,1,NA,NA,0,0.5,6,splines,0.8481,5.5440023750759e-4,0.007024031184234397,0,10000
10,250,0,250,500,750,1000,1250,1500,1750,2000,2250,2,0,1,0.25,0.25,0.25,0.25,0.25,0.25,0.25,0.25,0.25,0.25,-0.5,-0.5,-0.5,-0.5,-0.5,-0.5,-0.5,-0.5,-0.5,-0.5,-0.5,linear,0.025,TRUE,50,FALSE,1,NA,NA,0,0.5,6,splines_cal,0.8484,6.944457424775213e-4,0.007027508488395109,0,10000
10,250,0,250,500,750,1000,1250,1500,1750,2000,2250,2,0,1,0.25,0.25,0.25,0.25,0.25,0.25,0.25,0.25,0.25,0.25,-0.5,-0.5,-0.5,-0.5,-0.5,-0.5,-0.5,-0.5,-0.5,-0.5,-0.5,linear,0.025,TRUE,50,FALSE,1,NA,NA,0,0.5,7,fixmodel,0.8517,3.2093099968945815e-4,0.006959736866933846,0,10000
10,250,0,250,500,750,1000,1250,1500,1750,2000,2250,2,0,1,0.25,0.25,0.25,0.25,0.25,0.25,0.25,0.25,0.25,0.25,-0.5,-0.5,-0.5,-0.5,-0.5,-0.5,-0.5,-0.5,-0.5,-0.5,-0.5,linear,0.025,TRUE,50,FALSE,1,NA,NA,0,0.5,7,sepmodel,0.7946,6.806870991538232e-4,0.00796618563922622,0,10000
10,250,0,250,500,750,1000,1250,1500,1750,2000,2250,2,0,1,0.25,0.25,0.25,0.25,0.25,0.25,0.25,0.25,0.25,0.25,-0.5,-0.5,-0.5,-0.5,-0.5,-0.5,-0.5,-0.5,-0.5,-0.5,-0.5,linear,0.025,TRUE,50,FALSE,1,NA,NA,0,0.5,7,splines,0.8529,2.733901811532695e-4,0.0069565444004489425,0,10000
10,250,0,250,500,750,1000,1250,1500,1750,2000,2250,2,0,1,0.25,0.25,0.25,0.25,0.25,0.25,0.25,0.25,0.25,0.25,-0.5,-0.5,-0.5,-0.5,-0.5,-0.5,-0.5,-0.5,-0.5,-0.5,-0.5,linear,0.025,TRUE,50,FALSE,1,NA,NA,0,0.5,7,splines_cal,0.8544,2.5909336334216913e-4,0.006897426172128774,0,10000
10,250,0,250,500,750,1000,1250,1500,1750,2000,2250,2,0,1,0.25,0.25,0.25,0.25,0.25,0.25,0.25,0.25,0.25,0.25,-0.5,-0.5,-0.5,-0.5,-0.5,-0.5,-0.5,-0.5,-0.5,-0.5,-0.5,linear,0.025,TRUE,50,FALSE,1,NA,NA,0,0.5,8,fixmodel,0.8504,-3.475235083085971e-4,0.007019977485631973,0,10000
10,250,0,250,500,750,1000,1250,1500,1750,2000,2250,2,0,1,0.25,0.25,0.25,0.25,0.25,0.25,0.25,0.25,0.25,0.25,-0.5,-0.5,-0.5,-0.5,-0.5,-0.5,-0.5,-0.5,-0.5,-0.5,-0.5,linear,0.025,TRUE,50,FALSE,1,NA,NA,0,0.5,8,sepmodel,0.7935,6.093836880336083e-5,0.00810488782711334,0,10000
10,250,0,250,500,750,1000,1250,1500,1750,2000,2250,2,0,1,0.25,0.25,0.25,0.25,0.25,0.25,0.25,0.25,0.25,0.25,-0.5,-0.5,-0.5,-0.5,-0.5,-0.5,-0.5,-0.5,-0.5,-0.5,-0.5,linear,0.025,TRUE,50,FALSE,1,NA,NA,0,0.5,8,splines,0.8518,-3.598378780452956e-4,0.00699836194213262,0,10000
10,250,0,250,500,750,1000,1250,1500,1750,2000,2250,2,0,1,0.25,0.25,0.25,0.25,0.25,0.25,0.25,0.25,0.25,0.25,-0.5,-0.5,-0.5,-0.5,-0.5,-0.5,-0.5,-0.5,-0.5,-0.5,-0.5,linear,0.025,TRUE,50,FALSE,1,NA,NA,0,0.5,8,splines_cal,0.8559,-1.3185580643840106e-4,0.006934944828049161,0,10000
10,250,0,250,500,750,1000,1250,1500,1750,2000,2250,2,0,1,0.25,0.25,0.25,0.25,0.25,0.25,0.25,0.25,0.25,0.25,-0.5,-0.5,-0.5,-0.5,-0.5,-0.5,-0.5,-0.5,-0.5,-0.5,-0.5,linear,0.025,TRUE,50,FALSE,1,NA,NA,0,0.5,9,fixmodel,0.8526,5.6561779383853824e-5,0.007012563963841265,0,10000
10,250,0,250,500,750,1000,1250,1500,1750,2000,2250,2,0,1,0.25,0.25,0.25,0.25,0.25,0.25,0.25,0.25,0.25,0.25,-0.5,-0.5,-0.5,-0.5,-0.5,-0.5,-0.5,-0.5,-0.5,-0.5,-0.5,linear,0.025,TRUE,50,FALSE,1,NA,NA,0,0.5,9,sepmodel,0.7981,5.389861812709055e-4,0.008131615066720598,0,10000
10,250,0,250,500,750,1000,1250,1500,1750,2000,2250,2,0,1,0.25,0.25,0.25,0.25,0.25,0.25,0.25,0.25,0.25,0.25,-0.5,-0.5,-0.5,-0.5,-0.5,-0.5,-0.5,-0.5,-0.5,-0.5,-0.5,linear,0.025,TRUE,50,FALSE,1,NA,NA,0,0.5,9,splines,0.8519,6.855815136700456e-5,0.007008230894294139,0,10000
10,250,0,250,500,750,1000,1250,1500,1750,2000,2250,2,0,1,0.25,0.25,0.25,0.25,0.25,0.25,0.25,0.25,0.25,0.25,-0.5,-0.5,-0.5,-0.5,-0.5,-0.5,-0.5,-0.5,-0.5,-0.5,-0.5,linear,0.025,TRUE,50,FALSE,1,NA,NA,0,0.5,9,splines_cal,0.8527,8.019760169361892e-5,0.0069834051969768374,0,10000
10,250,0,250,500,750,1000,1250,1500,1750,2000,2250,2,0,1,0.25,0.25,0.25,0.25,0.25,0.25,0.25,0.25,0.25,0.25,-0.5,-0.5,-0.5,-0.5,-0.5,-0.5,-0.5,-0.5,-0.5,-0.5,-0.5,linear,0.025,TRUE,50,FALSE,1,NA,NA,0,0.5,10,fixmodel,0.8518,-9.601558586648262e-4,0.006879140159025693,0,10000
10,250,0,250,500,750,1000,1250,1500,1750,2000,2250,2,0,1,0.25,0.25,0.25,0.25,0.25,0.25,0.25,0.25,0.25,0.25,-0.5,-0.5,-0.5,-0.5,-0.5,-0.5,-0.5,-0.5,-0.5,-0.5,-0.5,linear,0.025,TRUE,50,FALSE,1,NA,NA,0,0.5,10,sepmodel,0.7945,-9.440961941479197e-4,0.007899654592400497,0,10000
10,250,0,250,500,750,1000,1250,1500,1750,2000,2250,2,0,1,0.25,0.25,0.25,0.25,0.25,0.25,0.25,0.25,0.25,0.25,-0.5,-0.5,-0.5,-0.5,-0.5,-0.5,-0.5,-0.5,-0.5,-0.5,-0.5,linear,0.025,TRUE,50,FALSE,1,NA,NA,0,0.5,10,splines,0.8519,-9.517482781737049e-4,0.0068702356756674375,0,10000
10,250,0,250,500,750,1000,1250,1500,1750,2000,2250,2,0,1,0.25,0.25,0.25,0.25,0.25,0.25,0.25,0.25,0.25,0.25,-0.5,-0.5,-0.5,-0.5,-0.5,-0.5,-0.5,-0.5,-0.5,-0.5,-0.5,linear,0.025,TRUE,50,FALSE,1,NA,NA,0,0.5,10,splines_cal,0.8522,-9.439182319893858e-4,0.006878855438271891,0,10000
10,250,0,250,500,750,1000,1250,1500,1750,2000,2250,2,0,1,0.25,0.25,0.25,0.25,0.25,0.25,0.25,0.25,0.25,0.25,-0.5,-0.5,-0.5,-0.5,-0.5,-0.5,-0.5,-0.5,-0.5,-0.5,-0.5,linear,0.025,TRUE,50,FALSE,2,NA,NA,0,0.5,2,fixmodel,0.8206,-9.944414233458974e-4,0.0074594686303530704,0,10000
10,250,0,250,500,750,1000,1250,1500,1750,2000,2250,2,0,1,0.25,0.25,0.25,0.25,0.25,0.25,0.25,0.25,0.25,0.25,-0.5,-0.5,-0.5,-0.5,-0.5,-0.5,-0.5,-0.5,-0.5,-0.5,-0.5,linear,0.025,TRUE,50,FALSE,2,NA,NA,0,0.5,2,sepmodel,0.7927,-9.330285273610164e-4,0.007919123457152361,0,10000
10,250,0,250,500,750,1000,1250,1500,1750,2000,2250,2,0,1,0.25,0.25,0.25,0.25,0.25,0.25,0.25,0.25,0.25,0.25,-0.5,-0.5,-0.5,-0.5,-0.5,-0.5,-0.5,-0.5,-0.5,-0.5,-0.5,linear,0.025,TRUE,50,FALSE,2,NA,NA,0,0.5,2,splines,0.8252,-9.212127208402382e-4,0.007361706807333183,0,10000
10,250,0,250,500,750,1000,1250,1500,1750,2000,2250,2,0,1,0.25,0.25,0.25,0.25,0.25,0.25,0.25,0.25,0.25,0.25,-0.5,-0.5,-0.5,-0.5,-0.5,-0.5,-0.5,-0.5,-0.5,-0.5,-0.5,linear,0.025,TRUE,50,FALSE,2,NA,NA,0,0.5,2,splines_cal,0.8249,-8.691345589421841e-4,0.007362640125831521,0,10000
10,250,0,250,500,750,1000,1250,1500,1750,2000,2250,2,0,1,0.25,0.25,0.25,0.25,0.25,0.25,0.25,0.25,0.25,0.25,-0.5,-0.5,-0.5,-0.5,-0.5,-0.5,-0.5,-0.5,-0.5,-0.5,-0.5,linear,0.025,TRUE,50,FALSE,2,NA,NA,0,0.5,3,fixmodel,0.8318,4.38298005544807e-5,0.0073700696215543106,0,10000
10,250,0,250,500,750,1000,1250,1500,1750,2000,2250,2,0,1,0.25,0.25,0.25,0.25,0.25,0.25,0.25,0.25,0.25,0.25,-0.5,-0.5,-0.5,-0.5,-0.5,-0.5,-0.5,-0.5,-0.5,-0.5,-0.5,linear,0.025,TRUE,50,FALSE,2,NA,NA,0,0.5,3,sepmodel,0.7968,-4.0395566074915365e-5,0.00805092333935605,0,10000
10,250,0,250,500,750,1000,1250,1500,1750,2000,2250,2,0,1,0.25,0.25,0.25,0.25,0.25,0.25,0.25,0.25,0.25,0.25,-0.5,-0.5,-0.5,-0.5,-0.5,-0.5,-0.5,-0.5,-0.5,-0.5,-0.5,linear,0.025,TRUE,50,FALSE,2,NA,NA,0,0.5,3,splines,0.8332,8.327936637452517e-5,0.00731742242326393,0,10000
10,250,0,250,500,750,1000,1250,1500,1750,2000,2250,2,0,1,0.25,0.25,0.25,0.25,0.25,0.25,0.25,0.25,0.25,0.25,-0.5,-0.5,-0.5,-0.5,-0.5,-0.5,-0.5,-0.5,-0.5,-0.5,-0.5,linear,0.025,TRUE,50,FALSE,2,NA,NA,0,0.5,3,splines_cal,0.8341,1.1389323076303046e-4,0.007319998733883704,0,10000
10,250,0,250,500,750,1000,1250,1500,1750,2000,2250,2,0,1,0.25,0.25,0.25,0.25,0.25,0.25,0.25,0.25,0.25,0.25,-0.5,-0.5,-0.5,-0.5,-0.5,-0.5,-0.5,-0.5,-0.5,-0.5,-0.5,linear,0.025,TRUE,50,FALSE,2,NA,NA,0,0.5,4,fixmodel,0.8351,-6.537156848341837e-4,0.007126495682156887,0,10000
10,250,0,250,500,750,1000,1250,1500,1750,2000,2250,2,0,1,0.25,0.25,0.25,0.25,0.25,0.25,0.25,0.25,0.25,0.25,-0.5,-0.5,-0.5,-0.5,-0.5,-0.5,-0.5,-0.5,-0.5,-0.5,-0.5,linear,0.025,TRUE,50,FALSE,2,NA,NA,0,0.5,4,sepmodel,0.7977,-5.870194825139326e-4,0.007860709899962738,0,10000
10,250,0,250,500,750,1000,1250,1500,1750,2000,2250,2,0,1,0.25,0.25,0.25,0.25,0.25,0.25,0.25,0.25,0.25,0.25,-0.5,-0.5,-0.5,-0.5,-0.5,-0.5,-0.5,-0.5,-0.5,-0.5,-0.5,linear,0.025,TRUE,50,FALSE,2,NA,NA,0,0.5,4,splines,0.8369,-6.868742306044925e-4,0.0070937658876451025,0,10000
10,250,0,250,500,750,1000,1250,1500,1750,2000,2250,2,0,1,0.25,0.25,0.25,0.25,0.25,0.25,0.25,0.25,0.25,0.25,-0.5,-0.5,-0.5,-0.5,-0.5,-0.5,-0.5,-0.5,-0.5,-0.5,-0.5,linear,0.025,TRUE,50,FALSE,2,NA,NA,0,0.5,4,splines_cal,0.8379,-7.558466544502733e-4,0.007067190233133868,0,10000
10,250,0,250,500,750,1000,1250,1500,1750,2000,2250,2,0,1,0.25,0.25,0.25,0.25,0.25,0.25,0.25,0.25,0.25,0.25,-0.5,-0.5,-0.5,-0.5,-0.5,-0.5,-0.5,-0.5,-0.5,-0.5,-0.5,linear,0.025,TRUE,50,FALSE,2,NA,NA,0,0.5,5,fixmodel,0.8441,4.191261834888898e-5,0.0069480376335951605,0,10000
10,250,0,250,500,750,1000,1250,1500,1750,2000,2250,2,0,1,0.25,0.25,0.25,0.25,0.25,0.25,0.25,0.25,0.25,0.25,-0.5,-0.5,-0.5,-0.5,-0.5,-0.5,-0.5,-0.5,-0.5,-0.5,-0.5,linear,0.025,TRUE,50,FALSE,2,NA,NA,0,0.5,5,sepmodel,0.7991,-2.748962745798556e-4,0.00782382330895687,0,10000
10,250,0,250,500,750,1000,1250,1500,1750,2000,2250,2,0,1,0.25,0.25,0.25,0.25,0.25,0.25,0.25,0.25,0.25,0.25,-0.5,-0.5,-0.5,-0.5,-0.5,-0.5,-0.5,-0.5,-0.5,-0.5,-0.5,linear,0.025,TRUE,50,FALSE,2,NA,NA,0,0.5,5,splines,0.8466,8.558551442483361e-6,0.006924450748903288,0,10000
10,250,0,250,500,750,1000,1250,1500,1750,2000,2250,2,0,1,0.25,0.25,0.25,0.25,0.25,0.25,0.25,0.25,0.25,0.25,-0.5,-0.5,-0.5,-0.5,-0.5,-0.5,-0.5,-0.5,-0.5,-0.5,-0.5,linear,0.025,TRUE,50,FALSE,2,NA,NA,0,0.5,5,splines_cal,0.8428,-4.5071169457390275e-5,0.006940695828873422,0,10000
10,250,0,250,500,750,1000,1250,1500,1750,2000,2250,2,0,1,0.25,0.25,0.25,0.25,0.25,0.25,0.25,0.25,0.25,0.25,-0.5,-0.5,-0.5,-0.5,-0.5,-0.5,-0.5,-0.5,-0.5,-0.5,-0.5,linear,0.025,TRUE,50,FALSE,2,NA,NA,0,0.5,6,fixmodel,0.8483,2.8203200576233146e-4,0.006914732647302903,0,10000
10,250,0,250,500,750,1000,1250,1500,1750,2000,2250,2,0,1,0.25,0.25,0.25,0.25,0.25,0.25,0.25,0.25,0.25,0.25,-0.5,-0.5,-0.5,-0.5,-0.5,-0.5,-0.5,-0.5,-0.5,-0.5,-0.5,linear,0.025,TRUE,50,FALSE,2,NA,NA,0,0.5,6,sepmodel,0.7991,-2.1719770988926494e-4,0.007865791705750342,0,10000
10,250,0,250,500,750,1000,1250,1500,1750,2000,2250,2,0,1,0.25,0.25,0.25,0.25,0.25,0.25,0.25,0.25,0.25,0.25,-0.5,-0.5,-0.5,-0.5,-0.5,-0.5,-0.5,-0.5,-0.5,-0.5,-0.5,linear,0.025,TRUE,50,FALSE,2,NA,NA,0,0.5,6,splines,0.8485,2.7597094579362685e-4,0.006906775279519835,0,10000
10,250,0,250,500,750,1000,1250,1500,1750,2000,2250,2,0,1,0.25,0.25,0.25,0.25,0.25,0.25,0.25,0.25,0.25,0.25,-0.5,-0.5,-0.5,-0.5,-0.5,-0.5,-0.5,-0.5,-0.5,-0.5,-0.5,linear,0.025,TRUE,50,FALSE,2,NA,NA,0,0.5,6,splines_cal,0.8508,2.577025927863604e-4,0.006886043291141032,0,10000
10,250,0,250,500,750,1000,1250,1500,1750,2000,2250,2,0,1,0.25,0.25,0.25,0.25,0.25,0.25,0.25,0.25,0.25,0.25,-0.5,-0.5,-0.5,-0.5,-0.5,-0.5,-0.5,-0.5,-0.5,-0.5,-0.5,linear,0.025,TRUE,50,FALSE,2,NA,NA,0,0.5,7,fixmodel,0.8484,-5.754520885970181e-4,0.006949293312157801,0,10000
10,250,0,250,500,750,1000,1250,1500,1750,2000,2250,2,0,1,0.25,0.25,0.25,0.25,0.25,0.25,0.25,0.25,0.25,0.25,-0.5,-0.5,-0.5,-0.5,-0.5,-0.5,-0.5,-0.5,-0.5,-0.5,-0.5,linear,0.025,TRUE,50,FALSE,2,NA,NA,0,0.5,7,sepmodel,0.7952,-9.778219513483476e-4,0.008072160513072855,0,10000
10,250,0,250,500,750,1000,1250,1500,1750,2000,2250,2,0,1,0.25,0.25,0.25,0.25,0.25,0.25,0.25,0.25,0.25,0.25,-0.5,-0.5,-0.5,-0.5,-0.5,-0.5,-0.5,-0.5,-0.5,-0.5,-0.5,linear,0.025,TRUE,50,FALSE,2,NA,NA,0,0.5,7,splines,0.8491,-6.033140030599327e-4,0.00693901868492135,0,10000
10,250,0,250,500,750,1000,1250,1500,1750,2000,2250,2,0,1,0.25,0.25,0.25,0.25,0.25,0.25,0.25,0.25,0.25,0.25,-0.5,-0.5,-0.5,-0.5,-0.5,-0.5,-0.5,-0.5,-0.5,-0.5,-0.5,linear,0.025,TRUE,50,FALSE,2,NA,NA,0,0.5,7,splines_cal,0.8505,-6.440232072481462e-4,0.006906900861833305,0,10000
10,250,0,250,500,750,1000,1250,1500,1750,2000,2250,2,0,1,0.25,0.25,0.25,0.25,0.25,0.25,0.25,0.25,0.25,0.25,-0.5,-0.5,-0.5,-0.5,-0.5,-0.5,-0.5,-0.5,-0.5,-0.5,-0.5,linear,0.025,TRUE,50,FALSE,2,NA,NA,0,0.5,8,fixmodel,0.8534,-1.0140675279930691e-4,0.006882384944737627,0,10000
10,250,0,250,500,750,1000,1250,1500,1750,2000,2250,2,0,1,0.25,0.25,0.25,0.25,0.25,0.25,0.25,0.25,0.25,0.25,-0.5,-0.5,-0.5,-0.5,-0.5,-0.5,-0.5,-0.5,-0.5,-0.5,-0.5,linear,0.025,TRUE,50,FALSE,2,NA,NA,0,0.5,8,sepmodel,0.7963,-3.2961486365556557e-4,0.007944555325677253,0,10000
10,250,0,250,500,750,1000,1250,1500,1750,2000,2250,2,0,1,0.25,0.25,0.25,0.25,0.25,0.25,0.25,0.25,0.25,0.25,-0.5,-0.5,-0.5,-0.5,-0.5,-0.5,-0.5,-0.5,-0.5,-0.5,-0.5,linear,0.025,TRUE,50,FALSE,2,NA,NA,0,0.5,8,splines,0.8548,-7.237423637859754e-5,0.00687357507710426,0,10000
10,250,0,250,500,750,1000,1250,1500,1750,2000,2250,2,0,1,0.25,0.25,0.25,0.25,0.25,0.25,0.25,0.25,0.25,0.25,-0.5,-0.5,-0.5,-0.5,-0.5,-0.5,-0.5,-0.5,-0.5,-0.5,-0.5,linear,0.025,TRUE,50,FALSE,2,NA,NA,0,0.5,8,splines_cal,0.8587,-7.983289706624907e-5,0.0067858090186386,0,10000
10,250,0,250,500,750,1000,1250,1500,1750,2000,2250,2,0,1,0.25,0.25,0.25,0.25,0.25,0.25,0.25,0.25,0.25,0.25,-0.5,-0.5,-0.5,-0.5,-0.5,-0.5,-0.5,-0.5,-0.5,-0.5,-0.5,linear,0.025,TRUE,50,FALSE,2,NA,NA,0,0.5,9,fixmodel,0.8556,-2.3463576790816267e-4,0.006705574413944773,0,10000
10,250,0,250,500,750,1000,1250,1500,1750,2000,2250,2,0,1,0.25,0.25,0.25,0.25,0.25,0.25,0.25,0.25,0.25,0.25,-0.5,-0.5,-0.5,-0.5,-0.5,-0.5,-0.5,-0.5,-0.5,-0.5,-0.5,linear,0.025,TRUE,50,FALSE,2,NA,NA,0,0.5,9,sepmodel,0.7926,-2.648725713368759e-4,0.007853409856388787,0,10000
10,250,0,250,500,750,1000,1250,1500,1750,2000,2250,2,0,1,0.25,0.25,0.25,0.25,0.25,0.25,0.25,0.25,0.25,0.25,-0.5,-0.5,-0.5,-0.5,-0.5,-0.5,-0.5,-0.5,-0.5,-0.5,-0.5,linear,0.025,TRUE,50,FALSE,2,NA,NA,0,0.5,9,splines,0.8564,-2.1808053926857608e-4,0.0066960305033523905,0,10000
10,250,0,250,500,750,1000,1250,1500,1750,2000,2250,2,0,1,0.25,0.25,0.25,0.25,0.25,0.25,0.25,0.25,0.25,0.25,-0.5,-0.5,-0.5,-0.5,-0.5,-0.5,-0.5,-0.5,-0.5,-0.5,-0.5,linear,0.025,TRUE,50,FALSE,2,NA,NA,0,0.5,9,splines_cal,0.8552,-1.9631270256282367e-4,0.00666948860633021,0,10000
10,250,0,250,500,750,1000,1250,1500,1750,2000,2250,2,0,1,0.25,0.25,0.25,0.25,0.25,0.25,0.25,0.25,0.25,0.25,-0.5,-0.5,-0.5,-0.5,-0.5,-0.5,-0.5,-0.5,-0.5,-0.5,-0.5,linear,0.025,TRUE,50,FALSE,2,NA,NA,0,0.5,10,fixmodel,0.8639,0.0026284158328585615,0.006787173969575805,0,10000
10,250,0,250,500,750,1000,1250,1500,1750,2000,2250,2,0,1,0.25,0.25,0.25,0.25,0.25,0.25,0.25,0.25,0.25,0.25,-0.5,-0.5,-0.5,-0.5,-0.5,-0.5,-0.5,-0.5,-0.5,-0.5,-0.5,linear,0.025,TRUE,50,FALSE,2,NA,NA,0,0.5,10,sepmodel,0.8085,0.002557939511486528,0.007897260982582602,0,10000
10,250,0,250,500,750,1000,1250,1500,1750,2000,2250,2,0,1,0.25,0.25,0.25,0.25,0.25,0.25,0.25,0.25,0.25,0.25,-0.5,-0.5,-0.5,-0.5,-0.5,-0.5,-0.5,-0.5,-0.5,-0.5,-0.5,linear,0.025,TRUE,50,FALSE,2,NA,NA,0,0.5,10,splines,0.8645,0.0026340506571692554,0.006763031601709387,0,10000
10,250,0,250,500,750,1000,1250,1500,1750,2000,2250,2,0,1,0.25,0.25,0.25,0.25,0.25,0.25,0.25,0.25,0.25,0.25,-0.5,-0.5,-0.5,-0.5,-0.5,-0.5,-0.5,-0.5,-0.5,-0.5,-0.5,linear,0.025,TRUE,50,FALSE,2,NA,NA,0,0.5,10,splines_cal,0.8636,0.002626952114914153,0.006777049577094168,0,10000
10,250,0,250,500,750,1000,1250,1500,1750,2000,2250,2,0,1,0.25,0.25,0.25,0.25,0.25,0.25,0.25,0.25,0.25,0.25,-0.5,-0.5,-0.5,-0.5,-0.5,-0.5,-0.5,-0.5,-0.5,-0.5,-0.5,linear,0.025,TRUE,50,FALSE,3,NA,NA,0,0.5,2,fixmodel,0.8215,-1.5470652228793545e-4,0.007445486964837353,0,10000
10,250,0,250,500,750,1000,1250,1500,1750,2000,2250,2,0,1,0.25,0.25,0.25,0.25,0.25,0.25,0.25,0.25,0.25,0.25,-0.5,-0.5,-0.5,-0.5,-0.5,-0.5,-0.5,-0.5,-0.5,-0.5,-0.5,linear,0.025,TRUE,50,FALSE,3,NA,NA,0,0.5,2,sepmodel,0.7939,-0.00013487666383666001,0.007934789653607471,0,10000
10,250,0,250,500,750,1000,1250,1500,1750,2000,2250,2,0,1,0.25,0.25,0.25,0.25,0.25,0.25,0.25,0.25,0.25,0.25,-0.5,-0.5,-0.5,-0.5,-0.5,-0.5,-0.5,-0.5,-0.5,-0.5,-0.5,linear,0.025,TRUE,50,FALSE,3,NA,NA,0,0.5,2,splines,0.8256,-8.190191939850981e-5,0.007342668002347003,0,10000
10,250,0,250,500,750,1000,1250,1500,1750,2000,2250,2,0,1,0.25,0.25,0.25,0.25,0.25,0.25,0.25,0.25,0.25,0.25,-0.5,-0.5,-0.5,-0.5,-0.5,-0.5,-0.5,-0.5,-0.5,-0.5,-0.5,linear,0.025,TRUE,50,FALSE,3,NA,NA,0,0.5,2,splines_cal,0.8272,-1.1888130148214982e-4,0.007337555915361631,0,10000
10,250,0,250,500,750,1000,1250,1500,1750,2000,2250,2,0,1,0.25,0.25,0.25,0.25,0.25,0.25,0.25,0.25,0.25,0.25,-0.5,-0.5,-0.5,-0.5,-0.5,-0.5,-0.5,-0.5,-0.5,-0.5,-0.5,linear,0.025,TRUE,50,FALSE,3,NA,NA,0,0.5,3,fixmodel,0.8327,-1.5913594265249849e-4,0.007232742355843805,0,10000
10,250,0,250,500,750,1000,1250,1500,1750,2000,2250,2,0,1,0.25,0.25,0.25,0.25,0.25,0.25,0.25,0.25,0.25,0.25,-0.5,-0.5,-0.5,-0.5,-0.5,-0.5,-0.5,-0.5,-0.5,-0.5,-0.5,linear,0.025,TRUE,50,FALSE,3,NA,NA,0,0.5,3,sepmodel,0.797,-3.599681521429149e-4,0.007940579640236844,0,10000
10,250,0,250,500,750,1000,1250,1500,1750,2000,2250,2,0,1,0.25,0.25,0.25,0.25,0.25,0.25,0.25,0.25,0.25,0.25,-0.5,-0.5,-0.5,-0.5,-0.5,-0.5,-0.5,-0.5,-0.5,-0.5,-0.5,linear,0.025,TRUE,50,FALSE,3,NA,NA,0,0.5,3,splines,0.8373,5.286486337164003e-6,0.007189314215952453,0,10000
10,250,0,250,500,750,1000,1250,1500,1750,2000,2250,2,0,1,0.25,0.25,0.25,0.25,0.25,0.25,0.25,0.25,0.25,0.25,-0.5,-0.5,-0.5,-0.5,-0.5,-0.5,-0.5,-0.5,-0.5,-0.5,-0.5,linear,0.025,TRUE,50,FALSE,3,NA,NA,0,0.5,3,splines_cal,0.835,-1.2050524188673838e-4,0.007193227854500284,0,10000
10,250,0,250,500,750,1000,1250,1500,1750,2000,2250,2,0,1,0.25,0.25,0.25,0.25,0.25,0.25,0.25,0.25,0.25,0.25,-0.5,-0.5,-0.5,-0.5,-0.5,-0.5,-0.5,-0.5,-0.5,-0.5,-0.5,linear,0.025,TRUE,50,FALSE,3,NA,NA,0,0.5,4,fixmodel,0.8395,3.150814770194922e-5,0.007105099310675355,0,10000
10,250,0,250,500,750,1000,1250,1500,1750,2000,2250,2,0,1,0.25,0.25,0.25,0.25,0.25,0.25,0.25,0.25,0.25,0.25,-0.5,-0.5,-0.5,-0.5,-0.5,-0.5,-0.5,-0.5,-0.5,-0.5,-0.5,linear,0.025,TRUE,50,FALSE,3,NA,NA,0,0.5,4,sepmodel,0.7978,-3.8637890982399755e-4,0.007896987382706373,0,10000
10,250,0,250,500,750,1000,1250,1500,1750,2000,2250,2,0,1,0.25,0.25,0.25,0.25,0.25,0.25,0.25,0.25,0.25,0.25,-0.5,-0.5,-0.5,-0.5,-0.5,-0.5,-0.5,-0.5,-0.5,-0.5,-0.5,linear,0.025,TRUE,50,FALSE,3,NA,NA,0,0.5,4,splines,0.8414,-8.45690998135139e-6,0.007062025672081031,0,10000
10,250,0,250,500,750,1000,1250,1500,1750,2000,2250,2,0,1,0.25,0.25,0.25,0.25,0.25,0.25,0.25,0.25,0.25,0.25,-0.5,-0.5,-0.5,-0.5,-0.5,-0.5,-0.5,-0.5,-0.5,-0.5,-0.5,linear,0.025,TRUE,50,FALSE,3,NA,NA,0,0.5,4,splines_cal,0.843,-3.463282576138732e-5,0.007045181773975742,0,10000
10,250,0,250,500,750,1000,1250,1500,1750,2000,2250,2,0,1,0.25,0.25,0.25,0.25,0.25,0.25,0.25,0.25,0.25,0.25,-0.5,-0.5,-0.5,-0.5,-0.5,-0.5,-0.5,-0.5,-0.5,-0.5,-0.5,linear,0.025,TRUE,50,FALSE,3,NA,NA,0,0.5,5,fixmodel,0.8452,2.5557266663679516e-4,0.0070182453028808075,0,10000
10,250,0,250,500,750,1000,1250,1500,1750,2000,2250,2,0,1,0.25,0.25,0.25,0.25,0.25,0.25,0.25,0.25,0.25,0.25,-0.5,-0.5,-0.5,-0.5,-0.5,-0.5,-0.5,-0.5,-0.5,-0.5,-0.5,linear,0.025,TRUE,50,FALSE,3,NA,NA,0,0.5,5,sepmodel,0.7973,-1.6676285289573623e-4,0.00793437554540109,0,10000
10,250,0,250,500,750,1000,1250,1500,1750,2000,2250,2,0,1,0.25,0.25,0.25,0.25,0.25,0.25,0.25,0.25,0.25,0.25,-0.5,-0.5,-0.5,-0.5,-0.5,-0.5,-0.5,-0.5,-0.5,-0.5,-0.5,linear,0.025,TRUE,50,FALSE,3,NA,NA,0,0.5,5,splines,0.8475,2.6908724001646443e-4,0.006984127965419202,0,10000
10,250,0,250,500,750,1000,1250,1500,1750,2000,2250,2,0,1,0.25,0.25,0.25,0.25,0.25,0.25,0.25,0.25,0.25,0.25,-0.5,-0.5,-0.5,-0.5,-0.5,-0.5,-0.5,-0.5,-0.5,-0.5,-0.5,linear,0.025,TRUE,50,FALSE,3,NA,NA,0,0.5,5,splines_cal,0.8452,2.870455330450828e-4,0.006996479226166368,0,10000
10,250,0,250,500,750,1000,1250,1500,1750,2000,2250,2,0,1,0.25,0.25,0.25,0.25,0.25,0.25,0.25,0.25,0.25,0.25,-0.5,-0.5,-0.5,-0.5,-0.5,-0.5,-0.5,-0.5,-0.5,-0.5,-0.5,linear,0.025,TRUE,50,FALSE,3,NA,NA,0,0.5,6,fixmodel,0.8426,-9.1336621858585e-4,0.0069201512109561165,0,10000
10,250,0,250,500,750,1000,1250,1500,1750,2000,2250,2,0,1,0.25,0.25,0.25,0.25,0.25,0.25,0.25,0.25,0.25,0.25,-0.5,-0.5,-0.5,-0.5,-0.5,-0.5,-0.5,-0.5,-0.5,-0.5,-0.5,linear,0.025,TRUE,50,FALSE,3,NA,NA,0,0.5,6,sepmodel,0.7936,-0.0013345617978658656,0.007873030167692039,0,10000
10,250,0,250,500,750,1000,1250,1500,1750,2000,2250,2,0,1,0.25,0.25,0.25,0.25,0.25,0.25,0.25,0.25,0.25,0.25,-0.5,-0.5,-0.5,-0.5,-0.5,-0.5,-0.5,-0.5,-0.5,-0.5,-0.5,linear,0.025,TRUE,50,FALSE,3,NA,NA,0,0.5,6,splines,0.8446,-0.0010098552896072967,0.006890348555775633,0,10000
10,250,0,250,500,750,1000,1250,1500,1750,2000,2250,2,0,1,0.25,0.25,0.25,0.25,0.25,0.25,0.25,0.25,0.25,0.25,-0.5,-0.5,-0.5,-0.5,-0.5,-0.5,-0.5,-0.5,-0.5,-0.5,-0.5,linear,0.025,TRUE,50,FALSE,3,NA,NA,0,0.5,6,splines_cal,0.8482,-7.567814131310292e-4,0.006883852128979789,0,10000
10,250,0,250,500,750,1000,1250,1500,1750,2000,2250,2,0,1,0.25,0.25,0.25,0.25,0.25,0.25,0.25,0.25,0.25,0.25,-0.5,-0.5,-0.5,-0.5,-0.5,-0.5,-0.5,-0.5,-0.5,-0.5,-0.5,linear,0.025,TRUE,50,FALSE,3,NA,NA,0,0.5,7,fixmodel,0.8549,7.464537028720479e-4,0.0069431636220739276,0,10000
10,250,0,250,500,750,1000,1250,1500,1750,2000,2250,2,0,1,0.25,0.25,0.25,0.25,0.25,0.25,0.25,0.25,0.25,0.25,-0.5,-0.5,-0.5,-0.5,-0.5,-0.5,-0.5,-0.5,-0.5,-0.5,-0.5,linear,0.025,TRUE,50,FALSE,3,NA,NA,0,0.5,7,sepmodel,0.798,5.770947939252596e-4,0.008006670060773989,0,10000
10,250,0,250,500,750,1000,1250,1500,1750,2000,2250,2,0,1,0.25,0.25,0.25,0.25,0.25,0.25,0.25,0.25,0.25,0.25,-0.5,-0.5,-0.5,-0.5,-0.5,-0.5,-0.5,-0.5,-0.5,-0.5,-0.5,linear,0.025,TRUE,50,FALSE,3,NA,NA,0,0.5,7,splines,0.8558,7.229738570556582e-4,0.006931741547086238,0,10000
10,250,0,250,500,750,1000,1250,1500,1750,2000,2250,2,0,1,0.25,0.25,0.25,0.25,0.25,0.25,0.25,0.25,0.25,0.25,-0.5,-0.5,-0.5,-0.5,-0.5,-0.5,-0.5,-0.5,-0.5,-0.5,-0.5,linear,0.025,TRUE,50,FALSE,3,NA,NA,0,0.5,7,splines_cal,0.8574,6.617992044822568e-4,0.006896865141204964,0,10000
10,250,0,250,500,750,1000,1250,1500,1750,2000,2250,2,0,1,0.25,0.25,0.25,0.25,0.25,0.25,0.25,0.25,0.25,0.25,-0.5,-0.5,-0.5,-0.5,-0.5,-0.5,-0.5,-0.5,-0.5,-0.5,-0.5,linear,0.025,TRUE,50,FALSE,3,NA,NA,0,0.5,8,fixmodel,0.85,6.064530288166614e-4,0.006921365143358672,0,10000
10,250,0,250,500,750,1000,1250,1500,1750,2000,2250,2,0,1,0.25,0.25,0.25,0.25,0.25,0.25,0.25,0.25,0.25,0.25,-0.5,-0.5,-0.5,-0.5,-0.5,-0.5,-0.5,-0.5,-0.5,-0.5,-0.5,linear,0.025,TRUE,50,FALSE,3,NA,NA,0,0.5,8,sepmodel,0.7946,7.432982027805499e-4,0.008017399510356906,0,10000
10,250,0,250,500,750,1000,1250,1500,1750,2000,2250,2,0,1,0.25,0.25,0.25,0.25,0.25,0.25,0.25,0.25,0.25,0.25,-0.5,-0.5,-0.5,-0.5,-0.5,-0.5,-0.5,-0.5,-0.5,-0.5,-0.5,linear,0.025,TRUE,50,FALSE,3,NA,NA,0,0.5,8,splines,0.8526,5.953825746313191e-4,0.006904331352934141,0,10000
10,250,0,250,500,750,1000,1250,1500,1750,2000,2250,2,0,1,0.25,0.25,0.25,0.25,0.25,0.25,0.25,0.25,0.25,0.25,-0.5,-0.5,-0.5,-0.5,-0.5,-0.5,-0.5,-0.5,-0.5,-0.5,-0.5,linear,0.025,TRUE,50,FALSE,3,NA,NA,0,0.5,8,splines_cal,0.8563,7.243097116316243e-4,0.0068254371150407375,0,10000
10,250,0,250,500,750,1000,1250,1500,1750,2000,2250,2,0,1,0.25,0.25,0.25,0.25,0.25,0.25,0.25,0.25,0.25,0.25,-0.5,-0.5,-0.5,-0.5,-0.5,-0.5,-0.5,-0.5,-0.5,-0.5,-0.5,linear,0.025,TRUE,50,FALSE,3,NA,NA,0,0.5,9,fixmodel,0.8504,4.465531497623743e-4,0.007032331363500792,0,10000
10,250,0,250,500,750,1000,1250,1500,1750,2000,2250,2,0,1,0.25,0.25,0.25,0.25,0.25,0.25,0.25,0.25,0.25,0.25,-0.5,-0.5,-0.5,-0.5,-0.5,-0.5,-0.5,-0.5,-0.5,-0.5,-0.5,linear,0.025,TRUE,50,FALSE,3,NA,NA,0,0.5,9,sepmodel,0.796,6.578945723351149e-4,0.008157129250319226,0,10000
10,250,0,250,500,750,1000,1250,1500,1750,2000,2250,2,0,1,0.25,0.25,0.25,0.25,0.25,0.25,0.25,0.25,0.25,0.25,-0.5,-0.5,-0.5,-0.5,-0.5,-0.5,-0.5,-0.5,-0.5,-0.5,-0.5,linear,0.025,TRUE,50,FALSE,3,NA,NA,0,0.5,9,splines,0.8538,4.389867925275375e-4,0.007020427393307328,0,10000
10,250,0,250,500,750,1000,1250,1500,1750,2000,2250,2,0,1,0.25,0.25,0.25,0.25,0.25,0.25,0.25,0.25,0.25,0.25,-0.5,-0.5,-0.5,-0.5,-0.5,-0.5,-0.5,-0.5,-0.5,-0.5,-0.5,linear,0.025,TRUE,50,FALSE,3,NA,NA,0,0.5,9,splines_cal,0.8534,3.921205431582951e-4,0.007007476278999814,0,10000
10,250,0,250,500,750,1000,1250,1500,1750,2000,2250,2,0,1,0.25,0.25,0.25,0.25,0.25,0.25,0.25,0.25,0.25,0.25,-0.5,-0.5,-0.5,-0.5,-0.5,-0.5,-0.5,-0.5,-0.5,-0.5,-0.5,linear,0.025,TRUE,50,FALSE,3,NA,NA,0,0.5,10,fixmodel,0.8617,9.570494717764503e-4,0.006692620229327465,0,10000
10,250,0,250,500,750,1000,1250,1500,1750,2000,2250,2,0,1,0.25,0.25,0.25,0.25,0.25,0.25,0.25,0.25,0.25,0.25,-0.5,-0.5,-0.5,-0.5,-0.5,-0.5,-0.5,-0.5,-0.5,-0.5,-0.5,linear,0.025,TRUE,50,FALSE,3,NA,NA,0,0.5,10,sepmodel,0.8045,0.001031654106421908,0.007808115147754762,0,10000
10,250,0,250,500,750,1000,1250,1500,1750,2000,2250,2,0,1,0.25,0.25,0.25,0.25,0.25,0.25,0.25,0.25,0.25,0.25,-0.5,-0.5,-0.5,-0.5,-0.5,-0.5,-0.5,-0.5,-0.5,-0.5,-0.5,linear,0.025,TRUE,50,FALSE,3,NA,NA,0,0.5,10,splines,0.8627,9.891179570639126e-4,0.006674960271527431,0,10000
10,250,0,250,500,750,1000,1250,1500,1750,2000,2250,2,0,1,0.25,0.25,0.25,0.25,0.25,0.25,0.25,0.25,0.25,0.25,-0.5,-0.5,-0.5,-0.5,-0.5,-0.5,-0.5,-0.5,-0.5,-0.5,-0.5,linear,0.025,TRUE,50,FALSE,3,NA,NA,0,0.5,10,splines_cal,0.8623,9.709543603913529e-4,0.006688780461366046,0,10000
10,250,0,250,500,750,1000,1250,1500,1750,2000,2250,2,0,1,0.25,0.25,0.25,0.25,0.25,0.25,0.25,0.25,0.25,0.25,-0.5,-0.5,-0.5,-0.5,-0.5,-0.5,-0.5,-0.5,-0.5,-0.5,-0.5,linear,0.025,TRUE,100,FALSE,1,NA,NA,0,0.5,2,fixmodel,0.8191,-0.0018410430178113916,0.007476977535008406,0,10000
10,250,0,250,500,750,1000,1250,1500,1750,2000,2250,2,0,1,0.25,0.25,0.25,0.25,0.25,0.25,0.25,0.25,0.25,0.25,-0.5,-0.5,-0.5,-0.5,-0.5,-0.5,-0.5,-0.5,-0.5,-0.5,-0.5,linear,0.025,TRUE,100,FALSE,1,NA,NA,0,0.5,2,sepmodel,0.7936,-0.0017861026504725531,0.00802776176939671,0,10000
10,250,0,250,500,750,1000,1250,1500,1750,2000,2250,2,0,1,0.25,0.25,0.25,0.25,0.25,0.25,0.25,0.25,0.25,0.25,-0.5,-0.5,-0.5,-0.5,-0.5,-0.5,-0.5,-0.5,-0.5,-0.5,-0.5,linear,0.025,TRUE,100,FALSE,1,NA,NA,0,0.5,2,splines,0.8294,-0.001669364322289973,0.007307195327645587,0,10000
10,250,0,250,500,750,1000,1250,1500,1750,2000,2250,2,0,1,0.25,0.25,0.25,0.25,0.25,0.25,0.25,0.25,0.25,0.25,-0.5,-0.5,-0.5,-0.5,-0.5,-0.5,-0.5,-0.5,-0.5,-0.5,-0.5,linear,0.025,TRUE,100,FALSE,1,NA,NA,0,0.5,2,splines_cal,0.8251,-0.0016612396526418537,0.007376751601639354,0,10000
10,250,0,250,500,750,1000,1250,1500,1750,2000,2250,2,0,1,0.25,0.25,0.25,0.25,0.25,0.25,0.25,0.25,0.25,0.25,-0.5,-0.5,-0.5,-0.5,-0.5,-0.5,-0.5,-0.5,-0.5,-0.5,-0.5,linear,0.025,TRUE,100,FALSE,1,NA,NA,0,0.5,3,fixmodel,0.8301,-2.0964079964626213e-4,0.00753568224397623,0,10000
10,250,0,250,500,750,1000,1250,1500,1750,2000,2250,2,0,1,0.25,0.25,0.25,0.25,0.25,0.25,0.25,0.25,0.25,0.25,-0.5,-0.5,-0.5,-0.5,-0.5,-0.5,-0.5,-0.5,-0.5,-0.5,-0.5,linear,0.025,TRUE,100,FALSE,1,NA,NA,0,0.5,3,sepmodel,0.7921,-1.995756374632566e-4,0.008295132166104264,0,10000
10,250,0,250,500,750,1000,1250,1500,1750,2000,2250,2,0,1,0.25,0.25,0.25,0.25,0.25,0.25,0.25,0.25,0.25,0.25,-0.5,-0.5,-0.5,-0.5,-0.5,-0.5,-0.5,-0.5,-0.5,-0.5,-0.5,linear,0.025,TRUE,100,FALSE,1,NA,NA,0,0.5,3,splines,0.8323,-2.3102320131532377e-4,0.007469911976899069,0,10000
10,250,0,250,500,750,1000,1250,1500,1750,2000,2250,2,0,1,0.25,0.25,0.25,0.25,0.25,0.25,0.25,0.25,0.25,0.25,-0.5,-0.5,-0.5,-0.5,-0.5,-0.5,-0.5,-0.5,-0.5,-0.5,-0.5,linear,0.025,TRUE,100,FALSE,1,NA,NA,0,0.5,3,splines_cal,0.8333,-2.873917763651736e-4,0.00746504205067869,0,10000
10,250,0,250,500,750,1000,1250,1500,1750,2000,2250,2,0,1,0.25,0.25,0.25,0.25,0.25,0.25,0.25,0.25,0.25,0.25,-0.5,-0.5,-0.5,-0.5,-0.5,-0.5,-0.5,-0.5,-0.5,-0.5,-0.5,linear,0.025,TRUE,100,FALSE,1,NA,NA,0,0.5,4,fixmodel,0.8406,9.805086143841342e-4,0.007145972423106444,0,10000
10,250,0,250,500,750,1000,1250,1500,1750,2000,2250,2,0,1,0.25,0.25,0.25,0.25,0.25,0.25,0.25,0.25,0.25,0.25,-0.5,-0.5,-0.5,-0.5,-0.5,-0.5,-0.5,-0.5,-0.5,-0.5,-0.5,linear,0.025,TRUE,100,FALSE,1,NA,NA,0,0.5,4,sepmodel,0.8017,7.132482120782255e-4,0.00800441728763824,0,10000
10,250,0,250,500,750,1000,1250,1500,1750,2000,2250,2,0,1,0.25,0.25,0.25,0.25,0.25,0.25,0.25,0.25,0.25,0.25,-0.5,-0.5,-0.5,-0.5,-0.5,-0.5,-0.5,-0.5,-0.5,-0.5,-0.5,linear,0.025,TRUE,100,FALSE,1,NA,NA,0,0.5,4,splines,0.843,9.842150190298375e-4,0.007102313565001035,0,10000
10,250,0,250,500,750,1000,1250,1500,1750,2000,2250,2,0,1,0.25,0.25,0.25,0.25,0.25,0.25,0.25,0.25,0.25,0.25,-0.5,-0.5,-0.5,-0.5,-0.5,-0.5,-0.5,-0.5,-0.5,-0.5,-0.5,linear,0.025,TRUE,100,FALSE,1,NA,NA,0,0.5,4,splines_cal,0.8452,9.100198249642439e-4,0.007072346328363013,0,10000
10,250,0,250,500,750,1000,1250,1500,1750,2000,2250,2,0,1,0.25,0.25,0.25,0.25,0.25,0.25,0.25,0.25,0.25,0.25,-0.5,-0.5,-0.5,-0.5,-0.5,-0.5,-0.5,-0.5,-0.5,-0.5,-0.5,linear,0.025,TRUE,100,FALSE,1,NA,NA,0,0.5,5,fixmodel,0.8401,1.4367163113599205e-4,0.00717540059246028,0,10000
10,250,0,250,500,750,1000,1250,1500,1750,2000,2250,2,0,1,0.25,0.25,0.25,0.25,0.25,0.25,0.25,0.25,0.25,0.25,-0.5,-0.5,-0.5,-0.5,-0.5,-0.5,-0.5,-0.5,-0.5,-0.5,-0.5,linear,0.025,TRUE,100,FALSE,1,NA,NA,0,0.5,5,sepmodel,0.7928,-5.939824749700484e-5,0.008076413334831209,0,10000
10,250,0,250,500,750,1000,1250,1500,1750,2000,2250,2,0,1,0.25,0.25,0.25,0.25,0.25,0.25,0.25,0.25,0.25,0.25,-0.5,-0.5,-0.5,-0.5,-0.5,-0.5,-0.5,-0.5,-0.5,-0.5,-0.5,linear,0.025,TRUE,100,FALSE,1,NA,NA,0,0.5,5,splines,0.8423,5.2340547463693096e-5,0.007148504059467764,0,10000
10,250,0,250,500,750,1000,1250,1500,1750,2000,2250,2,0,1,0.25,0.25,0.25,0.25,0.25,0.25,0.25,0.25,0.25,0.25,-0.5,-0.5,-0.5,-0.5,-0.5,-0.5,-0.5,-0.5,-0.5,-0.5,-0.5,linear,0.025,TRUE,100,FALSE,1,NA,NA,0,0.5,5,splines_cal,0.8447,9.442843225312518e-5,0.007108420967850763,0,10000
10,250,0,250,500,750,1000,1250,1500,1750,2000,2250,2,0,1,0.25,0.25,0.25,0.25,0.25,0.25,0.25,0.25,0.25,0.25,-0.5,-0.5,-0.5,-0.5,-0.5,-0.5,-0.5,-0.5,-0.5,-0.5,-0.5,linear,0.025,TRUE,100,FALSE,1,NA,NA,0,0.5,6,fixmodel,0.8473,4.4498026752911517e-4,0.007128567079501143,0,10000
10,250,0,250,500,750,1000,1250,1500,1750,2000,2250,2,0,1,0.25,0.25,0.25,0.25,0.25,0.25,0.25,0.25,0.25,0.25,-0.5,-0.5,-0.5,-0.5,-0.5,-0.5,-0.5,-0.5,-0.5,-0.5,-0.5,linear,0.025,TRUE,100,FALSE,1,NA,NA,0,0.5,6,sepmodel,0.7998,5.215026780465393e-4,0.00807583178389702,0,10000
10,250,0,250,500,750,1000,1250,1500,1750,2000,2250,2,0,1,0.25,0.25,0.25,0.25,0.25,0.25,0.25,0.25,0.25,0.25,-0.5,-0.5,-0.5,-0.5,-0.5,-0.5,-0.5,-0.5,-0.5,-0.5,-0.5,linear,0.025,TRUE,100,FALSE,1,NA,NA,0,0.5,6,splines,0.8493,4.5418903745478203e-4,0.007095870570289973,0,10000
10,250,0,250,500,750,1000,1250,1500,1750,2000,2250,2,0,1,0.25,0.25,0.25,0.25,0.25,0.25,0.25,0.25,0.25,0.25,-0.5,-0.5,-0.5,-0.5,-0.5,-0.5,-0.5,-0.5,-0.5,-0.5,-0.5,linear,0.025,TRUE,100,FALSE,1,NA,NA,0,0.5,6,splines_cal,0.849,4.490497022350102e-4,0.007071785529931304,0,10000
10,250,0,250,500,750,1000,1250,1500,1750,2000,2250,2,0,1,0.25,0.25,0.25,0.25,0.25,0.25,0.25,0.25,0.25,0.25,-0.5,-0.5,-0.5,-0.5,-0.5,-0.5,-0.5,-0.5,-0.5,-0.5,-0.5,linear,0.025,TRUE,100,FALSE,1,NA,NA,0,0.5,7,fixmodel,0.8462,8.022875651730486e-5,0.007081264062736722,0,10000
10,250,0,250,500,750,1000,1250,1500,1750,2000,2250,2,0,1,0.25,0.25,0.25,0.25,0.25,0.25,0.25,0.25,0.25,0.25,-0.5,-0.5,-0.5,-0.5,-0.5,-0.5,-0.5,-0.5,-0.5,-0.5,-0.5,linear,0.025,TRUE,100,FALSE,1,NA,NA,0,0.5,7,sepmodel,0.7925,-2.2651041361709579e-4,0.00816914323209212,0,10000
10,250,0,250,500,750,1000,1250,1500,1750,2000,2250,2,0,1,0.25,0.25,0.25,0.25,0.25,0.25,0.25,0.25,0.25,0.25,-0.5,-0.5,-0.5,-0.5,-0.5,-0.5,-0.5,-0.5,-0.5,-0.5,-0.5,linear,0.025,TRUE,100,FALSE,1,NA,NA,0,0.5,7,splines,0.8471,6.226252474530744e-5,0.007073295851009899,0,10000
10,250,0,250,500,750,1000,1250,1500,1750,2000,2250,2,0,1,0.25,0.25,0.25,0.25,0.25,0.25,0.25,0.25,0.25,0.25,-0.5,-0.5,-0.5,-0.5,-0.5,-0.5,-0.5,-0.5,-0.5,-0.5,-0.5,linear,0.025,TRUE,100,FALSE,1,NA,NA,0,0.5,7,splines_cal,0.8543,-2.5780296262105384e-4,0.006935234019851829,0,10000
10,250,0,250,500,750,1000,1250,1500,1750,2000,2250,2,0,1,0.25,0.25,0.25,0.25,0.25,0.25,0.25,0.25,0.25,0.25,-0.5,-0.5,-0.5,-0.5,-0.5,-0.5,-0.5,-0.5,-0.5,-0.5,-0.5,linear,0.025,TRUE,100,FALSE,1,NA,NA,0,0.5,8,fixmodel,0.8507,4.678723977227272e-4,0.007006758581439083,0,10000
10,250,0,250,500,750,1000,1250,1500,1750,2000,2250,2,0,1,0.25,0.25,0.25,0.25,0.25,0.25,0.25,0.25,0.25,0.25,-0.5,-0.5,-0.5,-0.5,-0.5,-0.5,-0.5,-0.5,-0.5,-0.5,-0.5,linear,0.025,TRUE,100,FALSE,1,NA,NA,0,0.5,8,sepmodel,0.7953,4.6224058964406816e-4,0.00804677435806534,0,10000
10,250,0,250,500,750,1000,1250,1500,1750,2000,2250,2,0,1,0.25,0.25,0.25,0.25,0.25,0.25,0.25,0.25,0.25,0.25,-0.5,-0.5,-0.5,-0.5,-0.5,-0.5,-0.5,-0.5,-0.5,-0.5,-0.5,linear,0.025,TRUE,100,FALSE,1,NA,NA,0,0.5,8,splines,0.8507,4.3440848543696233e-4,0.006986721735976356,0,10000
10,250,0,250,500,750,1000,1250,1500,1750,2000,2250,2,0,1,0.25,0.25,0.25,0.25,0.25,0.25,0.25,0.25,0.25,0.25,-0.5,-0.5,-0.5,-0.5,-0.5,-0.5,-0.5,-0.5,-0.5,-0.5,-0.5,linear,0.025,TRUE,100,FALSE,1,NA,NA,0,0.5,8,splines_cal,0.8628,6.155819335605092e-4,0.006835554042342669,0,10000
10,250,0,250,500,750,1000,1250,1500,1750,2000,2250,2,0,1,0.25,0.25,0.25,0.25,0.25,0.25,0.25,0.25,0.25,0.25,-0.5,-0.5,-0.5,-0.5,-0.5,-0.5,-0.5,-0.5,-0.5,-0.5,-0.5,linear,0.025,TRUE,100,FALSE,1,NA,NA,0,0.5,9,fixmodel,0.8595,9.592591172144137e-4,0.006719413065115371,0,10000
10,250,0,250,500,750,1000,1250,1500,1750,2000,2250,2,0,1,0.25,0.25,0.25,0.25,0.25,0.25,0.25,0.25,0.25,0.25,-0.5,-0.5,-0.5,-0.5,-0.5,-0.5,-0.5,-0.5,-0.5,-0.5,-0.5,linear,0.025,TRUE,100,FALSE,1,NA,NA,0,0.5,9,sepmodel,0.8028,9.565183801286421e-4,0.007748861403774835,0,10000
10,250,0,250,500,750,1000,1250,1500,1750,2000,2250,2,0,1,0.25,0.25,0.25,0.25,0.25,0.25,0.25,0.25,0.25,0.25,-0.5,-0.5,-0.5,-0.5,-0.5,-0.5,-0.5,-0.5,-0.5,-0.5,-0.5,linear,0.025,TRUE,100,FALSE,1,NA,NA,0,0.5,9,splines,0.8598,9.224303882555834e-4,0.00669875422938406,0,10000
10,250,0,250,500,750,1000,1250,1500,1750,2000,2250,2,0,1,0.25,0.25,0.25,0.25,0.25,0.25,0.25,0.25,0.25,0.25,-0.5,-0.5,-0.5,-0.5,-0.5,-0.5,-0.5,-0.5,-0.5,-0.5,-0.5,linear,0.025,TRUE,100,FALSE,1,NA,NA,0,0.5,9,splines_cal,0.8677,7.496084785805461e-4,0.006586458416529641,0,10000
10,250,0,250,500,750,1000,1250,1500,1750,2000,2250,2,0,1,0.25,0.25,0.25,0.25,0.25,0.25,0.25,0.25,0.25,0.25,-0.5,-0.5,-0.5,-0.5,-0.5,-0.5,-0.5,-0.5,-0.5,-0.5,-0.5,linear,0.025,TRUE,100,FALSE,1,NA,NA,0,0.5,10,fixmodel,0.8592,8.835618212603184e-4,0.00682233257873775,0,10000
10,250,0,250,500,750,1000,1250,1500,1750,2000,2250,2,0,1,0.25,0.25,0.25,0.25,0.25,0.25,0.25,0.25,0.25,0.25,-0.5,-0.5,-0.5,-0.5,-0.5,-0.5,-0.5,-0.5,-0.5,-0.5,-0.5,linear,0.025,TRUE,100,FALSE,1,NA,NA,0,0.5,10,sepmodel,0.8036,8.539616179952259e-4,0.007914151409248562,0,10000
10,250,0,250,500,750,1000,1250,1500,1750,2000,2250,2,0,1,0.25,0.25,0.25,0.25,0.25,0.25,0.25,0.25,0.25,0.25,-0.5,-0.5,-0.5,-0.5,-0.5,-0.5,-0.5,-0.5,-0.5,-0.5,-0.5,linear,0.025,TRUE,100,FALSE,1,NA,NA,0,0.5,10,splines,0.8589,7.85552623948421e-4,0.006803155340668207,0,10000
10,250,0,250,500,750,1000,1250,1500,1750,2000,2250,2,0,1,0.25,0.25,0.25,0.25,0.25,0.25,0.25,0.25,0.25,0.25,-0.5,-0.5,-0.5,-0.5,-0.5,-0.5,-0.5,-0.5,-0.5,-0.5,-0.5,linear,0.025,TRUE,100,FALSE,1,NA,NA,0,0.5,10,splines_cal,0.859,7.939155905961171e-4,0.006809949306657136,0,10000
10,250,0,250,500,750,1000,1250,1500,1750,2000,2250,2,0,1,0.25,0.25,0.25,0.25,0.25,0.25,0.25,0.25,0.25,0.25,-0.5,-0.5,-0.5,-0.5,-0.5,-0.5,-0.5,-0.5,-0.5,-0.5,-0.5,linear,0.025,TRUE,100,FALSE,2,NA,NA,0,0.5,2,fixmodel,0.8296,5.580215003510015e-4,0.0074263495983484026,0,10000
10,250,0,250,500,750,1000,1250,1500,1750,2000,2250,2,0,1,0.25,0.25,0.25,0.25,0.25,0.25,0.25,0.25,0.25,0.25,-0.5,-0.5,-0.5,-0.5,-0.5,-0.5,-0.5,-0.5,-0.5,-0.5,-0.5,linear,0.025,TRUE,100,FALSE,2,NA,NA,0,0.5,2,sepmodel,0.7961,4.2291231217916577e-4,0.008015349847554075,0,10000
10,250,0,250,500,750,1000,1250,1500,1750,2000,2250,2,0,1,0.25,0.25,0.25,0.25,0.25,0.25,0.25,0.25,0.25,0.25,-0.5,-0.5,-0.5,-0.5,-0.5,-0.5,-0.5,-0.5,-0.5,-0.5,-0.5,linear,0.025,TRUE,100,FALSE,2,NA,NA,0,0.5,2,splines,0.8316,4.7355639226651997e-4,0.0073775264638184295,0,10000
10,250,0,250,500,750,1000,1250,1500,1750,2000,2250,2,0,1,0.25,0.25,0.25,0.25,0.25,0.25,0.25,0.25,0.25,0.25,-0.5,-0.5,-0.5,-0.5,-0.5,-0.5,-0.5,-0.5,-0.5,-0.5,-0.5,linear,0.025,TRUE,100,FALSE,2,NA,NA,0,0.5,2,splines_cal,0.8354,5.013364630754723e-4,0.007308571719011225,0,10000
10,250,0,250,500,750,1000,1250,1500,1750,2000,2250,2,0,1,0.25,0.25,0.25,0.25,0.25,0.25,0.25,0.25,0.25,0.25,-0.5,-0.5,-0.5,-0.5,-0.5,-0.5,-0.5,-0.5,-0.5,-0.5,-0.5,linear,0.025,TRUE,100,FALSE,2,NA,NA,0,0.5,3,fixmodel,0.8359,9.703451437950949e-4,0.0073225617752689055,0,10000
10,250,0,250,500,750,1000,1250,1500,1750,2000,2250,2,0,1,0.25,0.25,0.25,0.25,0.25,0.25,0.25,0.25,0.25,0.25,-0.5,-0.5,-0.5,-0.5,-0.5,-0.5,-0.5,-0.5,-0.5,-0.5,-0.5,linear,0.025,TRUE,100,FALSE,2,NA,NA,0,0.5,3,sepmodel,0.8005,0.0013469995760108167,0.008085889880994216,0,10000
10,250,0,250,500,750,1000,1250,1500,1750,2000,2250,2,0,1,0.25,0.25,0.25,0.25,0.25,0.25,0.25,0.25,0.25,0.25,-0.5,-0.5,-0.5,-0.5,-0.5,-0.5,-0.5,-0.5,-0.5,-0.5,-0.5,linear,0.025,TRUE,100,FALSE,2,NA,NA,0,0.5,3,splines,0.8393,9.405133537573023e-4,0.007255913975445456,0,10000
10,250,0,250,500,750,1000,1250,1500,1750,2000,2250,2,0,1,0.25,0.25,0.25,0.25,0.25,0.25,0.25,0.25,0.25,0.25,-0.5,-0.5,-0.5,-0.5,-0.5,-0.5,-0.5,-0.5,-0.5,-0.5,-0.5,linear,0.025,TRUE,100,FALSE,2,NA,NA,0,0.5,3,splines_cal,0.8385,9.258678051513303e-4,0.007250282987889527,0,10000
10,250,0,250,500,750,1000,1250,1500,1750,2000,2250,2,0,1,0.25,0.25,0.25,0.25,0.25,0.25,0.25,0.25,0.25,0.25,-0.5,-0.5,-0.5,-0.5,-0.5,-0.5,-0.5,-0.5,-0.5,-0.5,-0.5,linear,0.025,TRUE,100,FALSE,2,NA,NA,0,0.5,4,fixmodel,0.8382,9.247761921097576e-4,0.007164920716502413,0,10000
10,250,0,250,500,750,1000,1250,1500,1750,2000,2250,2,0,1,0.25,0.25,0.25,0.25,0.25,0.25,0.25,0.25,0.25,0.25,-0.5,-0.5,-0.5,-0.5,-0.5,-0.5,-0.5,-0.5,-0.5,-0.5,-0.5,linear,0.025,TRUE,100,FALSE,2,NA,NA,0,0.5,4,sepmodel,0.7992,8.752270776063082e-4,0.0079049962208389,0,10000
10,250,0,250,500,750,1000,1250,1500,1750,2000,2250,2,0,1,0.25,0.25,0.25,0.25,0.25,0.25,0.25,0.25,0.25,0.25,-0.5,-0.5,-0.5,-0.5,-0.5,-0.5,-0.5,-0.5,-0.5,-0.5,-0.5,linear,0.025,TRUE,100,FALSE,2,NA,NA,0,0.5,4,splines,0.8407,9.152235766148557e-4,0.007094499373009242,0,10000
10,250,0,250,500,750,1000,1250,1500,1750,2000,2250,2,0,1,0.25,0.25,0.25,0.25,0.25,0.25,0.25,0.25,0.25,0.25,-0.5,-0.5,-0.5,-0.5,-0.5,-0.5,-0.5,-0.5,-0.5,-0.5,-0.5,linear,0.025,TRUE,100,FALSE,2,NA,NA,0,0.5,4,splines_cal,0.8443,8.374049143825801e-4,0.007035406408199426,0,10000
10,250,0,250,500,750,1000,1250,1500,1750,2000,2250,2,0,1,0.25,0.25,0.25,0.25,0.25,0.25,0.25,0.25,0.25,0.25,-0.5,-0.5,-0.5,-0.5,-0.5,-0.5,-0.5,-0.5,-0.5,-0.5,-0.5,linear,0.025,TRUE,100,FALSE,2,NA,NA,0,0.5,5,fixmodel,0.844,1.3334350579445337e-4,0.006992932809141257,0,10000
10,250,0,250,500,750,1000,1250,1500,1750,2000,2250,2,0,1,0.25,0.25,0.25,0.25,0.25,0.25,0.25,0.25,0.25,0.25,-0.5,-0.5,-0.5,-0.5,-0.5,-0.5,-0.5,-0.5,-0.5,-0.5,-0.5,linear,0.025,TRUE,100,FALSE,2,NA,NA,0,0.5,5,sepmodel,0.7934,-1.9373289522408538e-4,0.00788803907058334,0,10000
10,250,0,250,500,750,1000,1250,1500,1750,2000,2250,2,0,1,0.25,0.25,0.25,0.25,0.25,0.25,0.25,0.25,0.25,0.25,-0.5,-0.5,-0.5,-0.5,-0.5,-0.5,-0.5,-0.5,-0.5,-0.5,-0.5,linear,0.025,TRUE,100,FALSE,2,NA,NA,0,0.5,5,splines,0.8457,1.41711381798133e-4,0.006957728160000485,0,10000
10,250,0,250,500,750,1000,1250,1500,1750,2000,2250,2,0,1,0.25,0.25,0.25,0.25,0.25,0.25,0.25,0.25,0.25,0.25,-0.5,-0.5,-0.5,-0.5,-0.5,-0.5,-0.5,-0.5,-0.5,-0.5,-0.5,linear,0.025,TRUE,100,FALSE,2,NA,NA,0,0.5,5,splines_cal,0.8478,9.013735557405778e-5,0.006899241918483441,0,10000
10,250,0,250,500,750,1000,1250,1500,1750,2000,2250,2,0,1,0.25,0.25,0.25,0.25,0.25,0.25,0.25,0.25,0.25,0.25,-0.5,-0.5,-0.5,-0.5,-0.5,-0.5,-0.5,-0.5,-0.5,-0.5,-0.5,linear,0.025,TRUE,100,FALSE,2,NA,NA,0,0.5,6,fixmodel,0.8451,0.001727732469293498,0.007191546321274779,0,10000
10,250,0,250,500,750,1000,1250,1500,1750,2000,2250,2,0,1,0.25,0.25,0.25,0.25,0.25,0.25,0.25,0.25,0.25,0.25,-0.5,-0.5,-0.5,-0.5,-0.5,-0.5,-0.5,-0.5,-0.5,-0.5,-0.5,linear,0.025,TRUE,100,FALSE,2,NA,NA,0,0.5,6,sepmodel,0.7961,0.0011543799813020727,0.00812253440867801,0,10000
10,250,0,250,500,750,1000,1250,1500,1750,2000,2250,2,0,1,0.25,0.25,0.25,0.25,0.25,0.25,0.25,0.25,0.25,0.25,-0.5,-0.5,-0.5,-0.5,-0.5,-0.5,-0.5,-0.5,-0.5,-0.5,-0.5,linear,0.025,TRUE,100,FALSE,2,NA,NA,0,0.5,6,splines,0.8477,0.0017355578740167804,0.007177182719832149,0,10000
10,250,0,250,500,750,1000,1250,1500,1750,2000,2250,2,0,1,0.25,0.25,0.25,0.25,0.25,0.25,0.25,0.25,0.25,0.25,-0.5,-0.5,-0.5,-0.5,-0.5,-0.5,-0.5,-0.5,-0.5,-0.5,-0.5,linear,0.025,TRUE,100,FALSE,2,NA,NA,0,0.5,6,splines_cal,0.8479,0.001690422309508163,0.0071298619606422085,0,10000
10,250,0,250,500,750,1000,1250,1500,1750,2000,2250,2,0,1,0.25,0.25,0.25,0.25,0.25,0.25,0.25,0.25,0.25,0.25,-0.5,-0.5,-0.5,-0.5,-0.5,-0.5,-0.5,-0.5,-0.5,-0.5,-0.5,linear,0.025,TRUE,100,FALSE,2,NA,NA,0,0.5,7,fixmodel,0.8479,1.2482514826349935e-5,0.006977977889030594,0,10000
10,250,0,250,500,750,1000,1250,1500,1750,2000,2250,2,0,1,0.25,0.25,0.25,0.25,0.25,0.25,0.25,0.25,0.25,0.25,-0.5,-0.5,-0.5,-0.5,-0.5,-0.5,-0.5,-0.5,-0.5,-0.5,-0.5,linear,0.025,TRUE,100,FALSE,2,NA,NA,0,0.5,7,sepmodel,0.7952,-8.226260186154225e-4,0.008004609446904303,0,10000
10,250,0,250,500,750,1000,1250,1500,1750,2000,2250,2,0,1,0.25,0.25,0.25,0.25,0.25,0.25,0.25,0.25,0.25,0.25,-0.5,-0.5,-0.5,-0.5,-0.5,-0.5,-0.5,-0.5,-0.5,-0.5,-0.5,linear,0.025,TRUE,100,FALSE,2,NA,NA,0,0.5,7,splines,0.8506,7.9410245186168e-5,0.006982705424998034,0,10000
10,250,0,250,500,750,1000,1250,1500,1750,2000,2250,2,0,1,0.25,0.25,0.25,0.25,0.25,0.25,0.25,0.25,0.25,0.25,-0.5,-0.5,-0.5,-0.5,-0.5,-0.5,-0.5,-0.5,-0.5,-0.5,-0.5,linear,0.025,TRUE,100,FALSE,2,NA,NA,0,0.5,7,splines_cal,0.8569,1.4375789434615833e-4,0.006835398010710361,0,10000
10,250,0,250,500,750,1000,1250,1500,1750,2000,2250,2,0,1,0.25,0.25,0.25,0.25,0.25,0.25,0.25,0.25,0.25,0.25,-0.5,-0.5,-0.5,-0.5,-0.5,-0.5,-0.5,-0.5,-0.5,-0.5,-0.5,linear,0.025,TRUE,100,FALSE,2,NA,NA,0,0.5,8,fixmodel,0.8507,6.031538565805011e-4,0.006953143035382991,0,10000
10,250,0,250,500,750,1000,1250,1500,1750,2000,2250,2,0,1,0.25,0.25,0.25,0.25,0.25,0.25,0.25,0.25,0.25,0.25,-0.5,-0.5,-0.5,-0.5,-0.5,-0.5,-0.5,-0.5,-0.5,-0.5,-0.5,linear,0.025,TRUE,100,FALSE,2,NA,NA,0,0.5,8,sepmodel,0.7941,5.5194405483391046e-5,0.00804677661647499,0,10000
10,250,0,250,500,750,1000,1250,1500,1750,2000,2250,2,0,1,0.25,0.25,0.25,0.25,0.25,0.25,0.25,0.25,0.25,0.25,-0.5,-0.5,-0.5,-0.5,-0.5,-0.5,-0.5,-0.5,-0.5,-0.5,-0.5,linear,0.025,TRUE,100,FALSE,2,NA,NA,0,0.5,8,splines,0.8498,6.348553209504373e-4,0.006942313172750665,0,10000
10,250,0,250,500,750,1000,1250,1500,1750,2000,2250,2,0,1,0.25,0.25,0.25,0.25,0.25,0.25,0.25,0.25,0.25,0.25,-0.5,-0.5,-0.5,-0.5,-0.5,-0.5,-0.5,-0.5,-0.5,-0.5,-0.5,linear,0.025,TRUE,100,FALSE,2,NA,NA,0,0.5,8,splines_cal,0.8606,8.974045197984896e-4,0.006747030573360831,0,10000
10,250,0,250,500,750,1000,1250,1500,1750,2000,2250,2,0,1,0.25,0.25,0.25,0.25,0.25,0.25,0.25,0.25,0.25,0.25,-0.5,-0.5,-0.5,-0.5,-0.5,-0.5,-0.5,-0.5,-0.5,-0.5,-0.5,linear,0.025,TRUE,100,FALSE,2,NA,NA,0,0.5,9,fixmodel,0.8508,5.5923735250951045e-5,0.006857017790452694,0,10000
10,250,0,250,500,750,1000,1250,1500,1750,2000,2250,2,0,1,0.25,0.25,0.25,0.25,0.25,0.25,0.25,0.25,0.25,0.25,-0.5,-0.5,-0.5,-0.5,-0.5,-0.5,-0.5,-0.5,-0.5,-0.5,-0.5,linear,0.025,TRUE,100,FALSE,2,NA,NA,0,0.5,9,sepmodel,0.7933,-4.1082601216926775e-4,0.007936354713684587,0,10000
10,250,0,250,500,750,1000,1250,1500,1750,2000,2250,2,0,1,0.25,0.25,0.25,0.25,0.25,0.25,0.25,0.25,0.25,0.25,-0.5,-0.5,-0.5,-0.5,-0.5,-0.5,-0.5,-0.5,-0.5,-0.5,-0.5,linear,0.025,TRUE,100,FALSE,2,NA,NA,0,0.5,9,splines,0.8523,1.6140280007331162e-5,0.0068445986892701205,0,10000
10,250,0,250,500,750,1000,1250,1500,1750,2000,2250,2,0,1,0.25,0.25,0.25,0.25,0.25,0.25,0.25,0.25,0.25,0.25,-0.5,-0.5,-0.5,-0.5,-0.5,-0.5,-0.5,-0.5,-0.5,-0.5,-0.5,linear,0.025,TRUE,100,FALSE,2,NA,NA,0,0.5,9,splines_cal,0.8589,1.2454404350324832e-4,0.006680208805943517,0,10000
10,250,0,250,500,750,1000,1250,1500,1750,2000,2250,2,0,1,0.25,0.25,0.25,0.25,0.25,0.25,0.25,0.25,0.25,0.25,-0.5,-0.5,-0.5,-0.5,-0.5,-0.5,-0.5,-0.5,-0.5,-0.5,-0.5,linear,0.025,TRUE,100,FALSE,2,NA,NA,0,0.5,10,fixmodel,0.8554,0.0013791061724092632,0.006916712881882256,0,10000
10,250,0,250,500,750,1000,1250,1500,1750,2000,2250,2,0,1,0.25,0.25,0.25,0.25,0.25,0.25,0.25,0.25,0.25,0.25,-0.5,-0.5,-0.5,-0.5,-0.5,-0.5,-0.5,-0.5,-0.5,-0.5,-0.5,linear,0.025,TRUE,100,FALSE,2,NA,NA,0,0.5,10,sepmodel,0.7951,7.955180697403627e-4,0.008098473965655118,0,10000
10,250,0,250,500,750,1000,1250,1500,1750,2000,2250,2,0,1,0.25,0.25,0.25,0.25,0.25,0.25,0.25,0.25,0.25,0.25,-0.5,-0.5,-0.5,-0.5,-0.5,-0.5,-0.5,-0.5,-0.5,-0.5,-0.5,linear,0.025,TRUE,100,FALSE,2,NA,NA,0,0.5,10,splines,0.8557,0.0013461449346255574,0.0068925676169332315,0,10000
10,250,0,250,500,750,1000,1250,1500,1750,2000,2250,2,0,1,0.25,0.25,0.25,0.25,0.25,0.25,0.25,0.25,0.25,0.25,-0.5,-0.5,-0.5,-0.5,-0.5,-0.5,-0.5,-0.5,-0.5,-0.5,-0.5,linear,0.025,TRUE,100,FALSE,2,NA,NA,0,0.5,10,splines_cal,0.8551,0.0013752324226042497,0.006909356394513209,0,10000
10,250,0,250,500,750,1000,1250,1500,1750,2000,2250,2,0,1,0.25,0.25,0.25,0.25,0.25,0.25,0.25,0.25,0.25,0.25,-0.5,-0.5,-0.5,-0.5,-0.5,-0.5,-0.5,-0.5,-0.5,-0.5,-0.5,linear,0.025,TRUE,100,FALSE,3,NA,NA,0,0.5,2,fixmodel,0.8245,1.1963313813252706e-4,0.0074663954353881125,0,10000
10,250,0,250,500,750,1000,1250,1500,1750,2000,2250,2,0,1,0.25,0.25,0.25,0.25,0.25,0.25,0.25,0.25,0.25,0.25,-0.5,-0.5,-0.5,-0.5,-0.5,-0.5,-0.5,-0.5,-0.5,-0.5,-0.5,linear,0.025,TRUE,100,FALSE,3,NA,NA,0,0.5,2,sepmodel,0.7954,-1.3640309614698808e-4,0.007920480276222141,0,10000
10,250,0,250,500,750,1000,1250,1500,1750,2000,2250,2,0,1,0.25,0.25,0.25,0.25,0.25,0.25,0.25,0.25,0.25,0.25,-0.5,-0.5,-0.5,-0.5,-0.5,-0.5,-0.5,-0.5,-0.5,-0.5,-0.5,linear,0.025,TRUE,100,FALSE,3,NA,NA,0,0.5,2,splines,0.8288,-5.656742925527261e-6,0.0073659849455871345,0,10000
10,250,0,250,500,750,1000,1250,1500,1750,2000,2250,2,0,1,0.25,0.25,0.25,0.25,0.25,0.25,0.25,0.25,0.25,0.25,-0.5,-0.5,-0.5,-0.5,-0.5,-0.5,-0.5,-0.5,-0.5,-0.5,-0.5,linear,0.025,TRUE,100,FALSE,3,NA,NA,0,0.5,2,splines_cal,0.8291,6.321184654375957e-5,0.007349831782953528,0,10000
10,250,0,250,500,750,1000,1250,1500,1750,2000,2250,2,0,1,0.25,0.25,0.25,0.25,0.25,0.25,0.25,0.25,0.25,0.25,-0.5,-0.5,-0.5,-0.5,-0.5,-0.5,-0.5,-0.5,-0.5,-0.5,-0.5,linear,0.025,TRUE,100,FALSE,3,NA,NA,0,0.5,3,fixmodel,0.834,7.626459781655328e-4,0.007213084199515128,0,10000
10,250,0,250,500,750,1000,1250,1500,1750,2000,2250,2,0,1,0.25,0.25,0.25,0.25,0.25,0.25,0.25,0.25,0.25,0.25,-0.5,-0.5,-0.5,-0.5,-0.5,-0.5,-0.5,-0.5,-0.5,-0.5,-0.5,linear,0.025,TRUE,100,FALSE,3,NA,NA,0,0.5,3,sepmodel,0.802,8.154080301354736e-4,0.007874011203927262,0,10000
10,250,0,250,500,750,1000,1250,1500,1750,2000,2250,2,0,1,0.25,0.25,0.25,0.25,0.25,0.25,0.25,0.25,0.25,0.25,-0.5,-0.5,-0.5,-0.5,-0.5,-0.5,-0.5,-0.5,-0.5,-0.5,-0.5,linear,0.025,TRUE,100,FALSE,3,NA,NA,0,0.5,3,splines,0.8368,7.353261336336853e-4,0.007155042381474954,0,10000
10,250,0,250,500,750,1000,1250,1500,1750,2000,2250,2,0,1,0.25,0.25,0.25,0.25,0.25,0.25,0.25,0.25,0.25,0.25,-0.5,-0.5,-0.5,-0.5,-0.5,-0.5,-0.5,-0.5,-0.5,-0.5,-0.5,linear,0.025,TRUE,100,FALSE,3,NA,NA,0,0.5,3,splines_cal,0.8367,7.940806335035088e-4,0.007146738005872984,0,10000
10,250,0,250,500,750,1000,1250,1500,1750,2000,2250,2,0,1,0.25,0.25,0.25,0.25,0.25,0.25,0.25,0.25,0.25,0.25,-0.5,-0.5,-0.5,-0.5,-0.5,-0.5,-0.5,-0.5,-0.5,-0.5,-0.5,linear,0.025,TRUE,100,FALSE,3,NA,NA,0,0.5,4,fixmodel,0.8319,-0.001059925308512796,0.007110428127038063,0,10000
10,250,0,250,500,750,1000,1250,1500,1750,2000,2250,2,0,1,0.25,0.25,0.25,0.25,0.25,0.25,0.25,0.25,0.25,0.25,-0.5,-0.5,-0.5,-0.5,-0.5,-0.5,-0.5,-0.5,-0.5,-0.5,-0.5,linear,0.025,TRUE,100,FALSE,3,NA,NA,0,0.5,4,sepmodel,0.7923,-0.0014125569917325528,0.007884609330096846,0,10000
10,250,0,250,500,750,1000,1250,1500,1750,2000,2250,2,0,1,0.25,0.25,0.25,0.25,0.25,0.25,0.25,0.25,0.25,0.25,-0.5,-0.5,-0.5,-0.5,-0.5,-0.5,-0.5,-0.5,-0.5,-0.5,-0.5,linear,0.025,TRUE,100,FALSE,3,NA,NA,0,0.5,4,splines,0.8343,-0.0010413157280908716,0.007062795768915192,0,10000
10,250,0,250,500,750,1000,1250,1500,1750,2000,2250,2,0,1,0.25,0.25,0.25,0.25,0.25,0.25,0.25,0.25,0.25,0.25,-0.5,-0.5,-0.5,-0.5,-0.5,-0.5,-0.5,-0.5,-0.5,-0.5,-0.5,linear,0.025,TRUE,100,FALSE,3,NA,NA,0,0.5,4,splines_cal,0.8365,-9.479226009201608e-4,0.0070237080337710615,0,10000
10,250,0,250,500,750,1000,1250,1500,1750,2000,2250,2,0,1,0.25,0.25,0.25,0.25,0.25,0.25,0.25,0.25,0.25,0.25,-0.5,-0.5,-0.5,-0.5,-0.5,-0.5,-0.5,-0.5,-0.5,-0.5,-0.5,linear,0.025,TRUE,100,FALSE,3,NA,NA,0,0.5,5,fixmodel,0.8426,1.4412822172212542e-6,0.007123444400929287,0,10000
10,250,0,250,500,750,1000,1250,1500,1750,2000,2250,2,0,1,0.25,0.25,0.25,0.25,0.25,0.25,0.25,0.25,0.25,0.25,-0.5,-0.5,-0.5,-0.5,-0.5,-0.5,-0.5,-0.5,-0.5,-0.5,-0.5,linear,0.025,TRUE,100,FALSE,3,NA,NA,0,0.5,5,sepmodel,0.7957,2.2997891056005486e-4,0.008077590401611432,0,10000
10,250,0,250,500,750,1000,1250,1500,1750,2000,2250,2,0,1,0.25,0.25,0.25,0.25,0.25,0.25,0.25,0.25,0.25,0.25,-0.5,-0.5,-0.5,-0.5,-0.5,-0.5,-0.5,-0.5,-0.5,-0.5,-0.5,linear,0.025,TRUE,100,FALSE,3,NA,NA,0,0.5,5,splines,0.8432,1.8835285528272204e-5,0.007099339281654461,0,10000
10,250,0,250,500,750,1000,1250,1500,1750,2000,2250,2,0,1,0.25,0.25,0.25,0.25,0.25,0.25,0.25,0.25,0.25,0.25,-0.5,-0.5,-0.5,-0.5,-0.5,-0.5,-0.5,-0.5,-0.5,-0.5,-0.5,linear,0.025,TRUE,100,FALSE,3,NA,NA,0,0.5,5,splines_cal,0.8457,-5.973734212155586e-5,0.007038710662251124,0,10000
10,250,0,250,500,750,1000,1250,1500,1750,2000,2250,2,0,1,0.25,0.25,0.25,0.25,0.25,0.25,0.25,0.25,0.25,0.25,-0.5,-0.5,-0.5,-0.5,-0.5,-0.5,-0.5,-0.5,-0.5,-0.5,-0.5,linear,0.025,TRUE,100,FALSE,3,NA,NA,0,0.5,6,fixmodel,0.8438,-7.187227619038909e-4,0.006978172406254603,0,10000
10,250,0,250,500,750,1000,1250,1500,1750,2000,2250,2,0,1,0.25,0.25,0.25,0.25,0.25,0.25,0.25,0.25,0.25,0.25,-0.5,-0.5,-0.5,-0.5,-0.5,-0.5,-0.5,-0.5,-0.5,-0.5,-0.5,linear,0.025,TRUE,100,FALSE,3,NA,NA,0,0.5,6,sepmodel,0.7942,-0.0010944926454782553,0.0078825386044677,0,10000
10,250,0,250,500,750,1000,1250,1500,1750,2000,2250,2,0,1,0.25,0.25,0.25,0.25,0.25,0.25,0.25,0.25,0.25,0.25,-0.5,-0.5,-0.5,-0.5,-0.5,-0.5,-0.5,-0.5,-0.5,-0.5,-0.5,linear,0.025,TRUE,100,FALSE,3,NA,NA,0,0.5,6,splines,0.845,-7.212006993031552e-4,0.0069564754996354955,0,10000
10,250,0,250,500,750,1000,1250,1500,1750,2000,2250,2,0,1,0.25,0.25,0.25,0.25,0.25,0.25,0.25,0.25,0.25,0.25,-0.5,-0.5,-0.5,-0.5,-0.5,-0.5,-0.5,-0.5,-0.5,-0.5,-0.5,linear,0.025,TRUE,100,FALSE,3,NA,NA,0,0.5,6,splines_cal,0.8485,-6.68107784207043e-4,0.006919266973351077,0,10000
10,250,0,250,500,750,1000,1250,1500,1750,2000,2250,2,0,1,0.25,0.25,0.25,0.25,0.25,0.25,0.25,0.25,0.25,0.25,-0.5,-0.5,-0.5,-0.5,-0.5,-0.5,-0.5,-0.5,-0.5,-0.5,-0.5,linear,0.025,TRUE,100,FALSE,3,NA,NA,0,0.5,7,fixmodel,0.8498,-4.350273272530367e-4,0.006976685522272482,0,10000
10,250,0,250,500,750,1000,1250,1500,1750,2000,2250,2,0,1,0.25,0.25,0.25,0.25,0.25,0.25,0.25,0.25,0.25,0.25,-0.5,-0.5,-0.5,-0.5,-0.5,-0.5,-0.5,-0.5,-0.5,-0.5,-0.5,linear,0.025,TRUE,100,FALSE,3,NA,NA,0,0.5,7,sepmodel,0.7921,-5.039199095139206e-4,0.007969643327059668,0,10000
10,250,0,250,500,750,1000,1250,1500,1750,2000,2250,2,0,1,0.25,0.25,0.25,0.25,0.25,0.25,0.25,0.25,0.25,0.25,-0.5,-0.5,-0.5,-0.5,-0.5,-0.5,-0.5,-0.5,-0.5,-0.5,-0.5,linear,0.025,TRUE,100,FALSE,3,NA,NA,0,0.5,7,splines,0.8503,-4.4040627561400147e-4,0.006962812869658707,0,10000
10,250,0,250,500,750,1000,1250,1500,1750,2000,2250,2,0,1,0.25,0.25,0.25,0.25,0.25,0.25,0.25,0.25,0.25,0.25,-0.5,-0.5,-0.5,-0.5,-0.5,-0.5,-0.5,-0.5,-0.5,-0.5,-0.5,linear,0.025,TRUE,100,FALSE,3,NA,NA,0,0.5,7,splines_cal,0.8567,-3.222479161939457e-4,0.006841962411786633,0,10000
10,250,0,250,500,750,1000,1250,1500,1750,2000,2250,2,0,1,0.25,0.25,0.25,0.25,0.25,0.25,0.25,0.25,0.25,0.25,-0.5,-0.5,-0.5,-0.5,-0.5,-0.5,-0.5,-0.5,-0.5,-0.5,-0.5,linear,0.025,TRUE,100,FALSE,3,NA,NA,0,0.5,8,fixmodel,0.8487,-3.7115061072103445e-4,0.007045234228820463,0,10000
10,250,0,250,500,750,1000,1250,1500,1750,2000,2250,2,0,1,0.25,0.25,0.25,0.25,0.25,0.25,0.25,0.25,0.25,0.25,-0.5,-0.5,-0.5,-0.5,-0.5,-0.5,-0.5,-0.5,-0.5,-0.5,-0.5,linear,0.025,TRUE,100,FALSE,3,NA,NA,0,0.5,8,sepmodel,0.7921,-2.791974660249609e-4,0.008160570036107631,0,10000
10,250,0,250,500,750,1000,1250,1500,1750,2000,2250,2,0,1,0.25,0.25,0.25,0.25,0.25,0.25,0.25,0.25,0.25,0.25,-0.5,-0.5,-0.5,-0.5,-0.5,-0.5,-0.5,-0.5,-0.5,-0.5,-0.5,linear,0.025,TRUE,100,FALSE,3,NA,NA,0,0.5,8,splines,0.8493,-3.2385225157931973e-4,0.007028843916196029,0,10000
10,250,0,250,500,750,1000,1250,1500,1750,2000,2250,2,0,1,0.25,0.25,0.25,0.25,0.25,0.25,0.25,0.25,0.25,0.25,-0.5,-0.5,-0.5,-0.5,-0.5,-0.5,-0.5,-0.5,-0.5,-0.5,-0.5,linear,0.025,TRUE,100,FALSE,3,NA,NA,0,0.5,8,splines_cal,0.8574,-2.2798592572244954e-4,0.0068594480165877865,0,10000
10,250,0,250,500,750,1000,1250,1500,1750,2000,2250,2,0,1,0.25,0.25,0.25,0.25,0.25,0.25,0.25,0.25,0.25,0.25,-0.5,-0.5,-0.5,-0.5,-0.5,-0.5,-0.5,-0.5,-0.5,-0.5,-0.5,linear,0.025,TRUE,100,FALSE,3,NA,NA,0,0.5,9,fixmodel,0.8507,-9.412284632608104e-5,0.006978193259834278,0,10000
10,250,0,250,500,750,1000,1250,1500,1750,2000,2250,2,0,1,0.25,0.25,0.25,0.25,0.25,0.25,0.25,0.25,0.25,0.25,-0.5,-0.5,-0.5,-0.5,-0.5,-0.5,-0.5,-0.5,-0.5,-0.5,-0.5,linear,0.025,TRUE,100,FALSE,3,NA,NA,0,0.5,9,sepmodel,0.7955,2.466366465992598e-4,0.007987317805249524,0,10000
10,250,0,250,500,750,1000,1250,1500,1750,2000,2250,2,0,1,0.25,0.25,0.25,0.25,0.25,0.25,0.25,0.25,0.25,0.25,-0.5,-0.5,-0.5,-0.5,-0.5,-0.5,-0.5,-0.5,-0.5,-0.5,-0.5,linear,0.025,TRUE,100,FALSE,3,NA,NA,0,0.5,9,splines,0.8513,-6.323257440028433e-5,0.006961165369354383,0,10000
10,250,0,250,500,750,1000,1250,1500,1750,2000,2250,2,0,1,0.25,0.25,0.25,0.25,0.25,0.25,0.25,0.25,0.25,0.25,-0.5,-0.5,-0.5,-0.5,-0.5,-0.5,-0.5,-0.5,-0.5,-0.5,-0.5,linear,0.025,TRUE,100,FALSE,3,NA,NA,0,0.5,9,splines_cal,0.8572,2.1311558975030603e-5,0.006837037897446806,0,10000
10,250,0,250,500,750,1000,1250,1500,1750,2000,2250,2,0,1,0.25,0.25,0.25,0.25,0.25,0.25,0.25,0.25,0.25,0.25,-0.5,-0.5,-0.5,-0.5,-0.5,-0.5,-0.5,-0.5,-0.5,-0.5,-0.5,linear,0.025,TRUE,100,FALSE,3,NA,NA,0,0.5,10,fixmodel,0.8581,7.657749037232941e-5,0.006706789785598144,0,10000
10,250,0,250,500,750,1000,1250,1500,1750,2000,2250,2,0,1,0.25,0.25,0.25,0.25,0.25,0.25,0.25,0.25,0.25,0.25,-0.5,-0.5,-0.5,-0.5,-0.5,-0.5,-0.5,-0.5,-0.5,-0.5,-0.5,linear,0.025,TRUE,100,FALSE,3,NA,NA,0,0.5,10,sepmodel,0.7972,6.519905135419022e-4,0.007856864271931071,0,10000
10,250,0,250,500,750,1000,1250,1500,1750,2000,2250,2,0,1,0.25,0.25,0.25,0.25,0.25,0.25,0.25,0.25,0.25,0.25,-0.5,-0.5,-0.5,-0.5,-0.5,-0.5,-0.5,-0.5,-0.5,-0.5,-0.5,linear,0.025,TRUE,100,FALSE,3,NA,NA,0,0.5,10,splines,0.8586,7.37515973864959e-5,0.00670471080240122,0,10000
10,250,0,250,500,750,1000,1250,1500,1750,2000,2250,2,0,1,0.25,0.25,0.25,0.25,0.25,0.25,0.25,0.25,0.25,0.25,-0.5,-0.5,-0.5,-0.5,-0.5,-0.5,-0.5,-0.5,-0.5,-0.5,-0.5,linear,0.025,TRUE,100,FALSE,3,NA,NA,0,0.5,10,splines_cal,0.8584,5.481574936634652e-5,0.006704709333035514,0,10000
10,250,0,250,500,750,1000,1250,1500,1750,2000,2250,2,0,1,0.25,0.25,0.25,0.25,0.25,0.25,0.25,0.25,0.25,0.25,-0.375,-0.375,-0.375,-0.375,-0.375,-0.375,-0.375,-0.375,-0.375,-0.375,-0.375,linear,0.025,TRUE,25,FALSE,1,NA,NA,0,0.5,2,fixmodel,0.8221,1.3527606966694155e-4,0.007487176494902161,0,10000
10,250,0,250,500,750,1000,1250,1500,1750,2000,2250,2,0,1,0.25,0.25,0.25,0.25,0.25,0.25,0.25,0.25,0.25,0.25,-0.375,-0.375,-0.375,-0.375,-0.375,-0.375,-0.375,-0.375,-0.375,-0.375,-0.375,linear,0.025,TRUE,25,FALSE,1,NA,NA,0,0.5,2,sepmodel,0.8004,3.3541977479749824e-4,0.007951120826004833,0,10000
10,250,0,250,500,750,1000,1250,1500,1750,2000,2250,2,0,1,0.25,0.25,0.25,0.25,0.25,0.25,0.25,0.25,0.25,0.25,-0.375,-0.375,-0.375,-0.375,-0.375,-0.375,-0.375,-0.375,-0.375,-0.375,-0.375,linear,0.025,TRUE,25,FALSE,1,NA,NA,0,0.5,2,splines,0.8322,3.745890644668552e-4,0.007342969852160585,0,10000
10,250,0,250,500,750,1000,1250,1500,1750,2000,2250,2,0,1,0.25,0.25,0.25,0.25,0.25,0.25,0.25,0.25,0.25,0.25,-0.375,-0.375,-0.375,-0.375,-0.375,-0.375,-0.375,-0.375,-0.375,-0.375,-0.375,linear,0.025,TRUE,25,FALSE,1,NA,NA,0,0.5,2,splines_cal,0.826,2.5120887506398205e-4,0.007477227460425199,0,10000
10,250,0,250,500,750,1000,1250,1500,1750,2000,2250,2,0,1,0.25,0.25,0.25,0.25,0.25,0.25,0.25,0.25,0.25,0.25,-0.375,-0.375,-0.375,-0.375,-0.375,-0.375,-0.375,-0.375,-0.375,-0.375,-0.375,linear,0.025,TRUE,25,FALSE,1,NA,NA,0,0.5,3,fixmodel,0.8336,1.6898332240417033e-4,0.007280122449273607,0,10000
10,250,0,250,500,750,1000,1250,1500,1750,2000,2250,2,0,1,0.25,0.25,0.25,0.25,0.25,0.25,0.25,0.25,0.25,0.25,-0.375,-0.375,-0.375,-0.375,-0.375,-0.375,-0.375,-0.375,-0.375,-0.375,-0.375,linear,0.025,TRUE,25,FALSE,1,NA,NA,0,0.5,3,sepmodel,0.7998,4.7972319849930406e-4,0.007947738457670859,0,10000
10,250,0,250,500,750,1000,1250,1500,1750,2000,2250,2,0,1,0.25,0.25,0.25,0.25,0.25,0.25,0.25,0.25,0.25,0.25,-0.375,-0.375,-0.375,-0.375,-0.375,-0.375,-0.375,-0.375,-0.375,-0.375,-0.375,linear,0.025,TRUE,25,FALSE,1,NA,NA,0,0.5,3,splines,0.8356,1.7936296745231823e-4,0.0072227844846873114,0,10000
10,250,0,250,500,750,1000,1250,1500,1750,2000,2250,2,0,1,0.25,0.25,0.25,0.25,0.25,0.25,0.25,0.25,0.25,0.25,-0.375,-0.375,-0.375,-0.375,-0.375,-0.375,-0.375,-0.375,-0.375,-0.375,-0.375,linear,0.025,TRUE,25,FALSE,1,NA,NA,0,0.5,3,splines_cal,0.8349,3.0230297624221267e-4,0.007260728684807423,0,10000
10,250,0,250,500,750,1000,1250,1500,1750,2000,2250,2,0,1,0.25,0.25,0.25,0.25,0.25,0.25,0.25,0.25,0.25,0.25,-0.375,-0.375,-0.375,-0.375,-0.375,-0.375,-0.375,-0.375,-0.375,-0.375,-0.375,linear,0.025,TRUE,25,FALSE,1,NA,NA,0,0.5,4,fixmodel,0.8382,4.10312935803009e-5,0.007318423614519801,0,10000
10,250,0,250,500,750,1000,1250,1500,1750,2000,2250,2,0,1,0.25,0.25,0.25,0.25,0.25,0.25,0.25,0.25,0.25,0.25,-0.375,-0.375,-0.375,-0.375,-0.375,-0.375,-0.375,-0.375,-0.375,-0.375,-0.375,linear,0.025,TRUE,25,FALSE,1,NA,NA,0,0.5,4,sepmodel,0.796,4.447718407289431e-4,0.00814047761829995,0,10000
10,250,0,250,500,750,1000,1250,1500,1750,2000,2250,2,0,1,0.25,0.25,0.25,0.25,0.25,0.25,0.25,0.25,0.25,0.25,-0.375,-0.375,-0.375,-0.375,-0.375,-0.375,-0.375,-0.375,-0.375,-0.375,-0.375,linear,0.025,TRUE,25,FALSE,1,NA,NA,0,0.5,4,splines,0.8394,-8.66190576515841e-5,0.007250164188985297,0,10000
10,250,0,250,500,750,1000,1250,1500,1750,2000,2250,2,0,1,0.25,0.25,0.25,0.25,0.25,0.25,0.25,0.25,0.25,0.25,-0.375,-0.375,-0.375,-0.375,-0.375,-0.375,-0.375,-0.375,-0.375,-0.375,-0.375,linear,0.025,TRUE,25,FALSE,1,NA,NA,0,0.5,4,splines_cal,0.8383,5.0550155857423906e-05,0.007297076744539604,0,10000
10,250,0,250,500,750,1000,1250,1500,1750,2000,2250,2,0,1,0.25,0.25,0.25,0.25,0.25,0.25,0.25,0.25,0.25,0.25,-0.375,-0.375,-0.375,-0.375,-0.375,-0.375,-0.375,-0.375,-0.375,-0.375,-0.375,linear,0.025,TRUE,25,FALSE,1,NA,NA,0,0.5,5,fixmodel,0.8434,-3.972683185754928e-4,0.00716835815629279,0,10000
10,250,0,250,500,750,1000,1250,1500,1750,2000,2250,2,0,1,0.25,0.25,0.25,0.25,0.25,0.25,0.25,0.25,0.25,0.25,-0.375,-0.375,-0.375,-0.375,-0.375,-0.375,-0.375,-0.375,-0.375,-0.375,-0.375,linear,0.025,TRUE,25,FALSE,1,NA,NA,0,0.5,5,sepmodel,0.798,-2.826420651863058e-4,0.007986196340190857,0,10000
10,250,0,250,500,750,1000,1250,1500,1750,2000,2250,2,0,1,0.25,0.25,0.25,0.25,0.25,0.25,0.25,0.25,0.25,0.25,-0.375,-0.375,-0.375,-0.375,-0.375,-0.375,-0.375,-0.375,-0.375,-0.375,-0.375,linear,0.025,TRUE,25,FALSE,1,NA,NA,0,0.5,5,splines,0.8463,-2.9311234260686773e-4,0.007135270235454147,0,10000
10,250,0,250,500,750,1000,1250,1500,1750,2000,2250,2,0,1,0.25,0.25,0.25,0.25,0.25,0.25,0.25,0.25,0.25,0.25,-0.375,-0.375,-0.375,-0.375,-0.375,-0.375,-0.375,-0.375,-0.375,-0.375,-0.375,linear,0.025,TRUE,25,FALSE,1,NA,NA,0,0.5,5,splines_cal,0.8436,-4.0505325721750305e-4,0.007179992368706414,0,10000
10,250,0,250,500,750,1000,1250,1500,1750,2000,2250,2,0,1,0.25,0.25,0.25,0.25,0.25,0.25,0.25,0.25,0.25,0.25,-0.375,-0.375,-0.375,-0.375,-0.375,-0.375,-0.375,-0.375,-0.375,-0.375,-0.375,linear,0.025,TRUE,25,FALSE,1,NA,NA,0,0.5,6,fixmodel,0.8439,9.06768050177141e-5,0.007082647541811003,0,10000
10,250,0,250,500,750,1000,1250,1500,1750,2000,2250,2,0,1,0.25,0.25,0.25,0.25,0.25,0.25,0.25,0.25,0.25,0.25,-0.375,-0.375,-0.375,-0.375,-0.375,-0.375,-0.375,-0.375,-0.375,-0.375,-0.375,linear,0.025,TRUE,25,FALSE,1,NA,NA,0,0.5,6,sepmodel,0.7935,1.280710248363094e-4,0.007969325633690134,0,10000
10,250,0,250,500,750,1000,1250,1500,1750,2000,2250,2,0,1,0.25,0.25,0.25,0.25,0.25,0.25,0.25,0.25,0.25,0.25,-0.375,-0.375,-0.375,-0.375,-0.375,-0.375,-0.375,-0.375,-0.375,-0.375,-0.375,linear,0.025,TRUE,25,FALSE,1,NA,NA,0,0.5,6,splines,0.8447,1.123418308606224e-4,0.007061417049394369,0,10000
10,250,0,250,500,750,1000,1250,1500,1750,2000,2250,2,0,1,0.25,0.25,0.25,0.25,0.25,0.25,0.25,0.25,0.25,0.25,-0.375,-0.375,-0.375,-0.375,-0.375,-0.375,-0.375,-0.375,-0.375,-0.375,-0.375,linear,0.025,TRUE,25,FALSE,1,NA,NA,0,0.5,6,splines_cal,0.8443,1.373341672924316e-4,0.007098195605509027,0,10000
10,250,0,250,500,750,1000,1250,1500,1750,2000,2250,2,0,1,0.25,0.25,0.25,0.25,0.25,0.25,0.25,0.25,0.25,0.25,-0.375,-0.375,-0.375,-0.375,-0.375,-0.375,-0.375,-0.375,-0.375,-0.375,-0.375,linear,0.025,TRUE,25,FALSE,1,NA,NA,0,0.5,7,fixmodel,0.844,-8.884868511139807e-6,0.0070429246015463005,0,10000
10,250,0,250,500,750,1000,1250,1500,1750,2000,2250,2,0,1,0.25,0.25,0.25,0.25,0.25,0.25,0.25,0.25,0.25,0.25,-0.375,-0.375,-0.375,-0.375,-0.375,-0.375,-0.375,-0.375,-0.375,-0.375,-0.375,linear,0.025,TRUE,25,FALSE,1,NA,NA,0,0.5,7,sepmodel,0.7922,5.456617261407386e-5,0.00804829059468599,0,10000
10,250,0,250,500,750,1000,1250,1500,1750,2000,2250,2,0,1,0.25,0.25,0.25,0.25,0.25,0.25,0.25,0.25,0.25,0.25,-0.375,-0.375,-0.375,-0.375,-0.375,-0.375,-0.375,-0.375,-0.375,-0.375,-0.375,linear,0.025,TRUE,25,FALSE,1,NA,NA,0,0.5,7,splines,0.8447,-5.998344262441366e-6,0.007023724222251909,0,10000
10,250,0,250,500,750,1000,1250,1500,1750,2000,2250,2,0,1,0.25,0.25,0.25,0.25,0.25,0.25,0.25,0.25,0.25,0.25,-0.375,-0.375,-0.375,-0.375,-0.375,-0.375,-0.375,-0.375,-0.375,-0.375,-0.375,linear,0.025,TRUE,25,FALSE,1,NA,NA,0,0.5,7,splines_cal,0.8441,-1.1104400477322169e-6,0.007053618152664981,0,10000
10,250,0,250,500,750,1000,1250,1500,1750,2000,2250,2,0,1,0.25,0.25,0.25,0.25,0.25,0.25,0.25,0.25,0.25,0.25,-0.375,-0.375,-0.375,-0.375,-0.375,-0.375,-0.375,-0.375,-0.375,-0.375,-0.375,linear,0.025,TRUE,25,FALSE,1,NA,NA,0,0.5,8,fixmodel,0.8497,2.383928463884988e-4,0.006932137438699259,0,10000
10,250,0,250,500,750,1000,1250,1500,1750,2000,2250,2,0,1,0.25,0.25,0.25,0.25,0.25,0.25,0.25,0.25,0.25,0.25,-0.375,-0.375,-0.375,-0.375,-0.375,-0.375,-0.375,-0.375,-0.375,-0.375,-0.375,linear,0.025,TRUE,25,FALSE,1,NA,NA,0,0.5,8,sepmodel,0.7927,2.2459604735045605e-4,0.00812193255499586,0,10000
10,250,0,250,500,750,1000,1250,1500,1750,2000,2250,2,0,1,0.25,0.25,0.25,0.25,0.25,0.25,0.25,0.25,0.25,0.25,-0.375,-0.375,-0.375,-0.375,-0.375,-0.375,-0.375,-0.375,-0.375,-0.375,-0.375,linear,0.025,TRUE,25,FALSE,1,NA,NA,0,0.5,8,splines,0.8508,2.956713885016622e-4,0.006902234394257872,0,10000
10,250,0,250,500,750,1000,1250,1500,1750,2000,2250,2,0,1,0.25,0.25,0.25,0.25,0.25,0.25,0.25,0.25,0.25,0.25,-0.375,-0.375,-0.375,-0.375,-0.375,-0.375,-0.375,-0.375,-0.375,-0.375,-0.375,linear,0.025,TRUE,25,FALSE,1,NA,NA,0,0.5,8,splines_cal,0.8511,2.2772323839323163e-4,0.006891377178163323,0,10000
10,250,0,250,500,750,1000,1250,1500,1750,2000,2250,2,0,1,0.25,0.25,0.25,0.25,0.25,0.25,0.25,0.25,0.25,0.25,-0.375,-0.375,-0.375,-0.375,-0.375,-0.375,-0.375,-0.375,-0.375,-0.375,-0.375,linear,0.025,TRUE,25,FALSE,1,NA,NA,0,0.5,9,fixmodel,0.8546,0.001287114521722984,0.006970293392755953,0,10000
10,250,0,250,500,750,1000,1250,1500,1750,2000,2250,2,0,1,0.25,0.25,0.25,0.25,0.25,0.25,0.25,0.25,0.25,0.25,-0.375,-0.375,-0.375,-0.375,-0.375,-0.375,-0.375,-0.375,-0.375,-0.375,-0.375,linear,0.025,TRUE,25,FALSE,1,NA,NA,0,0.5,9,sepmodel,0.7948,0.00102033267157636,0.00814989996015286,0,10000
10,250,0,250,500,750,1000,1250,1500,1750,2000,2250,2,0,1,0.25,0.25,0.25,0.25,0.25,0.25,0.25,0.25,0.25,0.25,-0.375,-0.375,-0.375,-0.375,-0.375,-0.375,-0.375,-0.375,-0.375,-0.375,-0.375,linear,0.025,TRUE,25,FALSE,1,NA,NA,0,0.5,9,splines,0.8567,0.0013266813889223803,0.006959038928929308,0,10000
10,250,0,250,500,750,1000,1250,1500,1750,2000,2250,2,0,1,0.25,0.25,0.25,0.25,0.25,0.25,0.25,0.25,0.25,0.25,-0.375,-0.375,-0.375,-0.375,-0.375,-0.375,-0.375,-0.375,-0.375,-0.375,-0.375,linear,0.025,TRUE,25,FALSE,1,NA,NA,0,0.5,9,splines_cal,0.8565,0.0013356922987303591,0.0069725613569895295,0,10000
10,250,0,250,500,750,1000,1250,1500,1750,2000,2250,2,0,1,0.25,0.25,0.25,0.25,0.25,0.25,0.25,0.25,0.25,0.25,-0.375,-0.375,-0.375,-0.375,-0.375,-0.375,-0.375,-0.375,-0.375,-0.375,-0.375,linear,0.025,TRUE,25,FALSE,1,NA,NA,0,0.5,10,fixmodel,0.8485,-7.712176407501948e-4,0.0072123440559344375,0,10000
10,250,0,250,500,750,1000,1250,1500,1750,2000,2250,2,0,1,0.25,0.25,0.25,0.25,0.25,0.25,0.25,0.25,0.25,0.25,-0.375,-0.375,-0.375,-0.375,-0.375,-0.375,-0.375,-0.375,-0.375,-0.375,-0.375,linear,0.025,TRUE,25,FALSE,1,NA,NA,0,0.5,10,sepmodel,0.785,-9.837209033107665e-4,0.008464016421098574,0,10000
10,250,0,250,500,750,1000,1250,1500,1750,2000,2250,2,0,1,0.25,0.25,0.25,0.25,0.25,0.25,0.25,0.25,0.25,0.25,-0.375,-0.375,-0.375,-0.375,-0.375,-0.375,-0.375,-0.375,-0.375,-0.375,-0.375,linear,0.025,TRUE,25,FALSE,1,NA,NA,0,0.5,10,splines,0.8494,-7.14654947297711e-4,0.0071813762999242345,0,10000
10,250,0,250,500,750,1000,1250,1500,1750,2000,2250,2,0,1,0.25,0.25,0.25,0.25,0.25,0.25,0.25,0.25,0.25,0.25,-0.375,-0.375,-0.375,-0.375,-0.375,-0.375,-0.375,-0.375,-0.375,-0.375,-0.375,linear,0.025,TRUE,25,FALSE,1,NA,NA,0,0.5,10,splines_cal,0.8463,-8.062193397557507e-4,0.007208098497697613,0,10000
10,250,0,250,500,750,1000,1250,1500,1750,2000,2250,2,0,1,0.25,0.25,0.25,0.25,0.25,0.25,0.25,0.25,0.25,0.25,-0.375,-0.375,-0.375,-0.375,-0.375,-0.375,-0.375,-0.375,-0.375,-0.375,-0.375,linear,0.025,TRUE,25,FALSE,2,NA,NA,0,0.5,2,fixmodel,0.8235,-0.0010536349608109919,0.007403518970617572,0,10000
10,250,0,250,500,750,1000,1250,1500,1750,2000,2250,2,0,1,0.25,0.25,0.25,0.25,0.25,0.25,0.25,0.25,0.25,0.25,-0.375,-0.375,-0.375,-0.375,-0.375,-0.375,-0.375,-0.375,-0.375,-0.375,-0.375,linear,0.025,TRUE,25,FALSE,2,NA,NA,0,0.5,2,sepmodel,0.7925,-0.0013402443186959455,0.007952766173977659,0,10000
