pavlakrotka/NCC_FreqModels/simulations/results/results_setting_1_alpha.csv
num_arms,n_arm,d1,d2,d3,d4,d5,d6,d7,d8,d9,d10,period_blocks,mu0,sigma,theta1,theta2,theta3,theta4,theta5,theta6,theta7,theta8,theta9,theta10,lambda0,lambda1,lambda2,lambda3,lambda4,lambda5,lambda6,lambda7,lambda8,lambda9,lambda10,trend,unit_size,alpha,trend_mean,trend_var,ncc,study_arm,model,reject_h0,bias,MSE,failed,nsim
10,250,0,0,0,0,0,0,0,0,0,0,2,0,1,0,0,0,0,0,0,0,0,0,0,-0.5,-0.5,-0.5,-0.5,-0.5,-0.5,-0.5,-0.5,-0.5,-0.5,-0.5,linear,100,0.025,0,0.5,TRUE,2,fixmodel,0.0234,5.191529189395562e-4,0.007839818818592232,0,10000
10,250,0,0,0,0,0,0,0,0,0,0,2,0,1,0,0,0,0,0,0,0,0,0,0,-0.5,-0.5,-0.5,-0.5,-0.5,-0.5,-0.5,-0.5,-0.5,-0.5,-0.5,linear,100,0.025,0,0.5,TRUE,2,poolmodel,0.0224,5.191529189403198e-4,0.007839818818592652,0,10000
10,250,0,0,0,0,0,0,0,0,0,0,2,0,1,0,0,0,0,0,0,0,0,0,0,-0.5,-0.5,-0.5,-0.5,-0.5,-0.5,-0.5,-0.5,-0.5,-0.5,-0.5,linear,100,0.025,0,0.5,TRUE,2,sepmodel,0.0224,5.191529189403198e-4,0.007839818818592652,0,10000
10,250,0,0,0,0,0,0,0,0,0,0,2,0,1,0,0,0,0,0,0,0,0,0,0,-0.5,-0.5,-0.5,-0.5,-0.5,-0.5,-0.5,-0.5,-0.5,-0.5,-0.5,linear,100,0.025,0,0.5,TRUE,3,fixmodel,0.0249,0.0018347146508525852,0.008006661941169961,0,10000
10,250,0,0,0,0,0,0,0,0,0,0,2,0,1,0,0,0,0,0,0,0,0,0,0,-0.5,-0.5,-0.5,-0.5,-0.5,-0.5,-0.5,-0.5,-0.5,-0.5,-0.5,linear,100,0.025,0,0.5,TRUE,3,poolmodel,0.025,0.0018347146508533975,0.008006661941170017,0,10000
10,250,0,0,0,0,0,0,0,0,0,0,2,0,1,0,0,0,0,0,0,0,0,0,0,-0.5,-0.5,-0.5,-0.5,-0.5,-0.5,-0.5,-0.5,-0.5,-0.5,-0.5,linear,100,0.025,0,0.5,TRUE,3,sepmodel,0.025,0.0018347146508533975,0.008006661941170017,0,10000
10,250,0,0,0,0,0,0,0,0,0,0,2,0,1,0,0,0,0,0,0,0,0,0,0,-0.5,-0.5,-0.5,-0.5,-0.5,-0.5,-0.5,-0.5,-0.5,-0.5,-0.5,linear,100,0.025,0,0.5,TRUE,4,fixmodel,0.0213,-2.4060761657171092e-4,0.007880371121927254,0,10000
10,250,0,0,0,0,0,0,0,0,0,0,2,0,1,0,0,0,0,0,0,0,0,0,0,-0.5,-0.5,-0.5,-0.5,-0.5,-0.5,-0.5,-0.5,-0.5,-0.5,-0.5,linear,100,0.025,0,0.5,TRUE,4,poolmodel,0.0215,-2.4060761657092558e-4,0.00788037112192735,0,10000
10,250,0,0,0,0,0,0,0,0,0,0,2,0,1,0,0,0,0,0,0,0,0,0,0,-0.5,-0.5,-0.5,-0.5,-0.5,-0.5,-0.5,-0.5,-0.5,-0.5,-0.5,linear,100,0.025,0,0.5,TRUE,4,sepmodel,0.0215,-2.4060761657092558e-4,0.00788037112192735,0,10000
10,250,0,0,0,0,0,0,0,0,0,0,2,0,1,0,0,0,0,0,0,0,0,0,0,-0.5,-0.5,-0.5,-0.5,-0.5,-0.5,-0.5,-0.5,-0.5,-0.5,-0.5,linear,100,0.025,0,0.5,TRUE,5,fixmodel,0.025,1.5149231084478118e-4,0.008028864223428174,0,10000
10,250,0,0,0,0,0,0,0,0,0,0,2,0,1,0,0,0,0,0,0,0,0,0,0,-0.5,-0.5,-0.5,-0.5,-0.5,-0.5,-0.5,-0.5,-0.5,-0.5,-0.5,linear,100,0.025,0,0.5,TRUE,5,poolmodel,0.025,1.514923108455559e-4,0.008028864223428207,0,10000
10,250,0,0,0,0,0,0,0,0,0,0,2,0,1,0,0,0,0,0,0,0,0,0,0,-0.5,-0.5,-0.5,-0.5,-0.5,-0.5,-0.5,-0.5,-0.5,-0.5,-0.5,linear,100,0.025,0,0.5,TRUE,5,sepmodel,0.025,1.514923108455559e-4,0.008028864223428207,0,10000
10,250,0,0,0,0,0,0,0,0,0,0,2,0,1,0,0,0,0,0,0,0,0,0,0,-0.5,-0.5,-0.5,-0.5,-0.5,-0.5,-0.5,-0.5,-0.5,-0.5,-0.5,linear,100,0.025,0,0.5,TRUE,6,fixmodel,0.0258,8.696314280397123e-4,0.007996390920242182,0,10000
10,250,0,0,0,0,0,0,0,0,0,0,2,0,1,0,0,0,0,0,0,0,0,0,0,-0.5,-0.5,-0.5,-0.5,-0.5,-0.5,-0.5,-0.5,-0.5,-0.5,-0.5,linear,100,0.025,0,0.5,TRUE,6,poolmodel,0.0254,8.696314280405153e-4,0.007996390920242222,0,10000
10,250,0,0,0,0,0,0,0,0,0,0,2,0,1,0,0,0,0,0,0,0,0,0,0,-0.5,-0.5,-0.5,-0.5,-0.5,-0.5,-0.5,-0.5,-0.5,-0.5,-0.5,linear,100,0.025,0,0.5,TRUE,6,sepmodel,0.0254,8.696314280405153e-4,0.007996390920242222,0,10000
10,250,0,0,0,0,0,0,0,0,0,0,2,0,1,0,0,0,0,0,0,0,0,0,0,-0.5,-0.5,-0.5,-0.5,-0.5,-0.5,-0.5,-0.5,-0.5,-0.5,-0.5,linear,100,0.025,0,0.5,TRUE,7,fixmodel,0.0234,6.902153121338682e-4,0.007990525475206242,0,10000
10,250,0,0,0,0,0,0,0,0,0,0,2,0,1,0,0,0,0,0,0,0,0,0,0,-0.5,-0.5,-0.5,-0.5,-0.5,-0.5,-0.5,-0.5,-0.5,-0.5,-0.5,linear,100,0.025,0,0.5,TRUE,7,poolmodel,0.023,6.902153121346667e-4,0.007990525475206303,0,10000
10,250,0,0,0,0,0,0,0,0,0,0,2,0,1,0,0,0,0,0,0,0,0,0,0,-0.5,-0.5,-0.5,-0.5,-0.5,-0.5,-0.5,-0.5,-0.5,-0.5,-0.5,linear,100,0.025,0,0.5,TRUE,7,sepmodel,0.023,6.902153121346667e-4,0.007990525475206303,0,10000
10,250,0,0,0,0,0,0,0,0,0,0,2,0,1,0,0,0,0,0,0,0,0,0,0,-0.5,-0.5,-0.5,-0.5,-0.5,-0.5,-0.5,-0.5,-0.5,-0.5,-0.5,linear,100,0.025,0,0.5,TRUE,8,fixmodel,0.0237,-8.695503788629723e-5,0.008047306512474865,0,10000
10,250,0,0,0,0,0,0,0,0,0,0,2,0,1,0,0,0,0,0,0,0,0,0,0,-0.5,-0.5,-0.5,-0.5,-0.5,-0.5,-0.5,-0.5,-0.5,-0.5,-0.5,linear,100,0.025,0,0.5,TRUE,8,poolmodel,0.0242,-8.695503788550335e-5,0.00804730651247489,0,10000
10,250,0,0,0,0,0,0,0,0,0,0,2,0,1,0,0,0,0,0,0,0,0,0,0,-0.5,-0.5,-0.5,-0.5,-0.5,-0.5,-0.5,-0.5,-0.5,-0.5,-0.5,linear,100,0.025,0,0.5,TRUE,8,sepmodel,0.0242,-8.695503788550335e-5,0.00804730651247489,0,10000
10,250,0,0,0,0,0,0,0,0,0,0,2,0,1,0,0,0,0,0,0,0,0,0,0,-0.5,-0.5,-0.5,-0.5,-0.5,-0.5,-0.5,-0.5,-0.5,-0.5,-0.5,linear,100,0.025,0,0.5,TRUE,9,fixmodel,0.022,4.8620901937973277e-4,0.007976720756322385,0,10000
10,250,0,0,0,0,0,0,0,0,0,0,2,0,1,0,0,0,0,0,0,0,0,0,0,-0.5,-0.5,-0.5,-0.5,-0.5,-0.5,-0.5,-0.5,-0.5,-0.5,-0.5,linear,100,0.025,0,0.5,TRUE,9,poolmodel,0.0214,4.8620901938054804e-4,0.007976720756322433,0,10000
10,250,0,0,0,0,0,0,0,0,0,0,2,0,1,0,0,0,0,0,0,0,0,0,0,-0.5,-0.5,-0.5,-0.5,-0.5,-0.5,-0.5,-0.5,-0.5,-0.5,-0.5,linear,100,0.025,0,0.5,TRUE,9,sepmodel,0.0214,4.8620901938054804e-4,0.007976720756322433,0,10000
10,250,0,0,0,0,0,0,0,0,0,0,2,0,1,0,0,0,0,0,0,0,0,0,0,-0.5,-0.5,-0.5,-0.5,-0.5,-0.5,-0.5,-0.5,-0.5,-0.5,-0.5,linear,100,0.025,0,0.5,TRUE,10,fixmodel,0.0239,8.335181304526022e-4,0.008037977226582822,0,10000
10,250,0,0,0,0,0,0,0,0,0,0,2,0,1,0,0,0,0,0,0,0,0,0,0,-0.5,-0.5,-0.5,-0.5,-0.5,-0.5,-0.5,-0.5,-0.5,-0.5,-0.5,linear,100,0.025,0,0.5,TRUE,10,poolmodel,0.0243,8.335181304533777e-4,0.008037977226582846,0,10000
10,250,0,0,0,0,0,0,0,0,0,0,2,0,1,0,0,0,0,0,0,0,0,0,0,-0.5,-0.5,-0.5,-0.5,-0.5,-0.5,-0.5,-0.5,-0.5,-0.5,-0.5,linear,100,0.025,0,0.5,TRUE,10,sepmodel,0.0243,8.335181304533777e-4,0.008037977226582846,0,10000
10,250,0,25,50,75,100,125,150,175,200,225,2,0,1,0,0,0,0,0,0,0,0,0,0,-0.5,-0.5,-0.5,-0.5,-0.5,-0.5,-0.5,-0.5,-0.5,-0.5,-0.5,linear,100,0.025,0,0.5,TRUE,2,fixmodel,0.024,4.992342924884217e-4,0.007814687899877241,0,10000
10,250,0,25,50,75,100,125,150,175,200,225,2,0,1,0,0,0,0,0,0,0,0,0,0,-0.5,-0.5,-0.5,-0.5,-0.5,-0.5,-0.5,-0.5,-0.5,-0.5,-0.5,linear,100,0.025,0,0.5,TRUE,2,poolmodel,0.0178,-0.010405534808842003,0.007821855119168726,0,10000
10,250,0,25,50,75,100,125,150,175,200,225,2,0,1,0,0,0,0,0,0,0,0,0,0,-0.5,-0.5,-0.5,-0.5,-0.5,-0.5,-0.5,-0.5,-0.5,-0.5,-0.5,linear,100,0.025,0,0.5,TRUE,2,sepmodel,0.0245,3.870070974383822e-4,0.007948586196665827,0,10000
10,250,0,25,50,75,100,125,150,175,200,225,2,0,1,0,0,0,0,0,0,0,0,0,0,-0.5,-0.5,-0.5,-0.5,-0.5,-0.5,-0.5,-0.5,-0.5,-0.5,-0.5,linear,100,0.025,0,0.5,TRUE,3,fixmodel,0.0233,-0.0013766191586852899,0.0076826297781412475,0,10000
10,250,0,25,50,75,100,125,150,175,200,225,2,0,1,0,0,0,0,0,0,0,0,0,0,-0.5,-0.5,-0.5,-0.5,-0.5,-0.5,-0.5,-0.5,-0.5,-0.5,-0.5,linear,100,0.025,0,0.5,TRUE,3,poolmodel,0.0131,-0.01920204986158028,0.007904256434287733,0,10000
10,250,0,25,50,75,100,125,150,175,200,225,2,0,1,0,0,0,0,0,0,0,0,0,0,-0.5,-0.5,-0.5,-0.5,-0.5,-0.5,-0.5,-0.5,-0.5,-0.5,-0.5,linear,100,0.025,0,0.5,TRUE,3,sepmodel,0.0219,-0.0016065138432520719,0.007893452539436052,0,10000
10,250,0,25,50,75,100,125,150,175,200,225,2,0,1,0,0,0,0,0,0,0,0,0,0,-0.5,-0.5,-0.5,-0.5,-0.5,-0.5,-0.5,-0.5,-0.5,-0.5,-0.5,linear,100,0.025,0,0.5,TRUE,4,fixmodel,0.0238,-1.7973042410308464e-4,0.007636050133635072,0,10000
10,250,0,25,50,75,100,125,150,175,200,225,2,0,1,0,0,0,0,0,0,0,0,0,0,-0.5,-0.5,-0.5,-0.5,-0.5,-0.5,-0.5,-0.5,-0.5,-0.5,-0.5,linear,100,0.025,0,0.5,TRUE,4,poolmodel,0.0135,-0.02434561219133176,0.008049483587288533,0,10000
10,250,0,25,50,75,100,125,150,175,200,225,2,0,1,0,0,0,0,0,0,0,0,0,0,-0.5,-0.5,-0.5,-0.5,-0.5,-0.5,-0.5,-0.5,-0.5,-0.5,-0.5,linear,100,0.025,0,0.5,TRUE,4,sepmodel,0.0243,-4.326586253423962e-4,0.007918925753544935,0,10000
10,250,0,25,50,75,100,125,150,175,200,225,2,0,1,0,0,0,0,0,0,0,0,0,0,-0.5,-0.5,-0.5,-0.5,-0.5,-0.5,-0.5,-0.5,-0.5,-0.5,-0.5,linear,100,0.025,0,0.5,TRUE,5,fixmodel,0.0249,-5.652347897195624e-4,0.007802112314581642,0,10000
10,250,0,25,50,75,100,125,150,175,200,225,2,0,1,0,0,0,0,0,0,0,0,0,0,-0.5,-0.5,-0.5,-0.5,-0.5,-0.5,-0.5,-0.5,-0.5,-0.5,-0.5,linear,100,0.025,0,0.5,TRUE,5,poolmodel,0.0106,-0.02946113327657077,0.008495238116792021,0,10000
10,250,0,25,50,75,100,125,150,175,200,225,2,0,1,0,0,0,0,0,0,0,0,0,0,-0.5,-0.5,-0.5,-0.5,-0.5,-0.5,-0.5,-0.5,-0.5,-0.5,-0.5,linear,100,0.025,0,0.5,TRUE,5,sepmodel,0.0241,-7.569127182670646e-4,0.008134053085716304,0,10000
10,250,0,25,50,75,100,125,150,175,200,225,2,0,1,0,0,0,0,0,0,0,0,0,0,-0.5,-0.5,-0.5,-0.5,-0.5,-0.5,-0.5,-0.5,-0.5,-0.5,-0.5,linear,100,0.025,0,0.5,TRUE,6,fixmodel,0.024,-2.2884739612287816e-4,0.007472654152961239,0,10000
10,250,0,25,50,75,100,125,150,175,200,225,2,0,1,0,0,0,0,0,0,0,0,0,0,-0.5,-0.5,-0.5,-0.5,-0.5,-0.5,-0.5,-0.5,-0.5,-0.5,-0.5,linear,100,0.025,0,0.5,TRUE,6,poolmodel,0.0084,-0.03291246468193328,0.008390140397173357,0,10000
10,250,0,25,50,75,100,125,150,175,200,225,2,0,1,0,0,0,0,0,0,0,0,0,0,-0.5,-0.5,-0.5,-0.5,-0.5,-0.5,-0.5,-0.5,-0.5,-0.5,-0.5,linear,100,0.025,0,0.5,TRUE,6,sepmodel,0.0234,-3.976728550781375e-4,0.007834019792264613,0,10000
10,250,0,25,50,75,100,125,150,175,200,225,2,0,1,0,0,0,0,0,0,0,0,0,0,-0.5,-0.5,-0.5,-0.5,-0.5,-0.5,-0.5,-0.5,-0.5,-0.5,-0.5,linear,100,0.025,0,0.5,TRUE,7,fixmodel,0.0235,-0.0025481529755177106,0.007442284938568353,0,10000
10,250,0,25,50,75,100,125,150,175,200,225,2,0,1,0,0,0,0,0,0,0,0,0,0,-0.5,-0.5,-0.5,-0.5,-0.5,-0.5,-0.5,-0.5,-0.5,-0.5,-0.5,linear,100,0.025,0,0.5,TRUE,7,poolmodel,0.0076,-0.039040180030555115,0.008795700296736484,0,10000
10,250,0,25,50,75,100,125,150,175,200,225,2,0,1,0,0,0,0,0,0,0,0,0,0,-0.5,-0.5,-0.5,-0.5,-0.5,-0.5,-0.5,-0.5,-0.5,-0.5,-0.5,linear,100,0.025,0,0.5,TRUE,7,sepmodel,0.023,-0.0027408844592150695,0.007877720565822461,0,10000
10,250,0,25,50,75,100,125,150,175,200,225,2,0,1,0,0,0,0,0,0,0,0,0,0,-0.5,-0.5,-0.5,-0.5,-0.5,-0.5,-0.5,-0.5,-0.5,-0.5,-0.5,linear,100,0.025,0,0.5,TRUE,8,fixmodel,0.0232,-9.02353712657625e-4,0.007368377021690039,0,10000
10,250,0,25,50,75,100,125,150,175,200,225,2,0,1,0,0,0,0,0,0,0,0,0,0,-0.5,-0.5,-0.5,-0.5,-0.5,-0.5,-0.5,-0.5,-0.5,-0.5,-0.5,linear,100,0.025,0,0.5,TRUE,8,poolmodel,0.0066,-0.04029717177988443,0.008830699236435265,0,10000
10,250,0,25,50,75,100,125,150,175,200,225,2,0,1,0,0,0,0,0,0,0,0,0,0,-0.5,-0.5,-0.5,-0.5,-0.5,-0.5,-0.5,-0.5,-0.5,-0.5,-0.5,linear,100,0.025,0,0.5,TRUE,8,sepmodel,0.022,-0.0010821937014523436,0.0077878732844703525,0,10000
10,250,0,25,50,75,100,125,150,175,200,225,2,0,1,0,0,0,0,0,0,0,0,0,0,-0.5,-0.5,-0.5,-0.5,-0.5,-0.5,-0.5,-0.5,-0.5,-0.5,-0.5,linear,100,0.025,0,0.5,TRUE,9,fixmodel,0.0213,-0.00245814333945153,0.007532096956676742,0,10000
10,250,0,25,50,75,100,125,150,175,200,225,2,0,1,0,0,0,0,0,0,0,0,0,0,-0.5,-0.5,-0.5,-0.5,-0.5,-0.5,-0.5,-0.5,-0.5,-0.5,-0.5,linear,100,0.025,0,0.5,TRUE,9,poolmodel,0.0055,-0.04474969498563194,0.009353899325366745,0,10000
10,250,0,25,50,75,100,125,150,175,200,225,2,0,1,0,0,0,0,0,0,0,0,0,0,-0.5,-0.5,-0.5,-0.5,-0.5,-0.5,-0.5,-0.5,-0.5,-0.5,-0.5,linear,100,0.025,0,0.5,TRUE,9,sepmodel,0.02,-0.0027280454845193414,0.007965459749206889,0,10000
10,250,0,25,50,75,100,125,150,175,200,225,2,0,1,0,0,0,0,0,0,0,0,0,0,-0.5,-0.5,-0.5,-0.5,-0.5,-0.5,-0.5,-0.5,-0.5,-0.5,-0.5,linear,100,0.025,0,0.5,TRUE,10,fixmodel,0.0234,-7.202230852242039e-4,0.007532432743395252,0,10000
10,250,0,25,50,75,100,125,150,175,200,225,2,0,1,0,0,0,0,0,0,0,0,0,0,-0.5,-0.5,-0.5,-0.5,-0.5,-0.5,-0.5,-0.5,-0.5,-0.5,-0.5,linear,100,0.025,0,0.5,TRUE,10,poolmodel,0.0056,-0.04495317369955415,0.009351907403902009,0,10000
10,250,0,25,50,75,100,125,150,175,200,225,2,0,1,0,0,0,0,0,0,0,0,0,0,-0.5,-0.5,-0.5,-0.5,-0.5,-0.5,-0.5,-0.5,-0.5,-0.5,-0.5,linear,100,0.025,0,0.5,TRUE,10,sepmodel,0.0226,-9.528027509961778e-4,0.008028192766592406,0,10000
10,250,0,50,100,150,200,250,300,350,400,450,2,0,1,0,0,0,0,0,0,0,0,0,0,-0.5,-0.5,-0.5,-0.5,-0.5,-0.5,-0.5,-0.5,-0.5,-0.5,-0.5,linear,100,0.025,0,0.5,TRUE,2,fixmodel,0.024,4.6149115986729824e-4,0.007647011839409217,0,10000
10,250,0,50,100,150,200,250,300,350,400,450,2,0,1,0,0,0,0,0,0,0,0,0,0,-0.5,-0.5,-0.5,-0.5,-0.5,-0.5,-0.5,-0.5,-0.5,-0.5,-0.5,linear,100,0.025,0,0.5,TRUE,2,poolmodel,0.0156,-0.0161868301926249,0.0077757880887357024,0,10000
10,250,0,50,100,150,200,250,300,350,400,450,2,0,1,0,0,0,0,0,0,0,0,0,0,-0.5,-0.5,-0.5,-0.5,-0.5,-0.5,-0.5,-0.5,-0.5,-0.5,-0.5,linear,100,0.025,0,0.5,TRUE,2,sepmodel,0.0231,4.091214940419793e-4,0.007835781872643997,0,10000
10,250,0,50,100,150,200,250,300,350,400,450,2,0,1,0,0,0,0,0,0,0,0,0,0,-0.5,-0.5,-0.5,-0.5,-0.5,-0.5,-0.5,-0.5,-0.5,-0.5,-0.5,linear,100,0.025,0,0.5,TRUE,3,fixmodel,0.0238,1.2186136265003525e-4,0.0074886188065522,0,10000
10,250,0,50,100,150,200,250,300,350,400,450,2,0,1,0,0,0,0,0,0,0,0,0,0,-0.5,-0.5,-0.5,-0.5,-0.5,-0.5,-0.5,-0.5,-0.5,-0.5,-0.5,linear,100,0.025,0,0.5,TRUE,3,poolmodel,0.0111,-0.029767166196411513,0.008180785607765657,0,10000
10,250,0,50,100,150,200,250,300,350,400,450,2,0,1,0,0,0,0,0,0,0,0,0,0,-0.5,-0.5,-0.5,-0.5,-0.5,-0.5,-0.5,-0.5,-0.5,-0.5,-0.5,linear,100,0.025,0,0.5,TRUE,3,sepmodel,0.0227,5.795339236380255e-5,0.007805775430892595,0,10000
10,250,0,50,100,150,200,250,300,350,400,450,2,0,1,0,0,0,0,0,0,0,0,0,0,-0.5,-0.5,-0.5,-0.5,-0.5,-0.5,-0.5,-0.5,-0.5,-0.5,-0.5,linear,100,0.025,0,0.5,TRUE,4,fixmodel,0.0238,-2.628125585717956e-5,0.007544206780581651,0,10000
10,250,0,50,100,150,200,250,300,350,400,450,2,0,1,0,0,0,0,0,0,0,0,0,0,-0.5,-0.5,-0.5,-0.5,-0.5,-0.5,-0.5,-0.5,-0.5,-0.5,-0.5,linear,100,0.025,0,0.5,TRUE,4,poolmodel,0.0058,-0.0409745550249424,0.008938150432782989,0,10000
10,250,0,50,100,150,200,250,300,350,400,450,2,0,1,0,0,0,0,0,0,0,0,0,0,-0.5,-0.5,-0.5,-0.5,-0.5,-0.5,-0.5,-0.5,-0.5,-0.5,-0.5,linear,100,0.025,0,0.5,TRUE,4,sepmodel,0.0232,-1.5453072148674825e-4,0.008014533791358663,0,10000
10,250,0,50,100,150,200,250,300,350,400,450,2,0,1,0,0,0,0,0,0,0,0,0,0,-0.5,-0.5,-0.5,-0.5,-0.5,-0.5,-0.5,-0.5,-0.5,-0.5,-0.5,linear,100,0.025,0,0.5,TRUE,5,fixmodel,0.0229,5.199492135141315e-4,0.0074061756489077046,0,10000
10,250,0,50,100,150,200,250,300,350,400,450,2,0,1,0,0,0,0,0,0,0,0,0,0,-0.5,-0.5,-0.5,-0.5,-0.5,-0.5,-0.5,-0.5,-0.5,-0.5,-0.5,linear,100,0.025,0,0.5,TRUE,5,poolmodel,0.0049,-0.04936620994280017,0.009518148690029458,0,10000
10,250,0,50,100,150,200,250,300,350,400,450,2,0,1,0,0,0,0,0,0,0,0,0,0,-0.5,-0.5,-0.5,-0.5,-0.5,-0.5,-0.5,-0.5,-0.5,-0.5,-0.5,linear,100,0.025,0,0.5,TRUE,5,sepmodel,0.0228,4.0468269353583376e-4,0.00799307990793433,0,10000
10,250,0,50,100,150,200,250,300,350,400,450,2,0,1,0,0,0,0,0,0,0,0,0,0,-0.5,-0.5,-0.5,-0.5,-0.5,-0.5,-0.5,-0.5,-0.5,-0.5,-0.5,linear,100,0.025,0,0.5,TRUE,6,fixmodel,0.0259,0.0010634060485347492,0.007478188973765464,0,10000
10,250,0,50,100,150,200,250,300,350,400,450,2,0,1,0,0,0,0,0,0,0,0,0,0,-0.5,-0.5,-0.5,-0.5,-0.5,-0.5,-0.5,-0.5,-0.5,-0.5,-0.5,linear,100,0.025,0,0.5,TRUE,6,poolmodel,0.0033,-0.056193909995539686,0.010297169076438304,0,10000
10,250,0,50,100,150,200,250,300,350,400,450,2,0,1,0,0,0,0,0,0,0,0,0,0,-0.5,-0.5,-0.5,-0.5,-0.5,-0.5,-0.5,-0.5,-0.5,-0.5,-0.5,linear,100,0.025,0,0.5,TRUE,6,sepmodel,0.0262,9.505203600669427e-4,0.008188854820551384,0,10000
10,250,0,50,100,150,200,250,300,350,400,450,2,0,1,0,0,0,0,0,0,0,0,0,0,-0.5,-0.5,-0.5,-0.5,-0.5,-0.5,-0.5,-0.5,-0.5,-0.5,-0.5,linear,100,0.025,0,0.5,TRUE,7,fixmodel,0.0268,5.70139417026271e-4,0.007549618038296865,0,10000
10,250,0,50,100,150,200,250,300,350,400,450,2,0,1,0,0,0,0,0,0,0,0,0,0,-0.5,-0.5,-0.5,-0.5,-0.5,-0.5,-0.5,-0.5,-0.5,-0.5,-0.5,linear,100,0.025,0,0.5,TRUE,7,poolmodel,0.0034,-0.06323545243048158,0.011265526347593162,0,10000
10,250,0,50,100,150,200,250,300,350,400,450,2,0,1,0,0,0,0,0,0,0,0,0,0,-0.5,-0.5,-0.5,-0.5,-0.5,-0.5,-0.5,-0.5,-0.5,-0.5,-0.5,linear,100,0.025,0,0.5,TRUE,7,sepmodel,0.0239,3.4345062368614843e-4,0.008229277916786317,0,10000
10,250,0,50,100,150,200,250,300,350,400,450,2,0,1,0,0,0,0,0,0,0,0,0,0,-0.5,-0.5,-0.5,-0.5,-0.5,-0.5,-0.5,-0.5,-0.5,-0.5,-0.5,linear,100,0.025,0,0.5,TRUE,8,fixmodel,0.0219,2.107420118470397e-4,0.00713033420852754,0,10000
10,250,0,50,100,150,200,250,300,350,400,450,2,0,1,0,0,0,0,0,0,0,0,0,0,-0.5,-0.5,-0.5,-0.5,-0.5,-0.5,-0.5,-0.5,-0.5,-0.5,-0.5,linear,100,0.025,0,0.5,TRUE,8,poolmodel,0.0021,-0.07012454269744496,0.011743831299497758,0,10000
10,250,0,50,100,150,200,250,300,350,400,450,2,0,1,0,0,0,0,0,0,0,0,0,0,-0.5,-0.5,-0.5,-0.5,-0.5,-0.5,-0.5,-0.5,-0.5,-0.5,-0.5,linear,100,0.025,0,0.5,TRUE,8,sepmodel,0.0228,1.6981050929118584e-5,0.007850952521170877,0,10000
10,250,0,50,100,150,200,250,300,350,400,450,2,0,1,0,0,0,0,0,0,0,0,0,0,-0.5,-0.5,-0.5,-0.5,-0.5,-0.5,-0.5,-0.5,-0.5,-0.5,-0.5,linear,100,0.025,0,0.5,TRUE,9,fixmodel,0.0278,0.0011875911249353889,0.007378702435025857,0,10000
10,250,0,50,100,150,200,250,300,350,400,450,2,0,1,0,0,0,0,0,0,0,0,0,0,-0.5,-0.5,-0.5,-0.5,-0.5,-0.5,-0.5,-0.5,-0.5,-0.5,-0.5,linear,100,0.025,0,0.5,TRUE,9,poolmodel,0.0013,-0.07379127906759717,0.01245827234633496,0,10000
10,250,0,50,100,150,200,250,300,350,400,450,2,0,1,0,0,0,0,0,0,0,0,0,0,-0.5,-0.5,-0.5,-0.5,-0.5,-0.5,-0.5,-0.5,-0.5,-0.5,-0.5,linear,100,0.025,0,0.5,TRUE,9,sepmodel,0.0274,9.163590618082877e-4,0.008148394880045118,0,10000
10,250,0,50,100,150,200,250,300,350,400,450,2,0,1,0,0,0,0,0,0,0,0,0,0,-0.5,-0.5,-0.5,-0.5,-0.5,-0.5,-0.5,-0.5,-0.5,-0.5,-0.5,linear,100,0.025,0,0.5,TRUE,10,fixmodel,0.0232,3.5431544903764524e-4,0.007134742570344202,0,10000
10,250,0,50,100,150,200,250,300,350,400,450,2,0,1,0,0,0,0,0,0,0,0,0,0,-0.5,-0.5,-0.5,-0.5,-0.5,-0.5,-0.5,-0.5,-0.5,-0.5,-0.5,linear,100,0.025,0,0.5,TRUE,10,poolmodel,0.0014,-0.0792533282318451,0.013110613954660965,0,10000
10,250,0,50,100,150,200,250,300,350,400,450,2,0,1,0,0,0,0,0,0,0,0,0,0,-0.5,-0.5,-0.5,-0.5,-0.5,-0.5,-0.5,-0.5,-0.5,-0.5,-0.5,linear,100,0.025,0,0.5,TRUE,10,sepmodel,0.0229,3.885378577100704e-6,0.007913562801746836,0,10000
10,250,0,75,150,225,300,375,450,525,600,675,2,0,1,0,0,0,0,0,0,0,0,0,0,-0.5,-0.5,-0.5,-0.5,-0.5,-0.5,-0.5,-0.5,-0.5,-0.5,-0.5,linear,100,0.025,0,0.5,TRUE,2,fixmodel,0.0247,-0.0015130805513918436,0.00781413091349091,0,10000
10,250,0,75,150,225,300,375,450,525,600,675,2,0,1,0,0,0,0,0,0,0,0,0,0,-0.5,-0.5,-0.5,-0.5,-0.5,-0.5,-0.5,-0.5,-0.5,-0.5,-0.5,linear,100,0.025,0,0.5,TRUE,2,poolmodel,0.0117,-0.022733944574142875,0.008043048887826055,0,10000
10,250,0,75,150,225,300,375,450,525,600,675,2,0,1,0,0,0,0,0,0,0,0,0,0,-0.5,-0.5,-0.5,-0.5,-0.5,-0.5,-0.5,-0.5,-0.5,-0.5,-0.5,linear,100,0.025,0,0.5,TRUE,2,sepmodel,0.026,-0.0017379940498980615,0.008097135873633749,0,10000
10,250,0,75,150,225,300,375,450,525,600,675,2,0,1,0,0,0,0,0,0,0,0,0,0,-0.5,-0.5,-0.5,-0.5,-0.5,-0.5,-0.5,-0.5,-0.5,-0.5,-0.5,linear,100,0.025,0,0.5,TRUE,3,fixmodel,0.026,0.0012607315320208592,0.007484631595380589,0,10000
10,250,0,75,150,225,300,375,450,525,600,675,2,0,1,0,0,0,0,0,0,0,0,0,0,-0.5,-0.5,-0.5,-0.5,-0.5,-0.5,-0.5,-0.5,-0.5,-0.5,-0.5,linear,100,0.025,0,0.5,TRUE,3,poolmodel,0.0077,-0.03761273754386241,0.00860952465916946,0,10000
10,250,0,75,150,225,300,375,450,525,600,675,2,0,1,0,0,0,0,0,0,0,0,0,0,-0.5,-0.5,-0.5,-0.5,-0.5,-0.5,-0.5,-0.5,-0.5,-0.5,-0.5,linear,100,0.025,0,0.5,TRUE,3,sepmodel,0.0246,0.0012770300251333372,0.007973833434345413,0,10000
10,250,0,75,150,225,300,375,450,525,600,675,2,0,1,0,0,0,0,0,0,0,0,0,0,-0.5,-0.5,-0.5,-0.5,-0.5,-0.5,-0.5,-0.5,-0.5,-0.5,-0.5,linear,100,0.025,0,0.5,TRUE,4,fixmodel,0.025,9.30210495373548e-4,0.007397832084765623,0,10000
10,250,0,75,150,225,300,375,450,525,600,675,2,0,1,0,0,0,0,0,0,0,0,0,0,-0.5,-0.5,-0.5,-0.5,-0.5,-0.5,-0.5,-0.5,-0.5,-0.5,-0.5,linear,100,0.025,0,0.5,TRUE,4,poolmodel,0.0045,-0.05309683359309184,0.009857872158424043,0,10000
10,250,0,75,150,225,300,375,450,525,600,675,2,0,1,0,0,0,0,0,0,0,0,0,0,-0.5,-0.5,-0.5,-0.5,-0.5,-0.5,-0.5,-0.5,-0.5,-0.5,-0.5,linear,100,0.025,0,0.5,TRUE,4,sepmodel,0.0232,9.358616369718611e-4,0.00794733965987879,0,10000
10,250,0,75,150,225,300,375,450,525,600,675,2,0,1,0,0,0,0,0,0,0,0,0,0,-0.5,-0.5,-0.5,-0.5,-0.5,-0.5,-0.5,-0.5,-0.5,-0.5,-0.5,linear,100,0.025,0,0.5,TRUE,5,fixmodel,0.0247,-6.817886587616801e-4,0.007222475055476028,0,10000
10,250,0,75,150,225,300,375,450,525,600,675,2,0,1,0,0,0,0,0,0,0,0,0,0,-0.5,-0.5,-0.5,-0.5,-0.5,-0.5,-0.5,-0.5,-0.5,-0.5,-0.5,linear,100,0.025,0,0.5,TRUE,5,poolmodel,0.0035,-0.06743610513041545,0.011363503579391487,0,10000
10,250,0,75,150,225,300,375,450,525,600,675,2,0,1,0,0,0,0,0,0,0,0,0,0,-0.5,-0.5,-0.5,-0.5,-0.5,-0.5,-0.5,-0.5,-0.5,-0.5,-0.5,linear,100,0.025,0,0.5,TRUE,5,sepmodel,0.0245,-3.0072588815091875e-4,0.007867098066283698,0,10000
10,250,0,75,150,225,300,375,450,525,600,675,2,0,1,0,0,0,0,0,0,0,0,0,0,-0.5,-0.5,-0.5,-0.5,-0.5,-0.5,-0.5,-0.5,-0.5,-0.5,-0.5,linear,100,0.025,0,0.5,TRUE,6,fixmodel,0.0253,4.936084902385121e-4,0.0071126098176814935,0,10000
10,250,0,75,150,225,300,375,450,525,600,675,2,0,1,0,0,0,0,0,0,0,0,0,0,-0.5,-0.5,-0.5,-0.5,-0.5,-0.5,-0.5,-0.5,-0.5,-0.5,-0.5,linear,100,0.025,0,0.5,TRUE,6,poolmodel,0.0018,-0.0776662884785542,0.0127669080906135,0,10000
10,250,0,75,150,225,300,375,450,525,600,675,2,0,1,0,0,0,0,0,0,0,0,0,0,-0.5,-0.5,-0.5,-0.5,-0.5,-0.5,-0.5,-0.5,-0.5,-0.5,-0.5,linear,100,0.025,0,0.5,TRUE,6,sepmodel,0.0234,7.90150017116151e-4,0.007835240099570866,0,10000
10,250,0,75,150,225,300,375,450,525,600,675,2,0,1,0,0,0,0,0,0,0,0,0,0,-0.5,-0.5,-0.5,-0.5,-0.5,-0.5,-0.5,-0.5,-0.5,-0.5,-0.5,linear,100,0.025,0,0.5,TRUE,7,fixmodel,0.0252,3.573823892997728e-4,0.007085897109579972,0,10000
10,250,0,75,150,225,300,375,450,525,600,675,2,0,1,0,0,0,0,0,0,0,0,0,0,-0.5,-0.5,-0.5,-0.5,-0.5,-0.5,-0.5,-0.5,-0.5,-0.5,-0.5,linear,100,0.025,0,0.5,TRUE,7,poolmodel,0.0015,-0.0866335302503144,0.01420495512957897,0,10000
10,250,0,75,150,225,300,375,450,525,600,675,2,0,1,0,0,0,0,0,0,0,0,0,0,-0.5,-0.5,-0.5,-0.5,-0.5,-0.5,-0.5,-0.5,-0.5,-0.5,-0.5,linear,100,0.025,0,0.5,TRUE,7,sepmodel,0.0256,8.357196801933202e-4,0.0079415978348084,0,10000
10,250,0,75,150,225,300,375,450,525,600,675,2,0,1,0,0,0,0,0,0,0,0,0,0,-0.5,-0.5,-0.5,-0.5,-0.5,-0.5,-0.5,-0.5,-0.5,-0.5,-0.5,linear,100,0.025,0,0.5,TRUE,8,fixmodel,0.0238,9.168026957930355e-4,0.006951381901211287,0,10000
10,250,0,75,150,225,300,375,450,525,600,675,2,0,1,0,0,0,0,0,0,0,0,0,0,-0.5,-0.5,-0.5,-0.5,-0.5,-0.5,-0.5,-0.5,-0.5,-0.5,-0.5,linear,100,0.025,0,0.5,TRUE,8,poolmodel,0.0013,-0.09482846747879926,0.01557853755524551,0,10000
10,250,0,75,150,225,300,375,450,525,600,675,2,0,1,0,0,0,0,0,0,0,0,0,0,-0.5,-0.5,-0.5,-0.5,-0.5,-0.5,-0.5,-0.5,-0.5,-0.5,-0.5,linear,100,0.025,0,0.5,TRUE,8,sepmodel,0.0229,0.0012590396702526973,0.007834488479176298,0,10000
10,250,0,75,150,225,300,375,450,525,600,675,2,0,1,0,0,0,0,0,0,0,0,0,0,-0.5,-0.5,-0.5,-0.5,-0.5,-0.5,-0.5,-0.5,-0.5,-0.5,-0.5,linear,100,0.025,0,0.5,TRUE,9,fixmodel,0.0278,7.124668073472942e-4,0.007043074329462548,0,10000
10,250,0,75,150,225,300,375,450,525,600,675,2,0,1,0,0,0,0,0,0,0,0,0,0,-0.5,-0.5,-0.5,-0.5,-0.5,-0.5,-0.5,-0.5,-0.5,-0.5,-0.5,linear,100,0.025,0,0.5,TRUE,9,poolmodel,9e-4,-0.10202997434503745,0.0170558698461499,0,10000
10,250,0,75,150,225,300,375,450,525,600,675,2,0,1,0,0,0,0,0,0,0,0,0,0,-0.5,-0.5,-0.5,-0.5,-0.5,-0.5,-0.5,-0.5,-0.5,-0.5,-0.5,linear,100,0.025,0,0.5,TRUE,9,sepmodel,0.0282,0.0011511250859422943,0.008024711464286753,0,10000
10,250,0,75,150,225,300,375,450,525,600,675,2,0,1,0,0,0,0,0,0,0,0,0,0,-0.5,-0.5,-0.5,-0.5,-0.5,-0.5,-0.5,-0.5,-0.5,-0.5,-0.5,linear,100,0.025,0,0.5,TRUE,10,fixmodel,0.0241,2.9960389007757486e-4,0.006955356239057446,0,10000
10,250,0,75,150,225,300,375,450,525,600,675,2,0,1,0,0,0,0,0,0,0,0,0,0,-0.5,-0.5,-0.5,-0.5,-0.5,-0.5,-0.5,-0.5,-0.5,-0.5,-0.5,linear,100,0.025,0,0.5,TRUE,10,poolmodel,6e-4,-0.10931118526221062,0.018510248149900495,0,10000
10,250,0,75,150,225,300,375,450,525,600,675,2,0,1,0,0,0,0,0,0,0,0,0,0,-0.5,-0.5,-0.5,-0.5,-0.5,-0.5,-0.5,-0.5,-0.5,-0.5,-0.5,linear,100,0.025,0,0.5,TRUE,10,sepmodel,0.0228,6.635611705008006e-4,0.007905390453993107,0,10000
10,250,0,100,200,300,400,500,600,700,800,900,2,0,1,0,0,0,0,0,0,0,0,0,0,-0.5,-0.5,-0.5,-0.5,-0.5,-0.5,-0.5,-0.5,-0.5,-0.5,-0.5,linear,100,0.025,0,0.5,TRUE,2,fixmodel,0.0225,-7.832038644586448e-4,0.007569631373829443,0,10000
10,250,0,100,200,300,400,500,600,700,800,900,2,0,1,0,0,0,0,0,0,0,0,0,0,-0.5,-0.5,-0.5,-0.5,-0.5,-0.5,-0.5,-0.5,-0.5,-0.5,-0.5,linear,100,0.025,0,0.5,TRUE,2,poolmodel,0.0111,-0.023634706874591682,0.007761130016353592,0,10000
10,250,0,100,200,300,400,500,600,700,800,900,2,0,1,0,0,0,0,0,0,0,0,0,0,-0.5,-0.5,-0.5,-0.5,-0.5,-0.5,-0.5,-0.5,-0.5,-0.5,-0.5,linear,100,0.025,0,0.5,TRUE,2,sepmodel,0.0218,-7.996677612103405e-4,0.007860824401746453,0,10000
10,250,0,100,200,300,400,500,600,700,800,900,2,0,1,0,0,0,0,0,0,0,0,0,0,-0.5,-0.5,-0.5,-0.5,-0.5,-0.5,-0.5,-0.5,-0.5,-0.5,-0.5,linear,100,0.025,0,0.5,TRUE,3,fixmodel,0.0219,-0.001705354296308357,0.007389633316665301,0,10000
10,250,0,100,200,300,400,500,600,700,800,900,2,0,1,0,0,0,0,0,0,0,0,0,0,-0.5,-0.5,-0.5,-0.5,-0.5,-0.5,-0.5,-0.5,-0.5,-0.5,-0.5,linear,100,0.025,0,0.5,TRUE,3,poolmodel,0.0051,-0.04627380499349129,0.009079898361937132,0,10000
10,250,0,100,200,300,400,500,600,700,800,900,2,0,1,0,0,0,0,0,0,0,0,0,0,-0.5,-0.5,-0.5,-0.5,-0.5,-0.5,-0.5,-0.5,-0.5,-0.5,-0.5,linear,100,0.025,0,0.5,TRUE,3,sepmodel,0.0223,-0.001656982158822906,0.008019215695991018,0,10000
10,250,0,100,200,300,400,500,600,700,800,900,2,0,1,0,0,0,0,0,0,0,0,0,0,-0.5,-0.5,-0.5,-0.5,-0.5,-0.5,-0.5,-0.5,-0.5,-0.5,-0.5,linear,100,0.025,0,0.5,TRUE,4,fixmodel,0.0249,-7.492882521957414e-4,0.0072484274696520455,0,10000
10,250,0,100,200,300,400,500,600,700,800,900,2,0,1,0,0,0,0,0,0,0,0,0,0,-0.5,-0.5,-0.5,-0.5,-0.5,-0.5,-0.5,-0.5,-0.5,-0.5,-0.5,linear,100,0.025,0,0.5,TRUE,4,poolmodel,0.0037,-0.0639321433168486,0.010823720514425617,0,10000
10,250,0,100,200,300,400,500,600,700,800,900,2,0,1,0,0,0,0,0,0,0,0,0,0,-0.5,-0.5,-0.5,-0.5,-0.5,-0.5,-0.5,-0.5,-0.5,-0.5,-0.5,linear,100,0.025,0,0.5,TRUE,4,sepmodel,0.0258,-5.495460512333629e-4,0.008095648149309777,0,10000
10,250,0,100,200,300,400,500,600,700,800,900,2,0,1,0,0,0,0,0,0,0,0,0,0,-0.5,-0.5,-0.5,-0.5,-0.5,-0.5,-0.5,-0.5,-0.5,-0.5,-0.5,linear,100,0.025,0,0.5,TRUE,5,fixmodel,0.0234,-0.0010929076047381146,0.007058998027629505,0,10000
10,250,0,100,200,300,400,500,600,700,800,900,2,0,1,0,0,0,0,0,0,0,0,0,0,-0.5,-0.5,-0.5,-0.5,-0.5,-0.5,-0.5,-0.5,-0.5,-0.5,-0.5,linear,100,0.025,0,0.5,TRUE,5,poolmodel,0.001,-0.08031121333956968,0.012944372637488781,0,10000
10,250,0,100,200,300,400,500,600,700,800,900,2,0,1,0,0,0,0,0,0,0,0,0,0,-0.5,-0.5,-0.5,-0.5,-0.5,-0.5,-0.5,-0.5,-0.5,-0.5,-0.5,linear,100,0.025,0,0.5,TRUE,5,sepmodel,0.022,-0.0012733233665815353,0.007984433741639471,0,10000
10,250,0,100,200,300,400,500,600,700,800,900,2,0,1,0,0,0,0,0,0,0,0,0,0,-0.5,-0.5,-0.5,-0.5,-0.5,-0.5,-0.5,-0.5,-0.5,-0.5,-0.5,linear,100,0.025,0,0.5,TRUE,6,fixmodel,0.023,-0.0010402267674970522,0.006949786054275297,0,10000
10,250,0,100,200,300,400,500,600,700,800,900,2,0,1,0,0,0,0,0,0,0,0,0,0,-0.5,-0.5,-0.5,-0.5,-0.5,-0.5,-0.5,-0.5,-0.5,-0.5,-0.5,linear,100,0.025,0,0.5,TRUE,6,poolmodel,8e-4,-0.09445995394914597,0.015357011991211571,0,10000
10,250,0,100,200,300,400,500,600,700,800,900,2,0,1,0,0,0,0,0,0,0,0,0,0,-0.5,-0.5,-0.5,-0.5,-0.5,-0.5,-0.5,-0.5,-0.5,-0.5,-0.5,linear,100,0.025,0,0.5,TRUE,6,sepmodel,0.0227,-0.001278566530712127,0.007956690208995051,0,10000
10,250,0,100,200,300,400,500,600,700,800,900,2,0,1,0,0,0,0,0,0,0,0,0,0,-0.5,-0.5,-0.5,-0.5,-0.5,-0.5,-0.5,-0.5,-0.5,-0.5,-0.5,linear,100,0.025,0,0.5,TRUE,7,fixmodel,0.0222,-0.001895488385672843,0.006993174035536216,0,10000
10,250,0,100,200,300,400,500,600,700,800,900,2,0,1,0,0,0,0,0,0,0,0,0,0,-0.5,-0.5,-0.5,-0.5,-0.5,-0.5,-0.5,-0.5,-0.5,-0.5,-0.5,linear,100,0.025,0,0.5,TRUE,7,poolmodel,4e-4,-0.1070828478526546,0.01789998307482701,0,10000
10,250,0,100,200,300,400,500,600,700,800,900,2,0,1,0,0,0,0,0,0,0,0,0,0,-0.5,-0.5,-0.5,-0.5,-0.5,-0.5,-0.5,-0.5,-0.5,-0.5,-0.5,linear,100,0.025,0,0.5,TRUE,7,sepmodel,0.0221,-0.0023147426840755304,0.008064645619545905,0,10000
10,250,0,100,200,300,400,500,600,700,800,900,2,0,1,0,0,0,0,0,0,0,0,0,0,-0.5,-0.5,-0.5,-0.5,-0.5,-0.5,-0.5,-0.5,-0.5,-0.5,-0.5,linear,100,0.025,0,0.5,TRUE,8,fixmodel,0.0232,-0.001113685389834706,0.006839794458165946,0,10000
10,250,0,100,200,300,400,500,600,700,800,900,2,0,1,0,0,0,0,0,0,0,0,0,0,-0.5,-0.5,-0.5,-0.5,-0.5,-0.5,-0.5,-0.5,-0.5,-0.5,-0.5,linear,100,0.025,0,0.5,TRUE,8,poolmodel,5e-4,-0.11713842314323902,0.020025978060481134,0,10000
10,250,0,100,200,300,400,500,600,700,800,900,2,0,1,0,0,0,0,0,0,0,0,0,0,-0.5,-0.5,-0.5,-0.5,-0.5,-0.5,-0.5,-0.5,-0.5,-0.5,-0.5,linear,100,0.025,0,0.5,TRUE,8,sepmodel,0.022,-0.0014497804675074146,0.007953777103126723,0,10000
10,250,0,100,200,300,400,500,600,700,800,900,2,0,1,0,0,0,0,0,0,0,0,0,0,-0.5,-0.5,-0.5,-0.5,-0.5,-0.5,-0.5,-0.5,-0.5,-0.5,-0.5,linear,100,0.025,0,0.5,TRUE,9,fixmodel,0.0252,-9.947863695860798e-5,0.006927932179902334,0,10000
10,250,0,100,200,300,400,500,600,700,800,900,2,0,1,0,0,0,0,0,0,0,0,0,0,-0.5,-0.5,-0.5,-0.5,-0.5,-0.5,-0.5,-0.5,-0.5,-0.5,-0.5,linear,100,0.025,0,0.5,TRUE,9,poolmodel,1e-4,-0.12502816144284365,0.022019748417099808,0,10000
10,250,0,100,200,300,400,500,600,700,800,900,2,0,1,0,0,0,0,0,0,0,0,0,0,-0.5,-0.5,-0.5,-0.5,-0.5,-0.5,-0.5,-0.5,-0.5,-0.5,-0.5,linear,100,0.025,0,0.5,TRUE,9,sepmodel,0.0251,-3.6219002539916717e-4,0.008074422927754394,0,10000
10,250,0,100,200,300,400,500,600,700,800,900,2,0,1,0,0,0,0,0,0,0,0,0,0,-0.5,-0.5,-0.5,-0.5,-0.5,-0.5,-0.5,-0.5,-0.5,-0.5,-0.5,linear,100,0.025,0,0.5,TRUE,10,fixmodel,0.0271,-4.4939257125984743e-4,0.00696755657066229,0,10000
10,250,0,100,200,300,400,500,600,700,800,900,2,0,1,0,0,0,0,0,0,0,0,0,0,-0.5,-0.5,-0.5,-0.5,-0.5,-0.5,-0.5,-0.5,-0.5,-0.5,-0.5,linear,100,0.025,0,0.5,TRUE,10,poolmodel,1e-4,-0.13337190965068332,0.024133211417494273,0,10000
10,250,0,100,200,300,400,500,600,700,800,900,2,0,1,0,0,0,0,0,0,0,0,0,0,-0.5,-0.5,-0.5,-0.5,-0.5,-0.5,-0.5,-0.5,-0.5,-0.5,-0.5,linear,100,0.025,0,0.5,TRUE,10,sepmodel,0.0237,-6.877943893544987e-4,0.008167410214290507,0,10000
10,250,0,125,250,375,500,625,750,875,1000,1125,2,0,1,0,0,0,0,0,0,0,0,0,0,-0.5,-0.5,-0.5,-0.5,-0.5,-0.5,-0.5,-0.5,-0.5,-0.5,-0.5,linear,100,0.025,0,0.5,TRUE,2,fixmodel,0.0266,4.1427752638508787e-4,0.0074920149562030065,0,10000
10,250,0,125,250,375,500,625,750,875,1000,1125,2,0,1,0,0,0,0,0,0,0,0,0,0,-0.5,-0.5,-0.5,-0.5,-0.5,-0.5,-0.5,-0.5,-0.5,-0.5,-0.5,linear,100,0.025,0,0.5,TRUE,2,poolmodel,0.0137,-0.02409750495649526,0.007637240777161654,0,10000
10,250,0,125,250,375,500,625,750,875,1000,1125,2,0,1,0,0,0,0,0,0,0,0,0,0,-0.5,-0.5,-0.5,-0.5,-0.5,-0.5,-0.5,-0.5,-0.5,-0.5,-0.5,linear,100,0.025,0,0.5,TRUE,2,sepmodel,0.0261,2.4372600912280564e-4,0.007862655014196609,0,10000
10,250,0,125,250,375,500,625,750,875,1000,1125,2,0,1,0,0,0,0,0,0,0,0,0,0,-0.5,-0.5,-0.5,-0.5,-0.5,-0.5,-0.5,-0.5,-0.5,-0.5,-0.5,linear,100,0.025,0,0.5,TRUE,3,fixmodel,0.0263,0.0011364095003280814,0.0073477045320216915,0,10000
10,250,0,125,250,375,500,625,750,875,1000,1125,2,0,1,0,0,0,0,0,0,0,0,0,0,-0.5,-0.5,-0.5,-0.5,-0.5,-0.5,-0.5,-0.5,-0.5,-0.5,-0.5,linear,100,0.025,0,0.5,TRUE,3,poolmodel,0.006,-0.04794903511048668,0.009066546697370824,0,10000
10,250,0,125,250,375,500,625,750,875,1000,1125,2,0,1,0,0,0,0,0,0,0,0,0,0,-0.5,-0.5,-0.5,-0.5,-0.5,-0.5,-0.5,-0.5,-0.5,-0.5,-0.5,linear,100,0.025,0,0.5,TRUE,3,sepmodel,0.0245,0.0012033545756534691,0.007955014319649026,0,10000
10,250,0,125,250,375,500,625,750,875,1000,1125,2,0,1,0,0,0,0,0,0,0,0,0,0,-0.5,-0.5,-0.5,-0.5,-0.5,-0.5,-0.5,-0.5,-0.5,-0.5,-0.5,linear,100,0.025,0,0.5,TRUE,4,fixmodel,0.0252,0.0010202108238411354,0.00716452871473481,0,10000
10,250,0,125,250,375,500,625,750,875,1000,1125,2,0,1,0,0,0,0,0,0,0,0,0,0,-0.5,-0.5,-0.5,-0.5,-0.5,-0.5,-0.5,-0.5,-0.5,-0.5,-0.5,linear,100,0.025,0,0.5,TRUE,4,poolmodel,0.0021,-0.06954610605697477,0.011385908305220509,0,10000
10,250,0,125,250,375,500,625,750,875,1000,1125,2,0,1,0,0,0,0,0,0,0,0,0,0,-0.5,-0.5,-0.5,-0.5,-0.5,-0.5,-0.5,-0.5,-0.5,-0.5,-0.5,linear,100,0.025,0,0.5,TRUE,4,sepmodel,0.0245,9.969247378824391e-4,0.007962337186117344,0,10000
10,250,0,125,250,375,500,625,750,875,1000,1125,2,0,1,0,0,0,0,0,0,0,0,0,0,-0.5,-0.5,-0.5,-0.5,-0.5,-0.5,-0.5,-0.5,-0.5,-0.5,-0.5,linear,100,0.025,0,0.5,TRUE,5,fixmodel,0.0277,0.0010448963199004367,0.00710836270721349,0,10000
10,250,0,125,250,375,500,625,750,875,1000,1125,2,0,1,0,0,0,0,0,0,0,0,0,0,-0.5,-0.5,-0.5,-0.5,-0.5,-0.5,-0.5,-0.5,-0.5,-0.5,-0.5,linear,100,0.025,0,0.5,TRUE,5,poolmodel,0.0012,-0.0884379390695076,0.01429480908491322,0,10000
10,250,0,125,250,375,500,625,750,875,1000,1125,2,0,1,0,0,0,0,0,0,0,0,0,0,-0.5,-0.5,-0.5,-0.5,-0.5,-0.5,-0.5,-0.5,-0.5,-0.5,-0.5,linear,100,0.025,0,0.5,TRUE,5,sepmodel,0.026,7.523882395462096e-4,0.008053629613415124,0,10000
10,250,0,125,250,375,500,625,750,875,1000,1125,2,0,1,0,0,0,0,0,0,0,0,0,0,-0.5,-0.5,-0.5,-0.5,-0.5,-0.5,-0.5,-0.5,-0.5,-0.5,-0.5,linear,100,0.025,0,0.5,TRUE,6,fixmodel,0.0286,0.0025490501649381245,0.007016198612943748,0,10000
10,250,0,125,250,375,500,625,750,875,1000,1125,2,0,1,0,0,0,0,0,0,0,0,0,0,-0.5,-0.5,-0.5,-0.5,-0.5,-0.5,-0.5,-0.5,-0.5,-0.5,-0.5,linear,100,0.025,0,0.5,TRUE,6,poolmodel,6e-4,-0.10341314902184119,0.01705252785298093,0,10000
10,250,0,125,250,375,500,625,750,875,1000,1125,2,0,1,0,0,0,0,0,0,0,0,0,0,-0.5,-0.5,-0.5,-0.5,-0.5,-0.5,-0.5,-0.5,-0.5,-0.5,-0.5,linear,100,0.025,0,0.5,TRUE,6,sepmodel,0.0291,0.0025606848289978076,0.008078801571049033,0,10000
10,250,0,125,250,375,500,625,750,875,1000,1125,2,0,1,0,0,0,0,0,0,0,0,0,0,-0.5,-0.5,-0.5,-0.5,-0.5,-0.5,-0.5,-0.5,-0.5,-0.5,-0.5,linear,100,0.025,0,0.5,TRUE,7,fixmodel,0.0257,7.971370540442598e-4,0.006782945111713171,0,10000
10,250,0,125,250,375,500,625,750,875,1000,1125,2,0,1,0,0,0,0,0,0,0,0,0,0,-0.5,-0.5,-0.5,-0.5,-0.5,-0.5,-0.5,-0.5,-0.5,-0.5,-0.5,linear,100,0.025,0,0.5,TRUE,7,poolmodel,3e-4,-0.11937685693736498,0.02040448932145922,0,10000
10,250,0,125,250,375,500,625,750,875,1000,1125,2,0,1,0,0,0,0,0,0,0,0,0,0,-0.5,-0.5,-0.5,-0.5,-0.5,-0.5,-0.5,-0.5,-0.5,-0.5,-0.5,linear,100,0.025,0,0.5,TRUE,7,sepmodel,0.0244,6.032269527475235e-4,0.00796514287304467,0,10000
10,250,0,125,250,375,500,625,750,875,1000,1125,2,0,1,0,0,0,0,0,0,0,0,0,0,-0.5,-0.5,-0.5,-0.5,-0.5,-0.5,-0.5,-0.5,-0.5,-0.5,-0.5,linear,100,0.025,0,0.5,TRUE,8,fixmodel,0.0268,0.0016981837225438648,0.006804442045483007,0,10000
10,250,0,125,250,375,500,625,750,875,1000,1125,2,0,1,0,0,0,0,0,0,0,0,0,0,-0.5,-0.5,-0.5,-0.5,-0.5,-0.5,-0.5,-0.5,-0.5,-0.5,-0.5,linear,100,0.025,0,0.5,TRUE,8,poolmodel,0,-0.13082294756531868,0.02323468104356021,0,10000
10,250,0,125,250,375,500,625,750,875,1000,1125,2,0,1,0,0,0,0,0,0,0,0,0,0,-0.5,-0.5,-0.5,-0.5,-0.5,-0.5,-0.5,-0.5,-0.5,-0.5,-0.5,linear,100,0.025,0,0.5,TRUE,8,sepmodel,0.0286,0.0013075988987620694,0.008022197735748568,0,10000
10,250,0,125,250,375,500,625,750,875,1000,1125,2,0,1,0,0,0,0,0,0,0,0,0,0,-0.5,-0.5,-0.5,-0.5,-0.5,-0.5,-0.5,-0.5,-0.5,-0.5,-0.5,linear,100,0.025,0,0.5,TRUE,9,fixmodel,0.0241,0.001279712958372301,0.006701878511689858,0,10000
10,250,0,125,250,375,500,625,750,875,1000,1125,2,0,1,0,0,0,0,0,0,0,0,0,0,-0.5,-0.5,-0.5,-0.5,-0.5,-0.5,-0.5,-0.5,-0.5,-0.5,-0.5,linear,100,0.025,0,0.5,TRUE,9,poolmodel,3e-4,-0.14162576516467243,0.026143029536366498,0,10000
10,250,0,125,250,375,500,625,750,875,1000,1125,2,0,1,0,0,0,0,0,0,0,0,0,0,-0.5,-0.5,-0.5,-0.5,-0.5,-0.5,-0.5,-0.5,-0.5,-0.5,-0.5,linear,100,0.025,0,0.5,TRUE,9,sepmodel,0.0239,4.5561350306967154e-4,0.008024519486723673,0,10000
10,250,0,125,250,375,500,625,750,875,1000,1125,2,0,1,0,0,0,0,0,0,0,0,0,0,-0.5,-0.5,-0.5,-0.5,-0.5,-0.5,-0.5,-0.5,-0.5,-0.5,-0.5,linear,100,0.025,0,0.5,TRUE,10,fixmodel,0.0218,1.4933311215834102e-4,0.006530512675642555,0,10000
10,250,0,125,250,375,500,625,750,875,1000,1125,2,0,1,0,0,0,0,0,0,0,0,0,0,-0.5,-0.5,-0.5,-0.5,-0.5,-0.5,-0.5,-0.5,-0.5,-0.5,-0.5,linear,100,0.025,0,0.5,TRUE,10,poolmodel,0,-0.1512014965641585,0.028717508300829246,0,10000
10,250,0,125,250,375,500,625,750,875,1000,1125,2,0,1,0,0,0,0,0,0,0,0,0,0,-0.5,-0.5,-0.5,-0.5,-0.5,-0.5,-0.5,-0.5,-0.5,-0.5,-0.5,linear,100,0.025,0,0.5,TRUE,10,sepmodel,0.023,-6.294113138939422e-4,0.0078012745593264935,0,10000
10,250,0,150,300,450,600,750,900,1050,1200,1350,2,0,1,0,0,0,0,0,0,0,0,0,0,-0.5,-0.5,-0.5,-0.5,-0.5,-0.5,-0.5,-0.5,-0.5,-0.5,-0.5,linear,100,0.025,0,0.5,TRUE,2,fixmodel,0.0235,5.570295917595137e-4,0.0073343108628513625,0,10000
10,250,0,150,300,450,600,750,900,1050,1200,1350,2,0,1,0,0,0,0,0,0,0,0,0,0,-0.5,-0.5,-0.5,-0.5,-0.5,-0.5,-0.5,-0.5,-0.5,-0.5,-0.5,linear,100,0.025,0,0.5,TRUE,2,poolmodel,0.0098,-0.024548241946921085,0.0075004790781077095,0,10000
10,250,0,150,300,450,600,750,900,1050,1200,1350,2,0,1,0,0,0,0,0,0,0,0,0,0,-0.5,-0.5,-0.5,-0.5,-0.5,-0.5,-0.5,-0.5,-0.5,-0.5,-0.5,linear,100,0.025,0,0.5,TRUE,2,sepmodel,0.0238,9.255621097979144e-4,0.00779827500648438,0,10000
10,250,0,150,300,450,600,750,900,1050,1200,1350,2,0,1,0,0,0,0,0,0,0,0,0,0,-0.5,-0.5,-0.5,-0.5,-0.5,-0.5,-0.5,-0.5,-0.5,-0.5,-0.5,linear,100,0.025,0,0.5,TRUE,3,fixmodel,0.0246,-2.025683589713469e-4,0.007303944876608878,0,10000
10,250,0,150,300,450,600,750,900,1050,1200,1350,2,0,1,0,0,0,0,0,0,0,0,0,0,-0.5,-0.5,-0.5,-0.5,-0.5,-0.5,-0.5,-0.5,-0.5,-0.5,-0.5,linear,100,0.025,0,0.5,TRUE,3,poolmodel,0.0057,-0.051089073434943,0.009291901534816661,0,10000
10,250,0,150,300,450,600,750,900,1050,1200,1350,2,0,1,0,0,0,0,0,0,0,0,0,0,-0.5,-0.5,-0.5,-0.5,-0.5,-0.5,-0.5,-0.5,-0.5,-0.5,-0.5,linear,100,0.025,0,0.5,TRUE,3,sepmodel,0.0245,6.591167222577929e-5,0.008074932662895589,0,10000
10,250,0,150,300,450,600,750,900,1050,1200,1350,2,0,1,0,0,0,0,0,0,0,0,0,0,-0.5,-0.5,-0.5,-0.5,-0.5,-0.5,-0.5,-0.5,-0.5,-0.5,-0.5,linear,100,0.025,0,0.5,TRUE,4,fixmodel,0.0252,0.0010427698133100554,0.007223003349023904,0,10000
10,250,0,150,300,450,600,750,900,1050,1200,1350,2,0,1,0,0,0,0,0,0,0,0,0,0,-0.5,-0.5,-0.5,-0.5,-0.5,-0.5,-0.5,-0.5,-0.5,-0.5,-0.5,linear,100,0.025,0,0.5,TRUE,4,poolmodel,0.0018,-0.07410407304500312,0.011987323804949783,0,10000
10,250,0,150,300,450,600,750,900,1050,1200,1350,2,0,1,0,0,0,0,0,0,0,0,0,0,-0.5,-0.5,-0.5,-0.5,-0.5,-0.5,-0.5,-0.5,-0.5,-0.5,-0.5,linear,100,0.025,0,0.5,TRUE,4,sepmodel,0.0246,0.0012671231370843885,0.008122276021573746,0,10000
10,250,0,150,300,450,600,750,900,1050,1200,1350,2,0,1,0,0,0,0,0,0,0,0,0,0,-0.5,-0.5,-0.5,-0.5,-0.5,-0.5,-0.5,-0.5,-0.5,-0.5,-0.5,linear,100,0.025,0,0.5,TRUE,5,fixmodel,0.0253,-0.0015135173358706427,0.007192414398842987,0,10000
10,250,0,150,300,450,600,750,900,1050,1200,1350,2,0,1,0,0,0,0,0,0,0,0,0,0,-0.5,-0.5,-0.5,-0.5,-0.5,-0.5,-0.5,-0.5,-0.5,-0.5,-0.5,linear,100,0.025,0,0.5,TRUE,5,poolmodel,8e-4,-0.0977269073874351,0.015932547936860015,0,10000
10,250,0,150,300,450,600,750,900,1050,1200,1350,2,0,1,0,0,0,0,0,0,0,0,0,0,-0.5,-0.5,-0.5,-0.5,-0.5,-0.5,-0.5,-0.5,-0.5,-0.5,-0.5,linear,100,0.025,0,0.5,TRUE,5,sepmodel,0.0244,-0.0013549275885466302,0.008236350223088785,0,10000
10,250,0,150,300,450,600,750,900,1050,1200,1350,2,0,1,0,0,0,0,0,0,0,0,0,0,-0.5,-0.5,-0.5,-0.5,-0.5,-0.5,-0.5,-0.5,-0.5,-0.5,-0.5,linear,100,0.025,0,0.5,TRUE,6,fixmodel,0.0241,-7.806694387580074e-4,0.006842119376572984,0,10000
10,250,0,150,300,450,600,750,900,1050,1200,1350,2,0,1,0,0,0,0,0,0,0,0,0,0,-0.5,-0.5,-0.5,-0.5,-0.5,-0.5,-0.5,-0.5,-0.5,-0.5,-0.5,linear,100,0.025,0,0.5,TRUE,6,poolmodel,3e-4,-0.11525952219079237,0.019199553930579264,0,10000
10,250,0,150,300,450,600,750,900,1050,1200,1350,2,0,1,0,0,0,0,0,0,0,0,0,0,-0.5,-0.5,-0.5,-0.5,-0.5,-0.5,-0.5,-0.5,-0.5,-0.5,-0.5,linear,100,0.025,0,0.5,TRUE,6,sepmodel,0.0247,-3.853806372784949e-4,0.00800963009372418,0,10000
10,250,0,150,300,450,600,750,900,1050,1200,1350,2,0,1,0,0,0,0,0,0,0,0,0,0,-0.5,-0.5,-0.5,-0.5,-0.5,-0.5,-0.5,-0.5,-0.5,-0.5,-0.5,linear,100,0.025,0,0.5,TRUE,7,fixmodel,0.026,-2.485912227319423e-4,0.006918175366602071,0,10000
10,250,0,150,300,450,600,750,900,1050,1200,1350,2,0,1,0,0,0,0,0,0,0,0,0,0,-0.5,-0.5,-0.5,-0.5,-0.5,-0.5,-0.5,-0.5,-0.5,-0.5,-0.5,linear,100,0.025,0,0.5,TRUE,7,poolmodel,3e-4,-0.1307489905249218,0.023168088536013806,0,10000
10,250,0,150,300,450,600,750,900,1050,1200,1350,2,0,1,0,0,0,0,0,0,0,0,0,0,-0.5,-0.5,-0.5,-0.5,-0.5,-0.5,-0.5,-0.5,-0.5,-0.5,-0.5,linear,100,0.025,0,0.5,TRUE,7,sepmodel,0.0255,-3.8811695733170835e-4,0.007974208260062926,0,10000
10,250,0,150,300,450,600,750,900,1050,1200,1350,2,0,1,0,0,0,0,0,0,0,0,0,0,-0.5,-0.5,-0.5,-0.5,-0.5,-0.5,-0.5,-0.5,-0.5,-0.5,-0.5,linear,100,0.025,0,0.5,TRUE,8,fixmodel,0.0241,-4.6724292310479414e-4,0.006714802559993763,0,10000
10,250,0,150,300,450,600,750,900,1050,1200,1350,2,0,1,0,0,0,0,0,0,0,0,0,0,-0.5,-0.5,-0.5,-0.5,-0.5,-0.5,-0.5,-0.5,-0.5,-0.5,-0.5,linear,100,0.025,0,0.5,TRUE,8,poolmodel,0,-0.14503649753491082,0.02688609854025607,0,10000
10,250,0,150,300,450,600,750,900,1050,1200,1350,2,0,1,0,0,0,0,0,0,0,0,0,0,-0.5,-0.5,-0.5,-0.5,-0.5,-0.5,-0.5,-0.5,-0.5,-0.5,-0.5,linear,100,0.025,0,0.5,TRUE,8,sepmodel,0.0249,-4.3441026909087787e-4,0.007846995858310328,0,10000
10,250,0,150,300,450,600,750,900,1050,1200,1350,2,0,1,0,0,0,0,0,0,0,0,0,0,-0.5,-0.5,-0.5,-0.5,-0.5,-0.5,-0.5,-0.5,-0.5,-0.5,-0.5,linear,100,0.025,0,0.5,TRUE,9,fixmodel,0.0283,9.596801099970031e-4,0.006823582836036982,0,10000
10,250,0,150,300,450,600,750,900,1050,1200,1350,2,0,1,0,0,0,0,0,0,0,0,0,0,-0.5,-0.5,-0.5,-0.5,-0.5,-0.5,-0.5,-0.5,-0.5,-0.5,-0.5,linear,100,0.025,0,0.5,TRUE,9,poolmodel,1e-4,-0.1558185482669495,0.030183611095943256,0,10000
10,250,0,150,300,450,600,750,900,1050,1200,1350,2,0,1,0,0,0,0,0,0,0,0,0,0,-0.5,-0.5,-0.5,-0.5,-0.5,-0.5,-0.5,-0.5,-0.5,-0.5,-0.5,linear,100,0.025,0,0.5,TRUE,9,sepmodel,0.0249,8.699180668934387e-4,0.00797693698201628,0,10000
10,250,0,150,300,450,600,750,900,1050,1200,1350,2,0,1,0,0,0,0,0,0,0,0,0,0,-0.5,-0.5,-0.5,-0.5,-0.5,-0.5,-0.5,-0.5,-0.5,-0.5,-0.5,linear,100,0.025,0,0.5,TRUE,10,fixmodel,0.0246,9.704951552669755e-4,0.006722274696031456,0,10000
10,250,0,150,300,450,600,750,900,1050,1200,1350,2,0,1,0,0,0,0,0,0,0,0,0,0,-0.5,-0.5,-0.5,-0.5,-0.5,-0.5,-0.5,-0.5,-0.5,-0.5,-0.5,linear,100,0.025,0,0.5,TRUE,10,poolmodel,0,-0.166577757943336,0.033535404026095346,0,10000
10,250,0,150,300,450,600,750,900,1050,1200,1350,2,0,1,0,0,0,0,0,0,0,0,0,0,-0.5,-0.5,-0.5,-0.5,-0.5,-0.5,-0.5,-0.5,-0.5,-0.5,-0.5,linear,100,0.025,0,0.5,TRUE,10,sepmodel,0.0238,7.640268492545207e-4,0.007856604138805965,0,10000
10,250,0,175,350,525,700,875,1050,1225,1400,1575,2,0,1,0,0,0,0,0,0,0,0,0,0,-0.5,-0.5,-0.5,-0.5,-0.5,-0.5,-0.5,-0.5,-0.5,-0.5,-0.5,linear,100,0.025,0,0.5,TRUE,2,fixmodel,0.0258,2.586626140048178e-4,0.00758362789091039,0,10000
10,250,0,175,350,525,700,875,1050,1225,1400,1575,2,0,1,0,0,0,0,0,0,0,0,0,0,-0.5,-0.5,-0.5,-0.5,-0.5,-0.5,-0.5,-0.5,-0.5,-0.5,-0.5,linear,100,0.025,0,0.5,TRUE,2,poolmodel,0.012,-0.025037337019680684,0.0076447651287171675,0,10000
10,250,0,175,350,525,700,875,1050,1225,1400,1575,2,0,1,0,0,0,0,0,0,0,0,0,0,-0.5,-0.5,-0.5,-0.5,-0.5,-0.5,-0.5,-0.5,-0.5,-0.5,-0.5,linear,100,0.025,0,0.5,TRUE,2,sepmodel,0.0249,4.041804684798952e-4,0.008096274051007317,0,10000
10,250,0,175,350,525,700,875,1050,1225,1400,1575,2,0,1,0,0,0,0,0,0,0,0,0,0,-0.5,-0.5,-0.5,-0.5,-0.5,-0.5,-0.5,-0.5,-0.5,-0.5,-0.5,linear,100,0.025,0,0.5,TRUE,3,fixmodel,0.0263,2.4462080273352565e-5,0.007402943128728716,0,10000
10,250,0,175,350,525,700,875,1050,1225,1400,1575,2,0,1,0,0,0,0,0,0,0,0,0,0,-0.5,-0.5,-0.5,-0.5,-0.5,-0.5,-0.5,-0.5,-0.5,-0.5,-0.5,linear,100,0.025,0,0.5,TRUE,3,poolmodel,0.0053,-0.051795463991839326,0.00930297828577788,0,10000
10,250,0,175,350,525,700,875,1050,1225,1400,1575,2,0,1,0,0,0,0,0,0,0,0,0,0,-0.5,-0.5,-0.5,-0.5,-0.5,-0.5,-0.5,-0.5,-0.5,-0.5,-0.5,linear,100,0.025,0,0.5,TRUE,3,sepmodel,0.0238,1.951649150122916e-4,0.008094395007359098,0,10000
10,250,0,175,350,525,700,875,1050,1225,1400,1575,2,0,1,0,0,0,0,0,0,0,0,0,0,-0.5,-0.5,-0.5,-0.5,-0.5,-0.5,-0.5,-0.5,-0.5,-0.5,-0.5,linear,100,0.025,0,0.5,TRUE,4,fixmodel,0.0271,7.693273849585885e-4,0.007098699175763195,0,10000
10,250,0,175,350,525,700,875,1050,1225,1400,1575,2,0,1,0,0,0,0,0,0,0,0,0,0,-0.5,-0.5,-0.5,-0.5,-0.5,-0.5,-0.5,-0.5,-0.5,-0.5,-0.5,linear,100,0.025,0,0.5,TRUE,4,poolmodel,0.0015,-0.07633542385827398,0.012051888846402268,0,10000
10,250,0,175,350,525,700,875,1050,1225,1400,1575,2,0,1,0,0,0,0,0,0,0,0,0,0,-0.5,-0.5,-0.5,-0.5,-0.5,-0.5,-0.5,-0.5,-0.5,-0.5,-0.5,linear,100,0.025,0,0.5,TRUE,4,sepmodel,0.0266,0.0012313085037139067,0.007929216044536381,0,10000
10,250,0,175,350,525,700,875,1050,1225,1400,1575,2,0,1,0,0,0,0,0,0,0,0,0,0,-0.5,-0.5,-0.5,-0.5,-0.5,-0.5,-0.5,-0.5,-0.5,-0.5,-0.5,linear,100,0.025,0,0.5,TRUE,5,fixmodel,0.023,-4.554889414892633e-4,0.007112456263459924,0,10000
10,250,0,175,350,525,700,875,1050,1225,1400,1575,2,0,1,0,0,0,0,0,0,0,0,0,0,-0.5,-0.5,-0.5,-0.5,-0.5,-0.5,-0.5,-0.5,-0.5,-0.5,-0.5,linear,100,0.025,0,0.5,TRUE,5,poolmodel,0.0013,-0.10038702203124694,0.01624977857472015,0,10000
10,250,0,175,350,525,700,875,1050,1225,1400,1575,2,0,1,0,0,0,0,0,0,0,0,0,0,-0.5,-0.5,-0.5,-0.5,-0.5,-0.5,-0.5,-0.5,-0.5,-0.5,-0.5,linear,100,0.025,0,0.5,TRUE,5,sepmodel,0.0241,-1.2475525752490648e-4,0.008095988500179119,0,10000
10,250,0,175,350,525,700,875,1050,1225,1400,1575,2,0,1,0,0,0,0,0,0,0,0,0,0,-0.5,-0.5,-0.5,-0.5,-0.5,-0.5,-0.5,-0.5,-0.5,-0.5,-0.5,linear,100,0.025,0,0.5,TRUE,6,fixmodel,0.0251,2.756943531343861e-6,0.007068191712577467,0,10000
10,250,0,175,350,525,700,875,1050,1225,1400,1575,2,0,1,0,0,0,0,0,0,0,0,0,0,-0.5,-0.5,-0.5,-0.5,-0.5,-0.5,-0.5,-0.5,-0.5,-0.5,-0.5,linear,100,0.025,0,0.5,TRUE,6,poolmodel,0,-0.11998031604208179,0.02044109090606224,0,10000
10,250,0,175,350,525,700,875,1050,1225,1400,1575,2,0,1,0,0,0,0,0,0,0,0,0,0,-0.5,-0.5,-0.5,-0.5,-0.5,-0.5,-0.5,-0.5,-0.5,-0.5,-0.5,linear,100,0.025,0,0.5,TRUE,6,sepmodel,0.0251,4.8756290439362784e-4,0.008144562202422516,0,10000
10,250,0,175,350,525,700,875,1050,1225,1400,1575,2,0,1,0,0,0,0,0,0,0,0,0,0,-0.5,-0.5,-0.5,-0.5,-0.5,-0.5,-0.5,-0.5,-0.5,-0.5,-0.5,linear,100,0.025,0,0.5,TRUE,7,fixmodel,0.0264,7.869926608860837e-4,0.0068930206478376894,0,10000
10,250,0,175,350,525,700,875,1050,1225,1400,1575,2,0,1,0,0,0,0,0,0,0,0,0,0,-0.5,-0.5,-0.5,-0.5,-0.5,-0.5,-0.5,-0.5,-0.5,-0.5,-0.5,linear,100,0.025,0,0.5,TRUE,7,poolmodel,0,-0.13859343763291457,0.025061072401984553,0,10000
10,250,0,175,350,525,700,875,1050,1225,1400,1575,2,0,1,0,0,0,0,0,0,0,0,0,0,-0.5,-0.5,-0.5,-0.5,-0.5,-0.5,-0.5,-0.5,-0.5,-0.5,-0.5,linear,100,0.025,0,0.5,TRUE,7,sepmodel,0.0263,0.0013931130858815153,0.008050922653033235,0,10000
10,250,0,175,350,525,700,875,1050,1225,1400,1575,2,0,1,0,0,0,0,0,0,0,0,0,0,-0.5,-0.5,-0.5,-0.5,-0.5,-0.5,-0.5,-0.5,-0.5,-0.5,-0.5,linear,100,0.025,0,0.5,TRUE,8,fixmodel,0.0245,7.587761280432301e-4,0.006825568379386068,0,10000
10,250,0,175,350,525,700,875,1050,1225,1400,1575,2,0,1,0,0,0,0,0,0,0,0,0,0,-0.5,-0.5,-0.5,-0.5,-0.5,-0.5,-0.5,-0.5,-0.5,-0.5,-0.5,linear,100,0.025,0,0.5,TRUE,8,poolmodel,0,-0.15495754908584422,0.029828678887163597,0,10000
10,250,0,175,350,525,700,875,1050,1225,1400,1575,2,0,1,0,0,0,0,0,0,0,0,0,0,-0.5,-0.5,-0.5,-0.5,-0.5,-0.5,-0.5,-0.5,-0.5,-0.5,-0.5,linear,100,0.025,0,0.5,TRUE,8,sepmodel,0.0249,9.719929027160179e-4,0.007991278935267005,0,10000
10,250,0,175,350,525,700,875,1050,1225,1400,1575,2,0,1,0,0,0,0,0,0,0,0,0,0,-0.5,-0.5,-0.5,-0.5,-0.5,-0.5,-0.5,-0.5,-0.5,-0.5,-0.5,linear,100,0.025,0,0.5,TRUE,9,fixmodel,0.0263,-4.552848622585232e-4,0.0068699442671153145,0,10000
10,250,0,175,350,525,700,875,1050,1225,1400,1575,2,0,1,0,0,0,0,0,0,0,0,0,0,-0.5,-0.5,-0.5,-0.5,-0.5,-0.5,-0.5,-0.5,-0.5,-0.5,-0.5,linear,100,0.025,0,0.5,TRUE,9,poolmodel,1e-4,-0.1697626928994226,0.03458442461648605,0,10000
10,250,0,175,350,525,700,875,1050,1225,1400,1575,2,0,1,0,0,0,0,0,0,0,0,0,0,-0.5,-0.5,-0.5,-0.5,-0.5,-0.5,-0.5,-0.5,-0.5,-0.5,-0.5,linear,100,0.025,0,0.5,TRUE,9,sepmodel,0.0236,-2.5689408696880295e-4,0.008117714443792525,0,10000
10,250,0,175,350,525,700,875,1050,1225,1400,1575,2,0,1,0,0,0,0,0,0,0,0,0,0,-0.5,-0.5,-0.5,-0.5,-0.5,-0.5,-0.5,-0.5,-0.5,-0.5,-0.5,linear,100,0.025,0,0.5,TRUE,10,fixmodel,0.0252,9.850715428224158e-4,0.006848065126393428,0,10000
10,250,0,175,350,525,700,875,1050,1225,1400,1575,2,0,1,0,0,0,0,0,0,0,0,0,0,-0.5,-0.5,-0.5,-0.5,-0.5,-0.5,-0.5,-0.5,-0.5,-0.5,-0.5,linear,100,0.025,0,0.5,TRUE,10,poolmodel,0,-0.1802029136109239,0.03814064994921479,0,10000
10,250,0,175,350,525,700,875,1050,1225,1400,1575,2,0,1,0,0,0,0,0,0,0,0,0,0,-0.5,-0.5,-0.5,-0.5,-0.5,-0.5,-0.5,-0.5,-0.5,-0.5,-0.5,linear,100,0.025,0,0.5,TRUE,10,sepmodel,0.0258,0.001198062703888725,0.008172109579327099,0,10000
10,250,0,200,400,600,800,1000,1200,1400,1600,1800,2,0,1,0,0,0,0,0,0,0,0,0,0,-0.5,-0.5,-0.5,-0.5,-0.5,-0.5,-0.5,-0.5,-0.5,-0.5,-0.5,linear,100,0.025,0,0.5,TRUE,2,fixmodel,0.0227,4.428641080969945e-4,0.0073766732716610255,0,10000
10,250,0,200,400,600,800,1000,1200,1400,1600,1800,2,0,1,0,0,0,0,0,0,0,0,0,0,-0.5,-0.5,-0.5,-0.5,-0.5,-0.5,-0.5,-0.5,-0.5,-0.5,-0.5,linear,100,0.025,0,0.5,TRUE,2,poolmodel,0.01,-0.025496739208515078,0.0074193207066486876,0,10000
10,250,0,200,400,600,800,1000,1200,1400,1600,1800,2,0,1,0,0,0,0,0,0,0,0,0,0,-0.5,-0.5,-0.5,-0.5,-0.5,-0.5,-0.5,-0.5,-0.5,-0.5,-0.5,linear,100,0.025,0,0.5,TRUE,2,sepmodel,0.0234,6.850008598062579e-4,0.007913715565089678,0,10000
10,250,0,200,400,600,800,1000,1200,1400,1600,1800,2,0,1,0,0,0,0,0,0,0,0,0,0,-0.5,-0.5,-0.5,-0.5,-0.5,-0.5,-0.5,-0.5,-0.5,-0.5,-0.5,linear,100,0.025,0,0.5,TRUE,3,fixmodel,0.0237,4.0348495665413966e-4,0.007243402304781021,0,10000
10,250,0,200,400,600,800,1000,1200,1400,1600,1800,2,0,1,0,0,0,0,0,0,0,0,0,0,-0.5,-0.5,-0.5,-0.5,-0.5,-0.5,-0.5,-0.5,-0.5,-0.5,-0.5,linear,100,0.025,0,0.5,TRUE,3,poolmodel,0.0038,-0.0526553242241986,0.009176483255395409,0,10000
10,250,0,200,400,600,800,1000,1200,1400,1600,1800,2,0,1,0,0,0,0,0,0,0,0,0,0,-0.5,-0.5,-0.5,-0.5,-0.5,-0.5,-0.5,-0.5,-0.5,-0.5,-0.5,linear,100,0.025,0,0.5,TRUE,3,sepmodel,0.0225,6.397385166436946e-4,0.007963956346862977,0,10000
10,250,0,200,400,600,800,1000,1200,1400,1600,1800,2,0,1,0,0,0,0,0,0,0,0,0,0,-0.5,-0.5,-0.5,-0.5,-0.5,-0.5,-0.5,-0.5,-0.5,-0.5,-0.5,linear,100,0.025,0,0.5,TRUE,4,fixmodel,0.0263,6.426280650627379e-4,0.006959514033156009,0,10000
10,250,0,200,400,600,800,1000,1200,1400,1600,1800,2,0,1,0,0,0,0,0,0,0,0,0,0,-0.5,-0.5,-0.5,-0.5,-0.5,-0.5,-0.5,-0.5,-0.5,-0.5,-0.5,linear,100,0.025,0,0.5,TRUE,4,poolmodel,0.0016,-0.07777734021774675,0.012104668880991981,0,10000
10,250,0,200,400,600,800,1000,1200,1400,1600,1800,2,0,1,0,0,0,0,0,0,0,0,0,0,-0.5,-0.5,-0.5,-0.5,-0.5,-0.5,-0.5,-0.5,-0.5,-0.5,-0.5,linear,100,0.025,0,0.5,TRUE,4,sepmodel,0.0242,8.648986997674923e-4,0.007771035988593477,0,10000
10,250,0,200,400,600,800,1000,1200,1400,1600,1800,2,0,1,0,0,0,0,0,0,0,0,0,0,-0.5,-0.5,-0.5,-0.5,-0.5,-0.5,-0.5,-0.5,-0.5,-0.5,-0.5,linear,100,0.025,0,0.5,TRUE,5,fixmodel,0.0282,0.0010939846134726072,0.007132430584221461,0,10000
10,250,0,200,400,600,800,1000,1200,1400,1600,1800,2,0,1,0,0,0,0,0,0,0,0,0,0,-0.5,-0.5,-0.5,-0.5,-0.5,-0.5,-0.5,-0.5,-0.5,-0.5,-0.5,linear,100,0.025,0,0.5,TRUE,5,poolmodel,8e-4,-0.10123036661740165,0.016280584881058466,0,10000
10,250,0,200,400,600,800,1000,1200,1400,1600,1800,2,0,1,0,0,0,0,0,0,0,0,0,0,-0.5,-0.5,-0.5,-0.5,-0.5,-0.5,-0.5,-0.5,-0.5,-0.5,-0.5,linear,100,0.025,0,0.5,TRUE,5,sepmodel,0.0263,0.0011169374964187754,0.007937329682847194,0,10000
10,250,0,200,400,600,800,1000,1200,1400,1600,1800,2,0,1,0,0,0,0,0,0,0,0,0,0,-0.5,-0.5,-0.5,-0.5,-0.5,-0.5,-0.5,-0.5,-0.5,-0.5,-0.5,linear,100,0.025,0,0.5,TRUE,6,fixmodel,0.0241,-1.269647193772382e-5,0.006938423896923534,0,10000
10,250,0,200,400,600,800,1000,1200,1400,1600,1800,2,0,1,0,0,0,0,0,0,0,0,0,0,-0.5,-0.5,-0.5,-0.5,-0.5,-0.5,-0.5,-0.5,-0.5,-0.5,-0.5,linear,100,0.025,0,0.5,TRUE,6,poolmodel,1e-4,-0.12648458978363739,0.021944632133161907,0,10000
10,250,0,200,400,600,800,1000,1200,1400,1600,1800,2,0,1,0,0,0,0,0,0,0,0,0,0,-0.5,-0.5,-0.5,-0.5,-0.5,-0.5,-0.5,-0.5,-0.5,-0.5,-0.5,linear,100,0.025,0,0.5,TRUE,6,sepmodel,0.0231,9.954508893887357e-5,0.007990567221162806,0,10000
10,250,0,200,400,600,800,1000,1200,1400,1600,1800,2,0,1,0,0,0,0,0,0,0,0,0,0,-0.5,-0.5,-0.5,-0.5,-0.5,-0.5,-0.5,-0.5,-0.5,-0.5,-0.5,linear,100,0.025,0,0.5,TRUE,7,fixmodel,0.0229,5.188741708719709e-4,0.006764650955986275,0,10000
10,250,0,200,400,600,800,1000,1200,1400,1600,1800,2,0,1,0,0,0,0,0,0,0,0,0,0,-0.5,-0.5,-0.5,-0.5,-0.5,-0.5,-0.5,-0.5,-0.5,-0.5,-0.5,linear,100,0.025,0,0.5,TRUE,7,poolmodel,0,-0.14619937341287254,0.026995122654517607,0,10000
10,250,0,200,400,600,800,1000,1200,1400,1600,1800,2,0,1,0,0,0,0,0,0,0,0,0,0,-0.5,-0.5,-0.5,-0.5,-0.5,-0.5,-0.5,-0.5,-0.5,-0.5,-0.5,linear,100,0.025,0,0.5,TRUE,7,sepmodel,0.0233,6.853968295341112e-4,0.00780506607791038,0,10000
10,250,0,200,400,600,800,1000,1200,1400,1600,1800,2,0,1,0,0,0,0,0,0,0,0,0,0,-0.5,-0.5,-0.5,-0.5,-0.5,-0.5,-0.5,-0.5,-0.5,-0.5,-0.5,linear,100,0.025,0,0.5,TRUE,8,fixmodel,0.0247,-4.2690144225816535e-4,0.006923601549833334,0,10000
10,250,0,200,400,600,800,1000,1200,1400,1600,1800,2,0,1,0,0,0,0,0,0,0,0,0,0,-0.5,-0.5,-0.5,-0.5,-0.5,-0.5,-0.5,-0.5,-0.5,-0.5,-0.5,linear,100,0.025,0,0.5,TRUE,8,poolmodel,0,-0.16533173672418625,0.03307745472903568,0,10000
10,250,0,200,400,600,800,1000,1200,1400,1600,1800,2,0,1,0,0,0,0,0,0,0,0,0,0,-0.5,-0.5,-0.5,-0.5,-0.5,-0.5,-0.5,-0.5,-0.5,-0.5,-0.5,linear,100,0.025,0,0.5,TRUE,8,sepmodel,0.0242,-6.418732786635698e-5,0.008054091289340464,0,10000
10,250,0,200,400,600,800,1000,1200,1400,1600,1800,2,0,1,0,0,0,0,0,0,0,0,0,0,-0.5,-0.5,-0.5,-0.5,-0.5,-0.5,-0.5,-0.5,-0.5,-0.5,-0.5,linear,100,0.025,0,0.5,TRUE,9,fixmodel,0.0272,-7.261575990974862e-5,0.006814293555564734,0,10000
10,250,0,200,400,600,800,1000,1200,1400,1600,1800,2,0,1,0,0,0,0,0,0,0,0,0,0,-0.5,-0.5,-0.5,-0.5,-0.5,-0.5,-0.5,-0.5,-0.5,-0.5,-0.5,linear,100,0.025,0,0.5,TRUE,9,poolmodel,0,-0.18050989007257484,0.03826308287020862,0,10000
10,250,0,200,400,600,800,1000,1200,1400,1600,1800,2,0,1,0,0,0,0,0,0,0,0,0,0,-0.5,-0.5,-0.5,-0.5,-0.5,-0.5,-0.5,-0.5,-0.5,-0.5,-0.5,linear,100,0.025,0,0.5,TRUE,9,sepmodel,0.0238,6.685141797054637e-5,0.008006999244843016,0,10000
10,250,0,200,400,600,800,1000,1200,1400,1600,1800,2,0,1,0,0,0,0,0,0,0,0,0,0,-0.5,-0.5,-0.5,-0.5,-0.5,-0.5,-0.5,-0.5,-0.5,-0.5,-0.5,linear,100,0.025,0,0.5,TRUE,10,fixmodel,0.0255,3.752188668788117e-4,0.006822159354408987,0,10000
10,250,0,200,400,600,800,1000,1200,1400,1600,1800,2,0,1,0,0,0,0,0,0,0,0,0,0,-0.5,-0.5,-0.5,-0.5,-0.5,-0.5,-0.5,-0.5,-0.5,-0.5,-0.5,linear,100,0.025,0,0.5,TRUE,10,poolmodel,0,-0.19216862500729764,0.0425487544846732,0,10000
10,250,0,200,400,600,800,1000,1200,1400,1600,1800,2,0,1,0,0,0,0,0,0,0,0,0,0,-0.5,-0.5,-0.5,-0.5,-0.5,-0.5,-0.5,-0.5,-0.5,-0.5,-0.5,linear,100,0.025,0,0.5,TRUE,10,sepmodel,0.0267,7.497582370359906e-4,0.008149210141060986,0,10000
10,250,0,225,450,675,900,1125,1350,1575,1800,2025,2,0,1,0,0,0,0,0,0,0,0,0,0,-0.5,-0.5,-0.5,-0.5,-0.5,-0.5,-0.5,-0.5,-0.5,-0.5,-0.5,linear,100,0.025,0,0.5,TRUE,2,fixmodel,0.0248,-6.83805211055662e-4,0.0074558772275925165,0,10000
10,250,0,225,450,675,900,1125,1350,1575,1800,2025,2,0,1,0,0,0,0,0,0,0,0,0,0,-0.5,-0.5,-0.5,-0.5,-0.5,-0.5,-0.5,-0.5,-0.5,-0.5,-0.5,linear,100,0.025,0,0.5,TRUE,2,poolmodel,0.0104,-0.027411610999473344,0.007532888703480741,0,10000
10,250,0,225,450,675,900,1125,1350,1575,1800,2025,2,0,1,0,0,0,0,0,0,0,0,0,0,-0.5,-0.5,-0.5,-0.5,-0.5,-0.5,-0.5,-0.5,-0.5,-0.5,-0.5,linear,100,0.025,0,0.5,TRUE,2,sepmodel,0.0248,-6.623833060199293e-4,0.00793890134688082,0,10000
10,250,0,225,450,675,900,1125,1350,1575,1800,2025,2,0,1,0,0,0,0,0,0,0,0,0,0,-0.5,-0.5,-0.5,-0.5,-0.5,-0.5,-0.5,-0.5,-0.5,-0.5,-0.5,linear,100,0.025,0,0.5,TRUE,3,fixmodel,0.0241,6.839612714981045e-4,0.007225478839655653,0,10000
10,250,0,225,450,675,900,1125,1350,1575,1800,2025,2,0,1,0,0,0,0,0,0,0,0,0,0,-0.5,-0.5,-0.5,-0.5,-0.5,-0.5,-0.5,-0.5,-0.5,-0.5,-0.5,linear,100,0.025,0,0.5,TRUE,3,poolmodel,0.004,-0.0526821093438734,0.00905901087727769,0,10000
10,250,0,225,450,675,900,1125,1350,1575,1800,2025,2,0,1,0,0,0,0,0,0,0,0,0,0,-0.5,-0.5,-0.5,-0.5,-0.5,-0.5,-0.5,-0.5,-0.5,-0.5,-0.5,linear,100,0.025,0,0.5,TRUE,3,sepmodel,0.025,8.129267035021782e-4,0.00794881410529464,0,10000
10,250,0,225,450,675,900,1125,1350,1575,1800,2025,2,0,1,0,0,0,0,0,0,0,0,0,0,-0.5,-0.5,-0.5,-0.5,-0.5,-0.5,-0.5,-0.5,-0.5,-0.5,-0.5,linear,100,0.025,0,0.5,TRUE,4,fixmodel,0.0275,0.0017388159335721292,0.007304780769439677,0,10000
10,250,0,225,450,675,900,1125,1350,1575,1800,2025,2,0,1,0,0,0,0,0,0,0,0,0,0,-0.5,-0.5,-0.5,-0.5,-0.5,-0.5,-0.5,-0.5,-0.5,-0.5,-0.5,linear,100,0.025,0,0.5,TRUE,4,poolmodel,0.0024,-0.0757848615765597,0.011899431535573608,0,10000
10,250,0,225,450,675,900,1125,1350,1575,1800,2025,2,0,1,0,0,0,0,0,0,0,0,0,0,-0.5,-0.5,-0.5,-0.5,-0.5,-0.5,-0.5,-0.5,-0.5,-0.5,-0.5,linear,100,0.025,0,0.5,TRUE,4,sepmodel,0.0271,0.0018814913406270625,0.00804941876683767,0,10000
10,250,0,225,450,675,900,1125,1350,1575,1800,2025,2,0,1,0,0,0,0,0,0,0,0,0,0,-0.5,-0.5,-0.5,-0.5,-0.5,-0.5,-0.5,-0.5,-0.5,-0.5,-0.5,linear,100,0.025,0,0.5,TRUE,5,fixmodel,0.0253,0.0016206138605685625,0.006968537011470199,0,10000
10,250,0,225,450,675,900,1125,1350,1575,1800,2025,2,0,1,0,0,0,0,0,0,0,0,0,0,-0.5,-0.5,-0.5,-0.5,-0.5,-0.5,-0.5,-0.5,-0.5,-0.5,-0.5,linear,100,0.025,0,0.5,TRUE,5,poolmodel,2e-4,-0.10324695952219495,0.016465346370979142,0,10000
10,250,0,225,450,675,900,1125,1350,1575,1800,2025,2,0,1,0,0,0,0,0,0,0,0,0,0,-0.5,-0.5,-0.5,-0.5,-0.5,-0.5,-0.5,-0.5,-0.5,-0.5,-0.5,linear,100,0.025,0,0.5,TRUE,5,sepmodel,0.0238,0.0018973179696678678,0.007954188967620535,0,10000
10,250,0,225,450,675,900,1125,1350,1575,1800,2025,2,0,1,0,0,0,0,0,0,0,0,0,0,-0.5,-0.5,-0.5,-0.5,-0.5,-0.5,-0.5,-0.5,-0.5,-0.5,-0.5,linear,100,0.025,0,0.5,TRUE,6,fixmodel,0.029,0.0010383104013115436,0.007039560559168429,0,10000
10,250,0,225,450,675,900,1125,1350,1575,1800,2025,2,0,1,0,0,0,0,0,0,0,0,0,0,-0.5,-0.5,-0.5,-0.5,-0.5,-0.5,-0.5,-0.5,-0.5,-0.5,-0.5,linear,100,0.025,0,0.5,TRUE,6,poolmodel,0,-0.12809684014047268,0.022143451220780704,0,10000
10,250,0,225,450,675,900,1125,1350,1575,1800,2025,2,0,1,0,0,0,0,0,0,0,0,0,0,-0.5,-0.5,-0.5,-0.5,-0.5,-0.5,-0.5,-0.5,-0.5,-0.5,-0.5,linear,100,0.025,0,0.5,TRUE,6,sepmodel,0.0247,8.990988800152687e-4,0.008072914643543221,0,10000
10,250,0,225,450,675,900,1125,1350,1575,1800,2025,2,0,1,0,0,0,0,0,0,0,0,0,0,-0.5,-0.5,-0.5,-0.5,-0.5,-0.5,-0.5,-0.5,-0.5,-0.5,-0.5,linear,100,0.025,0,0.5,TRUE,7,fixmodel,0.0243,0.0017655468620019798,0.006808131004148332,0,10000
10,250,0,225,450,675,900,1125,1350,1575,1800,2025,2,0,1,0,0,0,0,0,0,0,0,0,0,-0.5,-0.5,-0.5,-0.5,-0.5,-0.5,-0.5,-0.5,-0.5,-0.5,-0.5,linear,100,0.025,0,0.5,TRUE,7,poolmodel,0,-0.14986202336724405,0.027934708529667267,0,10000
10,250,0,225,450,675,900,1125,1350,1575,1800,2025,2,0,1,0,0,0,0,0,0,0,0,0,0,-0.5,-0.5,-0.5,-0.5,-0.5,-0.5,-0.5,-0.5,-0.5,-0.5,-0.5,linear,100,0.025,0,0.5,TRUE,7,sepmodel,0.0241,0.0016513761897865708,0.007953410428810405,0,10000
10,250,0,225,450,675,900,1125,1350,1575,1800,2025,2,0,1,0,0,0,0,0,0,0,0,0,0,-0.5,-0.5,-0.5,-0.5,-0.5,-0.5,-0.5,-0.5,-0.5,-0.5,-0.5,linear,100,0.025,0,0.5,TRUE,8,fixmodel,0.0254,0.001520092913496204,0.006843635884480408,0,10000
10,250,0,225,450,675,900,1125,1350,1575,1800,2025,2,0,1,0,0,0,0,0,0,0,0,0,0,-0.5,-0.5,-0.5,-0.5,-0.5,-0.5,-0.5,-0.5,-0.5,-0.5,-0.5,linear,100,0.025,0,0.5,TRUE,8,poolmodel,0,-0.17022888801136501,0.034532426636178636,0,10000
10,250,0,225,450,675,900,1125,1350,1575,1800,2025,2,0,1,0,0,0,0,0,0,0,0,0,0,-0.5,-0.5,-0.5,-0.5,-0.5,-0.5,-0.5,-0.5,-0.5,-0.5,-0.5,linear,100,0.025,0,0.5,TRUE,8,sepmodel,0.0247,0.0011689490263483806,0.008038131288003793,0,10000
10,250,0,225,450,675,900,1125,1350,1575,1800,2025,2,0,1,0,0,0,0,0,0,0,0,0,0,-0.5,-0.5,-0.5,-0.5,-0.5,-0.5,-0.5,-0.5,-0.5,-0.5,-0.5,linear,100,0.025,0,0.5,TRUE,9,fixmodel,0.0254,0.001786727976548984,0.006825280503325442,0,10000
10,250,0,225,450,675,900,1125,1350,1575,1800,2025,2,0,1,0,0,0,0,0,0,0,0,0,0,-0.5,-0.5,-0.5,-0.5,-0.5,-0.5,-0.5,-0.5,-0.5,-0.5,-0.5,linear,100,0.025,0,0.5,TRUE,9,poolmodel,1e-4,-0.18688468058639016,0.04036187701066546,0,10000
10,250,0,225,450,675,900,1125,1350,1575,1800,2025,2,0,1,0,0,0,0,0,0,0,0,0,0,-0.5,-0.5,-0.5,-0.5,-0.5,-0.5,-0.5,-0.5,-0.5,-0.5,-0.5,linear,100,0.025,0,0.5,TRUE,9,sepmodel,0.0253,0.0012541799920589049,0.00788807576386254,0,10000
10,250,0,225,450,675,900,1125,1350,1575,1800,2025,2,0,1,0,0,0,0,0,0,0,0,0,0,-0.5,-0.5,-0.5,-0.5,-0.5,-0.5,-0.5,-0.5,-0.5,-0.5,-0.5,linear,100,0.025,0,0.5,TRUE,10,fixmodel,0.0251,0.0019008839143673188,0.006713811086763865,0,10000
10,250,0,225,450,675,900,1125,1350,1575,1800,2025,2,0,1,0,0,0,0,0,0,0,0,0,0,-0.5,-0.5,-0.5,-0.5,-0.5,-0.5,-0.5,-0.5,-0.5,-0.5,-0.5,linear,100,0.025,0,0.5,TRUE,10,poolmodel,0,-0.20037174163031896,0.04544223054385016,0,10000
10,250,0,225,450,675,900,1125,1350,1575,1800,2025,2,0,1,0,0,0,0,0,0,0,0,0,0,-0.5,-0.5,-0.5,-0.5,-0.5,-0.5,-0.5,-0.5,-0.5,-0.5,-0.5,linear,100,0.025,0,0.5,TRUE,10,sepmodel,0.0257,0.001601714357555461,0.007929222799427994,0,10000
10,250,0,250,500,750,1000,1250,1500,1750,2000,2250,2,0,1,0,0,0,0,0,0,0,0,0,0,-0.5,-0.5,-0.5,-0.5,-0.5,-0.5,-0.5,-0.5,-0.5,-0.5,-0.5,linear,100,0.025,0,0.5,TRUE,2,fixmodel,0.0258,-8.498202691919651e-5,0.0075812472491224685,0,10000
10,250,0,250,500,750,1000,1250,1500,1750,2000,2250,2,0,1,0,0,0,0,0,0,0,0,0,0,-0.5,-0.5,-0.5,-0.5,-0.5,-0.5,-0.5,-0.5,-0.5,-0.5,-0.5,linear,100,0.025,0,0.5,TRUE,2,poolmodel,0.0128,-0.026391422917029495,0.007472222849669647,0,10000
10,250,0,250,500,750,1000,1250,1500,1750,2000,2250,2,0,1,0,0,0,0,0,0,0,0,0,0,-0.5,-0.5,-0.5,-0.5,-0.5,-0.5,-0.5,-0.5,-0.5,-0.5,-0.5,linear,100,0.025,0,0.5,TRUE,2,sepmodel,0.0255,-4.309033230043787e-4,0.008134592633431217,0,10000
10,250,0,250,500,750,1000,1250,1500,1750,2000,2250,2,0,1,0,0,0,0,0,0,0,0,0,0,-0.5,-0.5,-0.5,-0.5,-0.5,-0.5,-0.5,-0.5,-0.5,-0.5,-0.5,linear,100,0.025,0,0.5,TRUE,3,fixmodel,0.0255,-2.5454659094015073e-4,0.0072747698690392056,0,10000
10,250,0,250,500,750,1000,1250,1500,1750,2000,2250,2,0,1,0,0,0,0,0,0,0,0,0,0,-0.5,-0.5,-0.5,-0.5,-0.5,-0.5,-0.5,-0.5,-0.5,-0.5,-0.5,linear,100,0.025,0,0.5,TRUE,3,poolmodel,0.0043,-0.05259161379222039,0.008988622030220743,0,10000
10,250,0,250,500,750,1000,1250,1500,1750,2000,2250,2,0,1,0,0,0,0,0,0,0,0,0,0,-0.5,-0.5,-0.5,-0.5,-0.5,-0.5,-0.5,-0.5,-0.5,-0.5,-0.5,linear,100,0.025,0,0.5,TRUE,3,sepmodel,0.0261,-4.095242830840765e-4,0.008056992276012765,0,10000
10,250,0,250,500,750,1000,1250,1500,1750,2000,2250,2,0,1,0,0,0,0,0,0,0,0,0,0,-0.5,-0.5,-0.5,-0.5,-0.5,-0.5,-0.5,-0.5,-0.5,-0.5,-0.5,linear,100,0.025,0,0.5,TRUE,4,fixmodel,0.0252,1.9747577102154762e-4,0.00720099894224813,0,10000
10,250,0,250,500,750,1000,1250,1500,1750,2000,2250,2,0,1,0,0,0,0,0,0,0,0,0,0,-0.5,-0.5,-0.5,-0.5,-0.5,-0.5,-0.5,-0.5,-0.5,-0.5,-0.5,linear,100,0.025,0,0.5,TRUE,4,poolmodel,0.0015,-0.07704312549933334,0.011892818683843275,0,10000
10,250,0,250,500,750,1000,1250,1500,1750,2000,2250,2,0,1,0,0,0,0,0,0,0,0,0,0,-0.5,-0.5,-0.5,-0.5,-0.5,-0.5,-0.5,-0.5,-0.5,-0.5,-0.5,linear,100,0.025,0,0.5,TRUE,4,sepmodel,0.0236,-2.2779910246181577e-4,0.008024178052431503,0,10000
10,250,0,250,500,750,1000,1250,1500,1750,2000,2250,2,0,1,0,0,0,0,0,0,0,0,0,0,-0.5,-0.5,-0.5,-0.5,-0.5,-0.5,-0.5,-0.5,-0.5,-0.5,-0.5,linear,100,0.025,0,0.5,TRUE,5,fixmodel,0.0251,-8.431982934007884e-4,0.007073772031286357,0,10000
10,250,0,250,500,750,1000,1250,1500,1750,2000,2250,2,0,1,0,0,0,0,0,0,0,0,0,0,-0.5,-0.5,-0.5,-0.5,-0.5,-0.5,-0.5,-0.5,-0.5,-0.5,-0.5,linear,100,0.025,0,0.5,TRUE,5,poolmodel,2e-4,-0.10491208965204414,0.01663526774677395,0,10000
10,250,0,250,500,750,1000,1250,1500,1750,2000,2250,2,0,1,0,0,0,0,0,0,0,0,0,0,-0.5,-0.5,-0.5,-0.5,-0.5,-0.5,-0.5,-0.5,-0.5,-0.5,-0.5,linear,100,0.025,0,0.5,TRUE,5,sepmodel,0.0265,-0.001203089295422672,0.007971462740603346,0,10000
10,250,0,250,500,750,1000,1250,1500,1750,2000,2250,2,0,1,0,0,0,0,0,0,0,0,0,0,-0.5,-0.5,-0.5,-0.5,-0.5,-0.5,-0.5,-0.5,-0.5,-0.5,-0.5,linear,100,0.025,0,0.5,TRUE,6,fixmodel,0.0279,7.398433464154949e-4,0.0071664181846635595,0,10000
10,250,0,250,500,750,1000,1250,1500,1750,2000,2250,2,0,1,0,0,0,0,0,0,0,0,0,0,-0.5,-0.5,-0.5,-0.5,-0.5,-0.5,-0.5,-0.5,-0.5,-0.5,-0.5,linear,100,0.025,0,0.5,TRUE,6,poolmodel,0,-0.12846530330482217,0.022181747160965035,0,10000
10,250,0,250,500,750,1000,1250,1500,1750,2000,2250,2,0,1,0,0,0,0,0,0,0,0,0,0,-0.5,-0.5,-0.5,-0.5,-0.5,-0.5,-0.5,-0.5,-0.5,-0.5,-0.5,linear,100,0.025,0,0.5,TRUE,6,sepmodel,0.0266,8.89666025585242e-4,0.008176922294298922,0,10000
10,250,0,250,500,750,1000,1250,1500,1750,2000,2250,2,0,1,0,0,0,0,0,0,0,0,0,0,-0.5,-0.5,-0.5,-0.5,-0.5,-0.5,-0.5,-0.5,-0.5,-0.5,-0.5,linear,100,0.025,0,0.5,TRUE,7,fixmodel,0.0245,-0.0010286236104573166,0.00696795638852694,0,10000
10,250,0,250,500,750,1000,1250,1500,1750,2000,2250,2,0,1,0,0,0,0,0,0,0,0,0,0,-0.5,-0.5,-0.5,-0.5,-0.5,-0.5,-0.5,-0.5,-0.5,-0.5,-0.5,linear,100,0.025,0,0.5,TRUE,7,poolmodel,1e-4,-0.1541943844215057,0.02921787290519634,0,10000
10,250,0,250,500,750,1000,1250,1500,1750,2000,2250,2,0,1,0,0,0,0,0,0,0,0,0,0,-0.5,-0.5,-0.5,-0.5,-0.5,-0.5,-0.5,-0.5,-0.5,-0.5,-0.5,linear,100,0.025,0,0.5,TRUE,7,sepmodel,0.0249,-9.069265061359956e-4,0.008070193353284348,0,10000
10,250,0,250,500,750,1000,1250,1500,1750,2000,2250,2,0,1,0,0,0,0,0,0,0,0,0,0,-0.5,-0.5,-0.5,-0.5,-0.5,-0.5,-0.5,-0.5,-0.5,-0.5,-0.5,linear,100,0.025,0,0.5,TRUE,8,fixmodel,0.025,-6.982429793846518e-4,0.006931451337563421,0,10000
10,250,0,250,500,750,1000,1250,1500,1750,2000,2250,2,0,1,0,0,0,0,0,0,0,0,0,0,-0.5,-0.5,-0.5,-0.5,-0.5,-0.5,-0.5,-0.5,-0.5,-0.5,-0.5,linear,100,0.025,0,0.5,TRUE,8,poolmodel,0,-0.1758486219141133,0.036309664335162806,0,10000
10,250,0,250,500,750,1000,1250,1500,1750,2000,2250,2,0,1,0,0,0,0,0,0,0,0,0,0,-0.5,-0.5,-0.5,-0.5,-0.5,-0.5,-0.5,-0.5,-0.5,-0.5,-0.5,linear,100,0.025,0,0.5,TRUE,8,sepmodel,0.0239,-5.335640118432764e-4,0.007957626247588718,0,10000
10,250,0,250,500,750,1000,1250,1500,1750,2000,2250,2,0,1,0,0,0,0,0,0,0,0,0,0,-0.5,-0.5,-0.5,-0.5,-0.5,-0.5,-0.5,-0.5,-0.5,-0.5,-0.5,linear,100,0.025,0,0.5,TRUE,9,fixmodel,0.0227,-8.16803476336816e-4,0.006821433207524972,0,10000
10,250,0,250,500,750,1000,1250,1500,1750,2000,2250,2,0,1,0,0,0,0,0,0,0,0,0,0,-0.5,-0.5,-0.5,-0.5,-0.5,-0.5,-0.5,-0.5,-0.5,-0.5,-0.5,linear,100,0.025,0,0.5,TRUE,9,poolmodel,0,-0.1942841219868143,0.043020301268999604,0,10000
10,250,0,250,500,750,1000,1250,1500,1750,2000,2250,2,0,1,0,0,0,0,0,0,0,0,0,0,-0.5,-0.5,-0.5,-0.5,-0.5,-0.5,-0.5,-0.5,-0.5,-0.5,-0.5,linear,100,0.025,0,0.5,TRUE,9,sepmodel,0.0243,-5.321262518304292e-4,0.00790214024963906,0,10000
10,250,0,250,500,750,1000,1250,1500,1750,2000,2250,2,0,1,0,0,0,0,0,0,0,0,0,0,-0.5,-0.5,-0.5,-0.5,-0.5,-0.5,-0.5,-0.5,-0.5,-0.5,-0.5,linear,100,0.025,0,0.5,TRUE,10,fixmodel,0.0212,-0.0015572055307812365,0.0067531514586364645,0,10000
10,250,0,250,500,750,1000,1250,1500,1750,2000,2250,2,0,1,0,0,0,0,0,0,0,0,0,0,-0.5,-0.5,-0.5,-0.5,-0.5,-0.5,-0.5,-0.5,-0.5,-0.5,-0.5,linear,100,0.025,0,0.5,TRUE,10,poolmodel,0,-0.2101116770359058,0.04930466173916588,0,10000
10,250,0,250,500,750,1000,1250,1500,1750,2000,2250,2,0,1,0,0,0,0,0,0,0,0,0,0,-0.5,-0.5,-0.5,-0.5,-0.5,-0.5,-0.5,-0.5,-0.5,-0.5,-0.5,linear,100,0.025,0,0.5,TRUE,10,sepmodel,0.0248,-0.001550495009934842,0.007948584721977464,0,10000
10,250,0,275,550,825,1100,1375,1650,1925,2200,2475,2,0,1,0,0,0,0,0,0,0,0,0,0,-0.5,-0.5,-0.5,-0.5,-0.5,-0.5,-0.5,-0.5,-0.5,-0.5,-0.5,linear,100,0.025,0,0.5,TRUE,2,fixmodel,0.0244,1.4889764636007375e-4,0.007492630174761729,0,10000
10,250,0,275,550,825,1100,1375,1650,1925,2200,2475,2,0,1,0,0,0,0,0,0,0,0,0,0,-0.5,-0.5,-0.5,-0.5,-0.5,-0.5,-0.5,-0.5,-0.5,-0.5,-0.5,linear,100,0.025,0,0.5,TRUE,2,poolmodel,0.0118,-0.027348750816713643,0.0073752997614437155,0,10000
10,250,0,275,550,825,1100,1375,1650,1925,2200,2475,2,0,1,0,0,0,0,0,0,0,0,0,0,-0.5,-0.5,-0.5,-0.5,-0.5,-0.5,-0.5,-0.5,-0.5,-0.5,-0.5,linear,100,0.025,0,0.5,TRUE,2,sepmodel,0.0253,2.9877828200174995e-4,0.00802923066531154,0,10000
10,250,0,275,550,825,1100,1375,1650,1925,2200,2475,2,0,1,0,0,0,0,0,0,0,0,0,0,-0.5,-0.5,-0.5,-0.5,-0.5,-0.5,-0.5,-0.5,-0.5,-0.5,-0.5,linear,100,0.025,0,0.5,TRUE,3,fixmodel,0.0236,-8.122141890661419e-4,0.007375840106616187,0,10000
10,250,0,275,550,825,1100,1375,1650,1925,2200,2475,2,0,1,0,0,0,0,0,0,0,0,0,0,-0.5,-0.5,-0.5,-0.5,-0.5,-0.5,-0.5,-0.5,-0.5,-0.5,-0.5,linear,100,0.025,0,0.5,TRUE,3,poolmodel,0.0047,-0.05367069983012292,0.00896821293271725,0,10000
10,250,0,275,550,825,1100,1375,1650,1925,2200,2475,2,0,1,0,0,0,0,0,0,0,0,0,0,-0.5,-0.5,-0.5,-0.5,-0.5,-0.5,-0.5,-0.5,-0.5,-0.5,-0.5,linear,100,0.025,0,0.5,TRUE,3,sepmodel,0.0261,-4.210043058847964e-4,0.008065100501689076,0,10000
10,250,0,275,550,825,1100,1375,1650,1925,2200,2475,2,0,1,0,0,0,0,0,0,0,0,0,0,-0.5,-0.5,-0.5,-0.5,-0.5,-0.5,-0.5,-0.5,-0.5,-0.5,-0.5,linear,100,0.025,0,0.5,TRUE,4,fixmodel,0.0239,-2.3365397641616375e-4,0.00710818484017823,0,10000
10,250,0,275,550,825,1100,1375,1650,1925,2200,2475,2,0,1,0,0,0,0,0,0,0,0,0,0,-0.5,-0.5,-0.5,-0.5,-0.5,-0.5,-0.5,-0.5,-0.5,-0.5,-0.5,linear,100,0.025,0,0.5,TRUE,4,poolmodel,9e-4,-0.07968613340599709,0.012023093070769642,0,10000
10,250,0,275,550,825,1100,1375,1650,1925,2200,2475,2,0,1,0,0,0,0,0,0,0,0,0,0,-0.5,-0.5,-0.5,-0.5,-0.5,-0.5,-0.5,-0.5,-0.5,-0.5,-0.5,linear,100,0.025,0,0.5,TRUE,4,sepmodel,0.0224,-2.0835843077781187e-4,0.007959953727142477,0,10000
10,250,0,275,550,825,1100,1375,1650,1925,2200,2475,2,0,1,0,0,0,0,0,0,0,0,0,0,-0.5,-0.5,-0.5,-0.5,-0.5,-0.5,-0.5,-0.5,-0.5,-0.5,-0.5,linear,100,0.025,0,0.5,TRUE,5,fixmodel,0.0247,1.108617631068843e-4,0.007070066151717446,0,10000
10,250,0,275,550,825,1100,1375,1650,1925,2200,2475,2,0,1,0,0,0,0,0,0,0,0,0,0,-0.5,-0.5,-0.5,-0.5,-0.5,-0.5,-0.5,-0.5,-0.5,-0.5,-0.5,linear,100,0.025,0,0.5,TRUE,5,poolmodel,2e-4,-0.10428093296892679,0.01638314815733982,0,10000
10,250,0,275,550,825,1100,1375,1650,1925,2200,2475,2,0,1,0,0,0,0,0,0,0,0,0,0,-0.5,-0.5,-0.5,-0.5,-0.5,-0.5,-0.5,-0.5,-0.5,-0.5,-0.5,linear,100,0.025,0,0.5,TRUE,5,sepmodel,0.024,3.4915533073370347e-4,0.007890114238382262,0,10000
10,250,0,275,550,825,1100,1375,1650,1925,2200,2475,2,0,1,0,0,0,0,0,0,0,0,0,0,-0.5,-0.5,-0.5,-0.5,-0.5,-0.5,-0.5,-0.5,-0.5,-0.5,-0.5,linear,100,0.025,0,0.5,TRUE,6,fixmodel,0.0253,9.23006430306814e-4,0.006985009718710887,0,10000
10,250,0,275,550,825,1100,1375,1650,1925,2200,2475,2,0,1,0,0,0,0,0,0,0,0,0,0,-0.5,-0.5,-0.5,-0.5,-0.5,-0.5,-0.5,-0.5,-0.5,-0.5,-0.5,linear,100,0.025,0,0.5,TRUE,6,poolmodel,1e-4,-0.12950290621121527,0.022069666137307733,0,10000
10,250,0,275,550,825,1100,1375,1650,1925,2200,2475,2,0,1,0,0,0,0,0,0,0,0,0,0,-0.5,-0.5,-0.5,-0.5,-0.5,-0.5,-0.5,-0.5,-0.5,-0.5,-0.5,linear,100,0.025,0,0.5,TRUE,6,sepmodel,0.0252,0.0011214009995938047,0.00783844855135757,0,10000
10,250,0,275,550,825,1100,1375,1650,1925,2200,2475,2,0,1,0,0,0,0,0,0,0,0,0,0,-0.5,-0.5,-0.5,-0.5,-0.5,-0.5,-0.5,-0.5,-0.5,-0.5,-0.5,linear,100,0.025,0,0.5,TRUE,7,fixmodel,0.0254,7.841028606911157e-4,0.006966902171374658,0,10000
10,250,0,275,550,825,1100,1375,1650,1925,2200,2475,2,0,1,0,0,0,0,0,0,0,0,0,0,-0.5,-0.5,-0.5,-0.5,-0.5,-0.5,-0.5,-0.5,-0.5,-0.5,-0.5,linear,100,0.025,0,0.5,TRUE,7,poolmodel,1e-4,-0.1547302838425759,0.029204816894190563,0,10000
10,250,0,275,550,825,1100,1375,1650,1925,2200,2475,2,0,1,0,0,0,0,0,0,0,0,0,0,-0.5,-0.5,-0.5,-0.5,-0.5,-0.5,-0.5,-0.5,-0.5,-0.5,-0.5,linear,100,0.025,0,0.5,TRUE,7,sepmodel,0.0245,3.476973490409595e-4,0.007847823412257749,0,10000
10,250,0,275,550,825,1100,1375,1650,1925,2200,2475,2,0,1,0,0,0,0,0,0,0,0,0,0,-0.5,-0.5,-0.5,-0.5,-0.5,-0.5,-0.5,-0.5,-0.5,-0.5,-0.5,linear,100,0.025,0,0.5,TRUE,8,fixmodel,0.0226,0.0011639152704113706,0.006886267891368362,0,10000
10,250,0,275,550,825,1100,1375,1650,1925,2200,2475,2,0,1,0,0,0,0,0,0,0,0,0,0,-0.5,-0.5,-0.5,-0.5,-0.5,-0.5,-0.5,-0.5,-0.5,-0.5,-0.5,linear,100,0.025,0,0.5,TRUE,8,poolmodel,0,-0.177214843666419,0.036573672301507404,0,10000
10,250,0,275,550,825,1100,1375,1650,1925,2200,2475,2,0,1,0,0,0,0,0,0,0,0,0,0,-0.5,-0.5,-0.5,-0.5,-0.5,-0.5,-0.5,-0.5,-0.5,-0.5,-0.5,linear,100,0.025,0,0.5,TRUE,8,sepmodel,0.0253,0.0010486876271223035,0.00789892895124868,0,10000
10,250,0,275,550,825,1100,1375,1650,1925,2200,2475,2,0,1,0,0,0,0,0,0,0,0,0,0,-0.5,-0.5,-0.5,-0.5,-0.5,-0.5,-0.5,-0.5,-0.5,-0.5,-0.5,linear,100,0.025,0,0.5,TRUE,9,fixmodel,0.0245,3.056790533018845e-4,0.006915138507731684,0,10000
10,250,0,275,550,825,1100,1375,1650,1925,2200,2475,2,0,1,0,0,0,0,0,0,0,0,0,0,-0.5,-0.5,-0.5,-0.5,-0.5,-0.5,-0.5,-0.5,-0.5,-0.5,-0.5,linear,100,0.025,0,0.5,TRUE,9,poolmodel,0,-0.19815319089152758,0.044368070291760445,0,10000
10,250,0,275,550,825,1100,1375,1650,1925,2200,2475,2,0,1,0,0,0,0,0,0,0,0,0,0,-0.5,-0.5,-0.5,-0.5,-0.5,-0.5,-0.5,-0.5,-0.5,-0.5,-0.5,linear,100,0.025,0,0.5,TRUE,9,sepmodel,0.0253,2.1692787321310017e-4,0.0079087795366231,0,10000
10,250,0,275,550,825,1100,1375,1650,1925,2200,2475,2,0,1,0,0,0,0,0,0,0,0,0,0,-0.5,-0.5,-0.5,-0.5,-0.5,-0.5,-0.5,-0.5,-0.5,-0.5,-0.5,linear,100,0.025,0,0.5,TRUE,10,fixmodel,0.0238,-8.64157827429913e-4,0.007047081469741812,0,10000
10,250,0,275,550,825,1100,1375,1650,1925,2200,2475,2,0,1,0,0,0,0,0,0,0,0,0,0,-0.5,-0.5,-0.5,-0.5,-0.5,-0.5,-0.5,-0.5,-0.5,-0.5,-0.5,linear,100,0.025,0,0.5,TRUE,10,poolmodel,0,-0.21524630905176279,0.05143545259571888,0,10000
10,250,0,275,550,825,1100,1375,1650,1925,2200,2475,2,0,1,0,0,0,0,0,0,0,0,0,0,-0.5,-0.5,-0.5,-0.5,-0.5,-0.5,-0.5,-0.5,-0.5,-0.5,-0.5,linear,100,0.025,0,0.5,TRUE,10,sepmodel,0.025,-0.0012305933464044814,0.008052676191470608,0,10000
10,250,0,300,600,900,1200,1500,1800,2100,2400,2700,2,0,1,0,0,0,0,0,0,0,0,0,0,-0.5,-0.5,-0.5,-0.5,-0.5,-0.5,-0.5,-0.5,-0.5,-0.5,-0.5,linear,100,0.025,0,0.5,TRUE,2,fixmodel,0.0246,-4.776851028560013e-4,0.007450302572880041,0,10000
10,250,0,300,600,900,1200,1500,1800,2100,2400,2700,2,0,1,0,0,0,0,0,0,0,0,0,0,-0.5,-0.5,-0.5,-0.5,-0.5,-0.5,-0.5,-0.5,-0.5,-0.5,-0.5,linear,100,0.025,0,0.5,TRUE,2,poolmodel,0.01,-0.027685333257041575,0.007274259155875313,0,10000
10,250,0,300,600,900,1200,1500,1800,2100,2400,2700,2,0,1,0,0,0,0,0,0,0,0,0,0,-0.5,-0.5,-0.5,-0.5,-0.5,-0.5,-0.5,-0.5,-0.5,-0.5,-0.5,linear,100,0.025,0,0.5,TRUE,2,sepmodel,0.0238,-6.109664364948125e-4,0.007948761348132403,0,10000
10,250,0,300,600,900,1200,1500,1800,2100,2400,2700,2,0,1,0,0,0,0,0,0,0,0,0,0,-0.5,-0.5,-0.5,-0.5,-0.5,-0.5,-0.5,-0.5,-0.5,-0.5,-0.5,linear,100,0.025,0,0.5,TRUE,3,fixmodel,0.024,2.692828820939649e-5,0.007457246935268451,0,10000
10,250,0,300,600,900,1200,1500,1800,2100,2400,2700,2,0,1,0,0,0,0,0,0,0,0,0,0,-0.5,-0.5,-0.5,-0.5,-0.5,-0.5,-0.5,-0.5,-0.5,-0.5,-0.5,linear,100,0.025,0,0.5,TRUE,3,poolmodel,0.0045,-0.051381757568185235,0.008584867846236757,0,10000
10,250,0,300,600,900,1200,1500,1800,2100,2400,2700,2,0,1,0,0,0,0,0,0,0,0,0,0,-0.5,-0.5,-0.5,-0.5,-0.5,-0.5,-0.5,-0.5,-0.5,-0.5,-0.5,linear,100,0.025,0,0.5,TRUE,3,sepmodel,0.0258,3.145954136818358e-4,0.008007595768775149,0,10000
10,250,0,300,600,900,1200,1500,1800,2100,2400,2700,2,0,1,0,0,0,0,0,0,0,0,0,0,-0.5,-0.5,-0.5,-0.5,-0.5,-0.5,-0.5,-0.5,-0.5,-0.5,-0.5,linear,100,0.025,0,0.5,TRUE,4,fixmodel,0.0253,-5.074651796763488e-4,0.007353757099389126,0,10000
10,250,0,300,600,900,1200,1500,1800,2100,2400,2700,2,0,1,0,0,0,0,0,0,0,0,0,0,-0.5,-0.5,-0.5,-0.5,-0.5,-0.5,-0.5,-0.5,-0.5,-0.5,-0.5,linear,100,0.025,0,0.5,TRUE,4,poolmodel,0.0012,-0.07950329270558458,0.012038781880065862,0,10000
10,250,0,300,600,900,1200,1500,1800,2100,2400,2700,2,0,1,0,0,0,0,0,0,0,0,0,0,-0.5,-0.5,-0.5,-0.5,-0.5,-0.5,-0.5,-0.5,-0.5,-0.5,-0.5,linear,100,0.025,0,0.5,TRUE,4,sepmodel,0.0258,-5.20845511094216e-4,0.008120152944543178,0,10000
10,250,0,300,600,900,1200,1500,1800,2100,2400,2700,2,0,1,0,0,0,0,0,0,0,0,0,0,-0.5,-0.5,-0.5,-0.5,-0.5,-0.5,-0.5,-0.5,-0.5,-0.5,-0.5,linear,100,0.025,0,0.5,TRUE,5,fixmodel,0.0241,-6.314453202273707e-4,0.007294851578040151,0,10000
10,250,0,300,600,900,1200,1500,1800,2100,2400,2700,2,0,1,0,0,0,0,0,0,0,0,0,0,-0.5,-0.5,-0.5,-0.5,-0.5,-0.5,-0.5,-0.5,-0.5,-0.5,-0.5,linear,100,0.025,0,0.5,TRUE,5,poolmodel,5e-4,-0.10443796247794938,0.016413532241591613,0,10000
10,250,0,300,600,900,1200,1500,1800,2100,2400,2700,2,0,1,0,0,0,0,0,0,0,0,0,0,-0.5,-0.5,-0.5,-0.5,-0.5,-0.5,-0.5,-0.5,-0.5,-0.5,-0.5,linear,100,0.025,0,0.5,TRUE,5,sepmodel,0.0255,-7.772435502781042e-4,0.00808114347973203,0,10000
10,250,0,300,600,900,1200,1500,1800,2100,2400,2700,2,0,1,0,0,0,0,0,0,0,0,0,0,-0.5,-0.5,-0.5,-0.5,-0.5,-0.5,-0.5,-0.5,-0.5,-0.5,-0.5,linear,100,0.025,0,0.5,TRUE,6,fixmodel,0.0235,-5.092962371982394e-4,0.007157984722932092,0,10000
10,250,0,300,600,900,1200,1500,1800,2100,2400,2700,2,0,1,0,0,0,0,0,0,0,0,0,0,-0.5,-0.5,-0.5,-0.5,-0.5,-0.5,-0.5,-0.5,-0.5,-0.5,-0.5,linear,100,0.025,0,0.5,TRUE,6,poolmodel,4e-4,-0.12915102086020386,0.022057556746952593,0,10000
10,250,0,300,600,900,1200,1500,1800,2100,2400,2700,2,0,1,0,0,0,0,0,0,0,0,0,0,-0.5,-0.5,-0.5,-0.5,-0.5,-0.5,-0.5,-0.5,-0.5,-0.5,-0.5,linear,100,0.025,0,0.5,TRUE,6,sepmodel,0.0244,-5.723029536788671e-4,0.007961033992778196,0,10000
10,250,0,300,600,900,1200,1500,1800,2100,2400,2700,2,0,1,0,0,0,0,0,0,0,0,0,0,-0.5,-0.5,-0.5,-0.5,-0.5,-0.5,-0.5,-0.5,-0.5,-0.5,-0.5,linear,100,0.025,0,0.5,TRUE,7,fixmodel,0.0247,4.9224690646757356e-5,0.0071357996760571234,0,10000
10,250,0,300,600,900,1200,1500,1800,2100,2400,2700,2,0,1,0,0,0,0,0,0,0,0,0,0,-0.5,-0.5,-0.5,-0.5,-0.5,-0.5,-0.5,-0.5,-0.5,-0.5,-0.5,linear,100,0.025,0,0.5,TRUE,7,poolmodel,1e-4,-0.15377273852258613,0.028959779743520226,0,10000
10,250,0,300,600,900,1200,1500,1800,2100,2400,2700,2,0,1,0,0,0,0,0,0,0,0,0,0,-0.5,-0.5,-0.5,-0.5,-0.5,-0.5,-0.5,-0.5,-0.5,-0.5,-0.5,linear,100,0.025,0,0.5,TRUE,7,sepmodel,0.0251,2.7070385993070673e-4,0.008061431734209501,0,10000
10,250,0,300,600,900,1200,1500,1800,2100,2400,2700,2,0,1,0,0,0,0,0,0,0,0,0,0,-0.5,-0.5,-0.5,-0.5,-0.5,-0.5,-0.5,-0.5,-0.5,-0.5,-0.5,linear,100,0.025,0,0.5,TRUE,8,fixmodel,0.0209,-9.211488011228698e-4,0.0068546831413440245,0,10000
10,250,0,300,600,900,1200,1500,1800,2100,2400,2700,2,0,1,0,0,0,0,0,0,0,0,0,0,-0.5,-0.5,-0.5,-0.5,-0.5,-0.5,-0.5,-0.5,-0.5,-0.5,-0.5,linear,100,0.025,0,0.5,TRUE,8,poolmodel,0,-0.17966949563323162,0.03719070811763174,0,10000
10,250,0,300,600,900,1200,1500,1800,2100,2400,2700,2,0,1,0,0,0,0,0,0,0,0,0,0,-0.5,-0.5,-0.5,-0.5,-0.5,-0.5,-0.5,-0.5,-0.5,-0.5,-0.5,linear,100,0.025,0,0.5,TRUE,8,sepmodel,0.0232,-4.0957321944690655e-4,0.00779139488014494,0,10000
10,250,0,300,600,900,1200,1500,1800,2100,2400,2700,2,0,1,0,0,0,0,0,0,0,0,0,0,-0.5,-0.5,-0.5,-0.5,-0.5,-0.5,-0.5,-0.5,-0.5,-0.5,-0.5,linear,100,0.025,0,0.5,TRUE,9,fixmodel,0.0233,6.071653466404569e-4,0.006723910518920461,0,10000
10,250,0,300,600,900,1200,1500,1800,2100,2400,2700,2,0,1,0,0,0,0,0,0,0,0,0,0,-0.5,-0.5,-0.5,-0.5,-0.5,-0.5,-0.5,-0.5,-0.5,-0.5,-0.5,linear,100,0.025,0,0.5,TRUE,9,poolmodel,0,-0.19972212292180042,0.044737825518528104,0,10000
10,250,0,300,600,900,1200,1500,1800,2100,2400,2700,2,0,1,0,0,0,0,0,0,0,0,0,0,-0.5,-0.5,-0.5,-0.5,-0.5,-0.5,-0.5,-0.5,-0.5,-0.5,-0.5,linear,100,0.025,0,0.5,TRUE,9,sepmodel,0.0233,0.0011895737923483783,0.007564102032176749,0,10000
10,250,0,300,600,900,1200,1500,1800,2100,2400,2700,2,0,1,0,0,0,0,0,0,0,0,0,0,-0.5,-0.5,-0.5,-0.5,-0.5,-0.5,-0.5,-0.5,-0.5,-0.5,-0.5,linear,100,0.025,0,0.5,TRUE,10,fixmodel,0.0278,3.439949144056702e-5,0.007134206731078049,0,10000
10,250,0,300,600,900,1200,1500,1800,2100,2400,2700,2,0,1,0,0,0,0,0,0,0,0,0,0,-0.5,-0.5,-0.5,-0.5,-0.5,-0.5,-0.5,-0.5,-0.5,-0.5,-0.5,linear,100,0.025,0,0.5,TRUE,10,poolmodel,0,-0.21734405848292437,0.052200276547335236,0,10000
10,250,0,300,600,900,1200,1500,1800,2100,2400,2700,2,0,1,0,0,0,0,0,0,0,0,0,0,-0.5,-0.5,-0.5,-0.5,-0.5,-0.5,-0.5,-0.5,-0.5,-0.5,-0.5,linear,100,0.025,0,0.5,TRUE,10,sepmodel,0.0253,8.735361813821997e-4,0.008022725824798996,0,10000
10,250,0,325,650,975,1300,1625,1950,2275,2600,2925,2,0,1,0,0,0,0,0,0,0,0,0,0,-0.5,-0.5,-0.5,-0.5,-0.5,-0.5,-0.5,-0.5,-0.5,-0.5,-0.5,linear,100,0.025,0,0.5,TRUE,2,fixmodel,0.026,0.0011939970619435402,0.00755277360269749,0,10000
10,250,0,325,650,975,1300,1625,1950,2275,2600,2925,2,0,1,0,0,0,0,0,0,0,0,0,0,-0.5,-0.5,-0.5,-0.5,-0.5,-0.5,-0.5,-0.5,-0.5,-0.5,-0.5,linear,100,0.025,0,0.5,TRUE,2,poolmodel,0.0105,-0.026706588270608015,0.007171127842857718,0,10000
10,250,0,325,650,975,1300,1625,1950,2275,2600,2925,2,0,1,0,0,0,0,0,0,0,0,0,0,-0.5,-0.5,-0.5,-0.5,-0.5,-0.5,-0.5,-0.5,-0.5,-0.5,-0.5,linear,100,0.025,0,0.5,TRUE,2,sepmodel,0.0244,0.0011039126867716615,0.008007245388034654,0,10000
10,250,0,325,650,975,1300,1625,1950,2275,2600,2925,2,0,1,0,0,0,0,0,0,0,0,0,0,-0.5,-0.5,-0.5,-0.5,-0.5,-0.5,-0.5,-0.5,-0.5,-0.5,-0.5,linear,100,0.025,0,0.5,TRUE,3,fixmodel,0.0276,0.0013687655304048653,0.007653763164697753,0,10000
10,250,0,325,650,975,1300,1625,1950,2275,2600,2925,2,0,1,0,0,0,0,0,0,0,0,0,0,-0.5,-0.5,-0.5,-0.5,-0.5,-0.5,-0.5,-0.5,-0.5,-0.5,-0.5,linear,100,0.025,0,0.5,TRUE,3,poolmodel,0.006,-0.05188998456218541,0.008729898422737253,0,10000
10,250,0,325,650,975,1300,1625,1950,2275,2600,2925,2,0,1,0,0,0,0,0,0,0,0,0,0,-0.5,-0.5,-0.5,-0.5,-0.5,-0.5,-0.5,-0.5,-0.5,-0.5,-0.5,linear,100,0.025,0,0.5,TRUE,3,sepmodel,0.0284,0.0010194340891333518,0.0082224399205443,0,10000
10,250,0,325,650,975,1300,1625,1950,2275,2600,2925,2,0,1,0,0,0,0,0,0,0,0,0,0,-0.5,-0.5,-0.5,-0.5,-0.5,-0.5,-0.5,-0.5,-0.5,-0.5,-0.5,linear,100,0.025,0,0.5,TRUE,4,fixmodel,0.0239,-5.680563721779007e-4,0.007440169256907448,0,10000
10,250,0,325,650,975,1300,1625,1950,2275,2600,2925,2,0,1,0,0,0,0,0,0,0,0,0,0,-0.5,-0.5,-0.5,-0.5,-0.5,-0.5,-0.5,-0.5,-0.5,-0.5,-0.5,linear,100,0.025,0,0.5,TRUE,4,poolmodel,0.0011,-0.07977651520734579,0.012043385545934126,0,10000
10,250,0,325,650,975,1300,1625,1950,2275,2600,2925,2,0,1,0,0,0,0,0,0,0,0,0,0,-0.5,-0.5,-0.5,-0.5,-0.5,-0.5,-0.5,-0.5,-0.5,-0.5,-0.5,linear,100,0.025,0,0.5,TRUE,4,sepmodel,0.025,-6.481514803912743e-4,0.008255258085573251,0,10000
10,250,0,325,650,975,1300,1625,1950,2275,2600,2925,2,0,1,0,0,0,0,0,0,0,0,0,0,-0.5,-0.5,-0.5,-0.5,-0.5,-0.5,-0.5,-0.5,-0.5,-0.5,-0.5,linear,100,0.025,0,0.5,TRUE,5,fixmodel,0.0268,6.110030738943068e-4,0.00733289234257229,0,10000
10,250,0,325,650,975,1300,1625,1950,2275,2600,2925,2,0,1,0,0,0,0,0,0,0,0,0,0,-0.5,-0.5,-0.5,-0.5,-0.5,-0.5,-0.5,-0.5,-0.5,-0.5,-0.5,linear,100,0.025,0,0.5,TRUE,5,poolmodel,6e-4,-0.10401291631030571,0.01615260455148427,0,10000
10,250,0,325,650,975,1300,1625,1950,2275,2600,2925,2,0,1,0,0,0,0,0,0,0,0,0,0,-0.5,-0.5,-0.5,-0.5,-0.5,-0.5,-0.5,-0.5,-0.5,-0.5,-0.5,linear,100,0.025,0,0.5,TRUE,5,sepmodel,0.0281,5.080090949236525e-4,0.00801534113796857,0,10000
10,250,0,325,650,975,1300,1625,1950,2275,2600,2925,2,0,1,0,0,0,0,0,0,0,0,0,0,-0.5,-0.5,-0.5,-0.5,-0.5,-0.5,-0.5,-0.5,-0.5,-0.5,-0.5,linear,100,0.025,0,0.5,TRUE,6,fixmodel,0.0268,4.44112342200926e-4,0.007355692581890108,0,10000
10,250,0,325,650,975,1300,1625,1950,2275,2600,2925,2,0,1,0,0,0,0,0,0,0,0,0,0,-0.5,-0.5,-0.5,-0.5,-0.5,-0.5,-0.5,-0.5,-0.5,-0.5,-0.5,linear,100,0.025,0,0.5,TRUE,6,poolmodel,1e-4,-0.12915572469187428,0.021936560649437234,0,10000
10,250,0,325,650,975,1300,1625,1950,2275,2600,2925,2,0,1,0,0,0,0,0,0,0,0,0,0,-0.5,-0.5,-0.5,-0.5,-0.5,-0.5,-0.5,-0.5,-0.5,-0.5,-0.5,linear,100,0.025,0,0.5,TRUE,6,sepmodel,0.0278,2.1009136117851503e-4,0.008131370346284712,0,10000
10,250,0,325,650,975,1300,1625,1950,2275,2600,2925,2,0,1,0,0,0,0,0,0,0,0,0,0,-0.5,-0.5,-0.5,-0.5,-0.5,-0.5,-0.5,-0.5,-0.5,-0.5,-0.5,linear,100,0.025,0,0.5,TRUE,7,fixmodel,0.0259,4.545648083278337e-4,0.007221102577705385,0,10000
10,250,0,325,650,975,1300,1625,1950,2275,2600,2925,2,0,1,0,0,0,0,0,0,0,0,0,0,-0.5,-0.5,-0.5,-0.5,-0.5,-0.5,-0.5,-0.5,-0.5,-0.5,-0.5,linear,100,0.025,0,0.5,TRUE,7,poolmodel,0,-0.1542091018890972,0.02888600798863631,0,10000
10,250,0,325,650,975,1300,1625,1950,2275,2600,2925,2,0,1,0,0,0,0,0,0,0,0,0,0,-0.5,-0.5,-0.5,-0.5,-0.5,-0.5,-0.5,-0.5,-0.5,-0.5,-0.5,linear,100,0.025,0,0.5,TRUE,7,sepmodel,0.0255,6.120616122899216e-4,0.0080245629113912,0,10000
10,250,0,325,650,975,1300,1625,1950,2275,2600,2925,2,0,1,0,0,0,0,0,0,0,0,0,0,-0.5,-0.5,-0.5,-0.5,-0.5,-0.5,-0.5,-0.5,-0.5,-0.5,-0.5,linear,100,0.025,0,0.5,TRUE,8,fixmodel,0.0269,7.97534403728655e-4,0.007196545277610706,0,10000
10,250,0,325,650,975,1300,1625,1950,2275,2600,2925,2,0,1,0,0,0,0,0,0,0,0,0,0,-0.5,-0.5,-0.5,-0.5,-0.5,-0.5,-0.5,-0.5,-0.5,-0.5,-0.5,linear,100,0.025,0,0.5,TRUE,8,poolmodel,0,-0.17883305038967628,0.03705652569356081,0,10000
10,250,0,325,650,975,1300,1625,1950,2275,2600,2925,2,0,1,0,0,0,0,0,0,0,0,0,0,-0.5,-0.5,-0.5,-0.5,-0.5,-0.5,-0.5,-0.5,-0.5,-0.5,-0.5,linear,100,0.025,0,0.5,TRUE,8,sepmodel,0.0266,8.194312488550313e-4,0.008054328169816502,0,10000
10,250,0,325,650,975,1300,1625,1950,2275,2600,2925,2,0,1,0,0,0,0,0,0,0,0,0,0,-0.5,-0.5,-0.5,-0.5,-0.5,-0.5,-0.5,-0.5,-0.5,-0.5,-0.5,linear,100,0.025,0,0.5,TRUE,9,fixmodel,0.0243,1.9173347849252512e-4,0.007188659669211491,0,10000
10,250,0,325,650,975,1300,1625,1950,2275,2600,2925,2,0,1,0,0,0,0,0,0,0,0,0,0,-0.5,-0.5,-0.5,-0.5,-0.5,-0.5,-0.5,-0.5,-0.5,-0.5,-0.5,linear,100,0.025,0,0.5,TRUE,9,poolmodel,0,-0.20281402101892657,0.046158405665630314,0,10000
10,250,0,325,650,975,1300,1625,1950,2275,2600,2925,2,0,1,0,0,0,0,0,0,0,0,0,0,-0.5,-0.5,-0.5,-0.5,-0.5,-0.5,-0.5,-0.5,-0.5,-0.5,-0.5,linear,100,0.025,0,0.5,TRUE,9,sepmodel,0.0241,1.9399473691397622e-4,0.007994529667007848,0,10000
10,250,0,325,650,975,1300,1625,1950,2275,2600,2925,2,0,1,0,0,0,0,0,0,0,0,0,0,-0.5,-0.5,-0.5,-0.5,-0.5,-0.5,-0.5,-0.5,-0.5,-0.5,-0.5,linear,100,0.025,0,0.5,TRUE,10,fixmodel,0.0279,0.0010409964218044355,0.007314138865487513,0,10000
10,250,0,325,650,975,1300,1625,1950,2275,2600,2925,2,0,1,0,0,0,0,0,0,0,0,0,0,-0.5,-0.5,-0.5,-0.5,-0.5,-0.5,-0.5,-0.5,-0.5,-0.5,-0.5,linear,100,0.025,0,0.5,TRUE,10,poolmodel,0,-0.21980796918016426,0.053286936711586026,0,10000
10,250,0,325,650,975,1300,1625,1950,2275,2600,2925,2,0,1,0,0,0,0,0,0,0,0,0,0,-0.5,-0.5,-0.5,-0.5,-0.5,-0.5,-0.5,-0.5,-0.5,-0.5,-0.5,linear,100,0.025,0,0.5,TRUE,10,sepmodel,0.0301,9.939992105521594e-4,0.008127390160228884,0,10000
10,250,0,350,700,1050,1400,1750,2100,2450,2800,3150,2,0,1,0,0,0,0,0,0,0,0,0,0,-0.5,-0.5,-0.5,-0.5,-0.5,-0.5,-0.5,-0.5,-0.5,-0.5,-0.5,linear,100,0.025,0,0.5,TRUE,2,fixmodel,0.025,7.84795297314136e-5,0.007427963646368517,0,10000
10,250,0,350,700,1050,1400,1750,2100,2450,2800,3150,2,0,1,0,0,0,0,0,0,0,0,0,0,-0.5,-0.5,-0.5,-0.5,-0.5,-0.5,-0.5,-0.5,-0.5,-0.5,-0.5,linear,100,0.025,0,0.5,TRUE,2,poolmodel,0.0103,-0.028144240137797105,0.007062465995655482,0,10000
10,250,0,350,700,1050,1400,1750,2100,2450,2800,3150,2,0,1,0,0,0,0,0,0,0,0,0,0,-0.5,-0.5,-0.5,-0.5,-0.5,-0.5,-0.5,-0.5,-0.5,-0.5,-0.5,linear,100,0.025,0,0.5,TRUE,2,sepmodel,0.0243,1.011980831939142e-4,0.007834748550412812,0,10000
10,250,0,350,700,1050,1400,1750,2100,2450,2800,3150,2,0,1,0,0,0,0,0,0,0,0,0,0,-0.5,-0.5,-0.5,-0.5,-0.5,-0.5,-0.5,-0.5,-0.5,-0.5,-0.5,linear,100,0.025,0,0.5,TRUE,3,fixmodel,0.0246,-8.559902047334765e-4,0.007666991155186856,0,10000
10,250,0,350,700,1050,1400,1750,2100,2450,2800,3150,2,0,1,0,0,0,0,0,0,0,0,0,0,-0.5,-0.5,-0.5,-0.5,-0.5,-0.5,-0.5,-0.5,-0.5,-0.5,-0.5,linear,100,0.025,0,0.5,TRUE,3,poolmodel,0.0052,-0.05420991886886415,0.008984870483929045,0,10000
10,250,0,350,700,1050,1400,1750,2100,2450,2800,3150,2,0,1,0,0,0,0,0,0,0,0,0,0,-0.5,-0.5,-0.5,-0.5,-0.5,-0.5,-0.5,-0.5,-0.5,-0.5,-0.5,linear,100,0.025,0,0.5,TRUE,3,sepmodel,0.0267,-5.567316558205618e-4,0.008203205929627552,0,10000
10,250,0,350,700,1050,1400,1750,2100,2450,2800,3150,2,0,1,0,0,0,0,0,0,0,0,0,0,-0.5,-0.5,-0.5,-0.5,-0.5,-0.5,-0.5,-0.5,-0.5,-0.5,-0.5,linear,100,0.025,0,0.5,TRUE,4,fixmodel,0.0233,2.923109114244745e-4,0.007252717006452992,0,10000
10,250,0,350,700,1050,1400,1750,2100,2450,2800,3150,2,0,1,0,0,0,0,0,0,0,0,0,0,-0.5,-0.5,-0.5,-0.5,-0.5,-0.5,-0.5,-0.5,-0.5,-0.5,-0.5,linear,100,0.025,0,0.5,TRUE,4,poolmodel,0.0015,-0.07794604289419955,0.011562998910494109,0,10000
10,250,0,350,700,1050,1400,1750,2100,2450,2800,3150,2,0,1,0,0,0,0,0,0,0,0,0,0,-0.5,-0.5,-0.5,-0.5,-0.5,-0.5,-0.5,-0.5,-0.5,-0.5,-0.5,linear,100,0.025,0,0.5,TRUE,4,sepmodel,0.0253,3.1862294684299134e-4,0.007850136061006643,0,10000
10,250,0,350,700,1050,1400,1750,2100,2450,2800,3150,2,0,1,0,0,0,0,0,0,0,0,0,0,-0.5,-0.5,-0.5,-0.5,-0.5,-0.5,-0.5,-0.5,-0.5,-0.5,-0.5,linear,100,0.025,0,0.5,TRUE,5,fixmodel,0.0241,-1.0155389420914005e-4,0.007232625078727508,0,10000
10,250,0,350,700,1050,1400,1750,2100,2450,2800,3150,2,0,1,0,0,0,0,0,0,0,0,0,0,-0.5,-0.5,-0.5,-0.5,-0.5,-0.5,-0.5,-0.5,-0.5,-0.5,-0.5,linear,100,0.025,0,0.5,TRUE,5,poolmodel,1e-4,-0.10424623020929216,0.01608223139426833,0,10000
10,250,0,350,700,1050,1400,1750,2100,2450,2800,3150,2,0,1,0,0,0,0,0,0,0,0,0,0,-0.5,-0.5,-0.5,-0.5,-0.5,-0.5,-0.5,-0.5,-0.5,-0.5,-0.5,linear,100,0.025,0,0.5,TRUE,5,sepmodel,0.0246,2.0741484970923264e-4,0.00787119899326683,0,10000
10,250,0,350,700,1050,1400,1750,2100,2450,2800,3150,2,0,1,0,0,0,0,0,0,0,0,0,0,-0.5,-0.5,-0.5,-0.5,-0.5,-0.5,-0.5,-0.5,-0.5,-0.5,-0.5,linear,100,0.025,0,0.5,TRUE,6,fixmodel,0.0234,-2.054986577968042e-4,0.007446317020741912,0,10000
10,250,0,350,700,1050,1400,1750,2100,2450,2800,3150,2,0,1,0,0,0,0,0,0,0,0,0,0,-0.5,-0.5,-0.5,-0.5,-0.5,-0.5,-0.5,-0.5,-0.5,-0.5,-0.5,linear,100,0.025,0,0.5,TRUE,6,poolmodel,0,-0.129238512027931,0.02189819153606769,0,10000
10,250,0,350,700,1050,1400,1750,2100,2450,2800,3150,2,0,1,0,0,0,0,0,0,0,0,0,0,-0.5,-0.5,-0.5,-0.5,-0.5,-0.5,-0.5,-0.5,-0.5,-0.5,-0.5,linear,100,0.025,0,0.5,TRUE,6,sepmodel,0.024,-1.6447900026216776e-4,0.008061771451570351,0,10000
10,250,0,350,700,1050,1400,1750,2100,2450,2800,3150,2,0,1,0,0,0,0,0,0,0,0,0,0,-0.5,-0.5,-0.5,-0.5,-0.5,-0.5,-0.5,-0.5,-0.5,-0.5,-0.5,linear,100,0.025,0,0.5,TRUE,7,fixmodel,0.0249,2.8767306918889724e-4,0.007394749397710718,0,10000
10,250,0,350,700,1050,1400,1750,2100,2450,2800,3150,2,0,1,0,0,0,0,0,0,0,0,0,0,-0.5,-0.5,-0.5,-0.5,-0.5,-0.5,-0.5,-0.5,-0.5,-0.5,-0.5,linear,100,0.025,0,0.5,TRUE,7,poolmodel,0,-0.15382000291122527,0.028741693100684137,0,10000
10,250,0,350,700,1050,1400,1750,2100,2450,2800,3150,2,0,1,0,0,0,0,0,0,0,0,0,0,-0.5,-0.5,-0.5,-0.5,-0.5,-0.5,-0.5,-0.5,-0.5,-0.5,-0.5,linear,100,0.025,0,0.5,TRUE,7,sepmodel,0.0246,2.484492514496761e-4,0.008082709399907457,0,10000
10,250,0,350,700,1050,1400,1750,2100,2450,2800,3150,2,0,1,0,0,0,0,0,0,0,0,0,0,-0.5,-0.5,-0.5,-0.5,-0.5,-0.5,-0.5,-0.5,-0.5,-0.5,-0.5,linear,100,0.025,0,0.5,TRUE,8,fixmodel,0.0275,6.591730782797638e-4,0.007350942876553831,0,10000
10,250,0,350,700,1050,1400,1750,2100,2450,2800,3150,2,0,1,0,0,0,0,0,0,0,0,0,0,-0.5,-0.5,-0.5,-0.5,-0.5,-0.5,-0.5,-0.5,-0.5,-0.5,-0.5,linear,100,0.025,0,0.5,TRUE,8,poolmodel,0,-0.17731038082765752,0.036327574016435535,0,10000
10,250,0,350,700,1050,1400,1750,2100,2450,2800,3150,2,0,1,0,0,0,0,0,0,0,0,0,0,-0.5,-0.5,-0.5,-0.5,-0.5,-0.5,-0.5,-0.5,-0.5,-0.5,-0.5,linear,100,0.025,0,0.5,TRUE,8,sepmodel,0.0263,7.857860036640799e-4,0.008098331748652767,0,10000
10,250,0,350,700,1050,1400,1750,2100,2450,2800,3150,2,0,1,0,0,0,0,0,0,0,0,0,0,-0.5,-0.5,-0.5,-0.5,-0.5,-0.5,-0.5,-0.5,-0.5,-0.5,-0.5,linear,100,0.025,0,0.5,TRUE,9,fixmodel,0.0224,-0.0011486981391544092,0.007193678396159135,0,10000
10,250,0,350,700,1050,1400,1750,2100,2450,2800,3150,2,0,1,0,0,0,0,0,0,0,0,0,0,-0.5,-0.5,-0.5,-0.5,-0.5,-0.5,-0.5,-0.5,-0.5,-0.5,-0.5,linear,100,0.025,0,0.5,TRUE,9,poolmodel,0,-0.20270262619715856,0.0458663609980584,0,10000
10,250,0,350,700,1050,1400,1750,2100,2450,2800,3150,2,0,1,0,0,0,0,0,0,0,0,0,0,-0.5,-0.5,-0.5,-0.5,-0.5,-0.5,-0.5,-0.5,-0.5,-0.5,-0.5,linear,100,0.025,0,0.5,TRUE,9,sepmodel,0.0243,-0.0011742586887977162,0.007978900174478318,0,10000
10,250,0,350,700,1050,1400,1750,2100,2450,2800,3150,2,0,1,0,0,0,0,0,0,0,0,0,0,-0.5,-0.5,-0.5,-0.5,-0.5,-0.5,-0.5,-0.5,-0.5,-0.5,-0.5,linear,100,0.025,0,0.5,TRUE,10,fixmodel,0.0247,4.2143621892096325e-4,0.007045956801541926,0,10000
10,250,0,350,700,1050,1400,1750,2100,2450,2800,3150,2,0,1,0,0,0,0,0,0,0,0,0,0,-0.5,-0.5,-0.5,-0.5,-0.5,-0.5,-0.5,-0.5,-0.5,-0.5,-0.5,linear,100,0.025,0,0.5,TRUE,10,poolmodel,0,-0.22068210011774927,0.05343771920273626,0,10000
10,250,0,350,700,1050,1400,1750,2100,2450,2800,3150,2,0,1,0,0,0,0,0,0,0,0,0,0,-0.5,-0.5,-0.5,-0.5,-0.5,-0.5,-0.5,-0.5,-0.5,-0.5,-0.5,linear,100,0.025,0,0.5,TRUE,10,sepmodel,0.0254,5.733595939126623e-4,0.007847719660215791,0,10000
10,250,0,375,750,1125,1500,1875,2250,2625,3000,3375,2,0,1,0,0,0,0,0,0,0,0,0,0,-0.5,-0.5,-0.5,-0.5,-0.5,-0.5,-0.5,-0.5,-0.5,-0.5,-0.5,linear,100,0.025,0,0.5,TRUE,2,fixmodel,0.027,-6.605656293587251e-4,0.007699969969032081,0,10000
10,250,0,375,750,1125,1500,1875,2250,2625,3000,3375,2,0,1,0,0,0,0,0,0,0,0,0,0,-0.5,-0.5,-0.5,-0.5,-0.5,-0.5,-0.5,-0.5,-0.5,-0.5,-0.5,linear,100,0.025,0,0.5,TRUE,2,poolmodel,0.0109,-0.027450747954898054,0.007147106442785896,0,10000
10,250,0,375,750,1125,1500,1875,2250,2625,3000,3375,2,0,1,0,0,0,0,0,0,0,0,0,0,-0.5,-0.5,-0.5,-0.5,-0.5,-0.5,-0.5,-0.5,-0.5,-0.5,-0.5,linear,100,0.025,0,0.5,TRUE,2,sepmodel,0.0257,-8.806351856386845e-4,0.008114950658330143,0,10000
10,250,0,375,750,1125,1500,1875,2250,2625,3000,3375,2,0,1,0,0,0,0,0,0,0,0,0,0,-0.5,-0.5,-0.5,-0.5,-0.5,-0.5,-0.5,-0.5,-0.5,-0.5,-0.5,linear,100,0.025,0,0.5,TRUE,3,fixmodel,0.0233,-0.0013122607230991402,0.007490396658392678,0,10000
10,250,0,375,750,1125,1500,1875,2250,2625,3000,3375,2,0,1,0,0,0,0,0,0,0,0,0,0,-0.5,-0.5,-0.5,-0.5,-0.5,-0.5,-0.5,-0.5,-0.5,-0.5,-0.5,linear,100,0.025,0,0.5,TRUE,3,poolmodel,0.0039,-0.05364229588517625,0.008598975384578031,0,10000
10,250,0,375,750,1125,1500,1875,2250,2625,3000,3375,2,0,1,0,0,0,0,0,0,0,0,0,0,-0.5,-0.5,-0.5,-0.5,-0.5,-0.5,-0.5,-0.5,-0.5,-0.5,-0.5,linear,100,0.025,0,0.5,TRUE,3,sepmodel,0.0228,-0.0015534855148740642,0.00805651445019967,0,10000
10,250,0,375,750,1125,1500,1875,2250,2625,3000,3375,2,0,1,0,0,0,0,0,0,0,0,0,0,-0.5,-0.5,-0.5,-0.5,-0.5,-0.5,-0.5,-0.5,-0.5,-0.5,-0.5,linear,100,0.025,0,0.5,TRUE,4,fixmodel,0.0244,-2.910732279757364e-4,0.007355698002480956,0,10000
10,250,0,375,750,1125,1500,1875,2250,2625,3000,3375,2,0,1,0,0,0,0,0,0,0,0,0,0,-0.5,-0.5,-0.5,-0.5,-0.5,-0.5,-0.5,-0.5,-0.5,-0.5,-0.5,linear,100,0.025,0,0.5,TRUE,4,poolmodel,0.0015,-0.07799725833903062,0.0114447412892294,0,10000
10,250,0,375,750,1125,1500,1875,2250,2625,3000,3375,2,0,1,0,0,0,0,0,0,0,0,0,0,-0.5,-0.5,-0.5,-0.5,-0.5,-0.5,-0.5,-0.5,-0.5,-0.5,-0.5,linear,100,0.025,0,0.5,TRUE,4,sepmodel,0.0235,-1.2177433362374924e-4,0.00796946877519682,0,10000
10,250,0,375,750,1125,1500,1875,2250,2625,3000,3375,2,0,1,0,0,0,0,0,0,0,0,0,0,-0.5,-0.5,-0.5,-0.5,-0.5,-0.5,-0.5,-0.5,-0.5,-0.5,-0.5,linear,100,0.025,0,0.5,TRUE,5,fixmodel,0.0269,4.6354802202655694e-4,0.007523057314860623,0,10000
10,250,0,375,750,1125,1500,1875,2250,2625,3000,3375,2,0,1,0,0,0,0,0,0,0,0,0,0,-0.5,-0.5,-0.5,-0.5,-0.5,-0.5,-0.5,-0.5,-0.5,-0.5,-0.5,linear,100,0.025,0,0.5,TRUE,5,poolmodel,2e-4,-0.10328326445609894,0.015961860482842743,0,10000
10,250,0,375,750,1125,1500,1875,2250,2625,3000,3375,2,0,1,0,0,0,0,0,0,0,0,0,0,-0.5,-0.5,-0.5,-0.5,-0.5,-0.5,-0.5,-0.5,-0.5,-0.5,-0.5,linear,100,0.025,0,0.5,TRUE,5,sepmodel,0.0277,6.168174145545621e-4,0.008102209963157182,0,10000
10,250,0,375,750,1125,1500,1875,2250,2625,3000,3375,2,0,1,0,0,0,0,0,0,0,0,0,0,-0.5,-0.5,-0.5,-0.5,-0.5,-0.5,-0.5,-0.5,-0.5,-0.5,-0.5,linear,100,0.025,0,0.5,TRUE,6,fixmodel,0.0235,4.975600860098207e-4,0.0073279235387381965,0,10000
10,250,0,375,750,1125,1500,1875,2250,2625,3000,3375,2,0,1,0,0,0,0,0,0,0,0,0,0,-0.5,-0.5,-0.5,-0.5,-0.5,-0.5,-0.5,-0.5,-0.5,-0.5,-0.5,linear,100,0.025,0,0.5,TRUE,6,poolmodel,1e-4,-0.12789202175291386,0.021377024476051054,0,10000
10,250,0,375,750,1125,1500,1875,2250,2625,3000,3375,2,0,1,0,0,0,0,0,0,0,0,0,0,-0.5,-0.5,-0.5,-0.5,-0.5,-0.5,-0.5,-0.5,-0.5,-0.5,-0.5,linear,100,0.025,0,0.5,TRUE,6,sepmodel,0.0232,5.719832855866684e-4,0.007830097838273035,0,10000
10,250,0,375,750,1125,1500,1875,2250,2625,3000,3375,2,0,1,0,0,0,0,0,0,0,0,0,0,-0.5,-0.5,-0.5,-0.5,-0.5,-0.5,-0.5,-0.5,-0.5,-0.5,-0.5,linear,100,0.025,0,0.5,TRUE,7,fixmodel,0.0262,-7.047148006827606e-4,0.007490462120895134,0,10000
10,250,0,375,750,1125,1500,1875,2250,2625,3000,3375,2,0,1,0,0,0,0,0,0,0,0,0,0,-0.5,-0.5,-0.5,-0.5,-0.5,-0.5,-0.5,-0.5,-0.5,-0.5,-0.5,linear,100,0.025,0,0.5,TRUE,7,poolmodel,0,-0.1533327159227231,0.02842403711032716,0,10000
10,250,0,375,750,1125,1500,1875,2250,2625,3000,3375,2,0,1,0,0,0,0,0,0,0,0,0,0,-0.5,-0.5,-0.5,-0.5,-0.5,-0.5,-0.5,-0.5,-0.5,-0.5,-0.5,linear,100,0.025,0,0.5,TRUE,7,sepmodel,0.0261,-5.268878332395257e-4,0.008117928542324992,0,10000
10,250,0,375,750,1125,1500,1875,2250,2625,3000,3375,2,0,1,0,0,0,0,0,0,0,0,0,0,-0.5,-0.5,-0.5,-0.5,-0.5,-0.5,-0.5,-0.5,-0.5,-0.5,-0.5,linear,100,0.025,0,0.5,TRUE,8,fixmodel,0.0274,-9.235700837844799e-4,0.007548637931118332,0,10000
10,250,0,375,750,1125,1500,1875,2250,2625,3000,3375,2,0,1,0,0,0,0,0,0,0,0,0,0,-0.5,-0.5,-0.5,-0.5,-0.5,-0.5,-0.5,-0.5,-0.5,-0.5,-0.5,linear,100,0.025,0,0.5,TRUE,8,poolmodel,0,-0.17775031635803987,0.036529141125512095,0,10000
10,250,0,375,750,1125,1500,1875,2250,2625,3000,3375,2,0,1,0,0,0,0,0,0,0,0,0,0,-0.5,-0.5,-0.5,-0.5,-0.5,-0.5,-0.5,-0.5,-0.5,-0.5,-0.5,linear,100,0.025,0,0.5,TRUE,8,sepmodel,0.0262,-6.303297542458515e-4,0.008170768672034987,0,10000
10,250,0,375,750,1125,1500,1875,2250,2625,3000,3375,2,0,1,0,0,0,0,0,0,0,0,0,0,-0.5,-0.5,-0.5,-0.5,-0.5,-0.5,-0.5,-0.5,-0.5,-0.5,-0.5,linear,100,0.025,0,0.5,TRUE,9,fixmodel,0.0267,8.138414276109903e-4,0.007506537020754087,0,10000
10,250,0,375,750,1125,1500,1875,2250,2625,3000,3375,2,0,1,0,0,0,0,0,0,0,0,0,0,-0.5,-0.5,-0.5,-0.5,-0.5,-0.5,-0.5,-0.5,-0.5,-0.5,-0.5,linear,100,0.025,0,0.5,TRUE,9,poolmodel,0,-0.20109192447863528,0.04511163758069145,0,10000
10,250,0,375,750,1125,1500,1875,2250,2625,3000,3375,2,0,1,0,0,0,0,0,0,0,0,0,0,-0.5,-0.5,-0.5,-0.5,-0.5,-0.5,-0.5,-0.5,-0.5,-0.5,-0.5,linear,100,0.025,0,0.5,TRUE,9,sepmodel,0.0268,9.814724366116218e-4,0.008125224722704726,0,10000
10,250,0,375,750,1125,1500,1875,2250,2625,3000,3375,2,0,1,0,0,0,0,0,0,0,0,0,0,-0.5,-0.5,-0.5,-0.5,-0.5,-0.5,-0.5,-0.5,-0.5,-0.5,-0.5,linear,100,0.025,0,0.5,TRUE,10,fixmodel,0.0254,6.093746230284312e-4,0.0074275834163458725,0,10000
10,250,0,375,750,1125,1500,1875,2250,2625,3000,3375,2,0,1,0,0,0,0,0,0,0,0,0,0,-0.5,-0.5,-0.5,-0.5,-0.5,-0.5,-0.5,-0.5,-0.5,-0.5,-0.5,linear,100,0.025,0,0.5,TRUE,10,poolmodel,0,-0.2220851354448912,0.054032354761172914,0,10000
10,250,0,375,750,1125,1500,1875,2250,2625,3000,3375,2,0,1,0,0,0,0,0,0,0,0,0,0,-0.5,-0.5,-0.5,-0.5,-0.5,-0.5,-0.5,-0.5,-0.5,-0.5,-0.5,linear,100,0.025,0,0.5,TRUE,10,sepmodel,0.0244,9.618449546612194e-4,0.007926058703412188,0,10000
10,250,0,400,800,1200,1600,2000,2400,2800,3200,3600,2,0,1,0,0,0,0,0,0,0,0,0,0,-0.5,-0.5,-0.5,-0.5,-0.5,-0.5,-0.5,-0.5,-0.5,-0.5,-0.5,linear,100,0.025,0,0.5,TRUE,2,fixmodel,0.0258,-0.0013287232397344593,0.007580709868780767,0,10000
10,250,0,400,800,1200,1600,2000,2400,2800,3200,3600,2,0,1,0,0,0,0,0,0,0,0,0,0,-0.5,-0.5,-0.5,-0.5,-0.5,-0.5,-0.5,-0.5,-0.5,-0.5,-0.5,linear,100,0.025,0,0.5,TRUE,2,poolmodel,0.01,-0.027972683399648493,0.0069231408500079195,0,10000
10,250,0,400,800,1200,1600,2000,2400,2800,3200,3600,2,0,1,0,0,0,0,0,0,0,0,0,0,-0.5,-0.5,-0.5,-0.5,-0.5,-0.5,-0.5,-0.5,-0.5,-0.5,-0.5,linear,100,0.025,0,0.5,TRUE,2,sepmodel,0.0253,-0.001490453590406034,0.007962997611300125,0,10000
10,250,0,400,800,1200,1600,2000,2400,2800,3200,3600,2,0,1,0,0,0,0,0,0,0,0,0,0,-0.5,-0.5,-0.5,-0.5,-0.5,-0.5,-0.5,-0.5,-0.5,-0.5,-0.5,linear,100,0.025,0,0.5,TRUE,3,fixmodel,0.0248,-0.0014950063303518452,0.007642620398779401,0,10000
10,250,0,400,800,1200,1600,2000,2400,2800,3200,3600,2,0,1,0,0,0,0,0,0,0,0,0,0,-0.5,-0.5,-0.5,-0.5,-0.5,-0.5,-0.5,-0.5,-0.5,-0.5,-0.5,linear,100,0.025,0,0.5,TRUE,3,poolmodel,0.0036,-0.05357326299803206,0.008503788320519663,0,10000
10,250,0,400,800,1200,1600,2000,2400,2800,3200,3600,2,0,1,0,0,0,0,0,0,0,0,0,0,-0.5,-0.5,-0.5,-0.5,-0.5,-0.5,-0.5,-0.5,-0.5,-0.5,-0.5,linear,100,0.025,0,0.5,TRUE,3,sepmodel,0.025,-0.0012849792814528644,0.008139787882459684,0,10000
10,250,0,400,800,1200,1600,2000,2400,2800,3200,3600,2,0,1,0,0,0,0,0,0,0,0,0,0,-0.5,-0.5,-0.5,-0.5,-0.5,-0.5,-0.5,-0.5,-0.5,-0.5,-0.5,linear,100,0.025,0,0.5,TRUE,4,fixmodel,0.0263,1.8787232798840241e-6,0.00758544359372204,0,10000
10,250,0,400,800,1200,1600,2000,2400,2800,3200,3600,2,0,1,0,0,0,0,0,0,0,0,0,0,-0.5,-0.5,-0.5,-0.5,-0.5,-0.5,-0.5,-0.5,-0.5,-0.5,-0.5,linear,100,0.025,0,0.5,TRUE,4,poolmodel,9e-4,-0.0779424065360733,0.011393530509320694,0,10000
10,250,0,400,800,1200,1600,2000,2400,2800,3200,3600,2,0,1,0,0,0,0,0,0,0,0,0,0,-0.5,-0.5,-0.5,-0.5,-0.5,-0.5,-0.5,-0.5,-0.5,-0.5,-0.5,linear,100,0.025,0,0.5,TRUE,4,sepmodel,0.0269,3.067486951806418e-4,0.00810409348668137,0,10000
10,250,0,400,800,1200,1600,2000,2400,2800,3200,3600,2,0,1,0,0,0,0,0,0,0,0,0,0,-0.5,-0.5,-0.5,-0.5,-0.5,-0.5,-0.5,-0.5,-0.5,-0.5,-0.5,linear,100,0.025,0,0.5,TRUE,5,fixmodel,0.0272,8.228773634108881e-4,0.007688931075781271,0,10000
10,250,0,400,800,1200,1600,2000,2400,2800,3200,3600,2,0,1,0,0,0,0,0,0,0,0,0,0,-0.5,-0.5,-0.5,-0.5,-0.5,-0.5,-0.5,-0.5,-0.5,-0.5,-0.5,linear,100,0.025,0,0.5,TRUE,5,poolmodel,7e-4,-0.10320863333675465,0.01580155063981418,0,10000
10,250,0,400,800,1200,1600,2000,2400,2800,3200,3600,2,0,1,0,0,0,0,0,0,0,0,0,0,-0.5,-0.5,-0.5,-0.5,-0.5,-0.5,-0.5,-0.5,-0.5,-0.5,-0.5,linear,100,0.025,0,0.5,TRUE,5,sepmodel,0.0263,6.839072924790596e-4,0.008214144093610024,0,10000
