pavlakrotka/NCC_FreqModels/simulations/results/results_setting_1_alpha.csv
num_arms,n_arm,d1,d2,d3,d4,d5,d6,d7,d8,d9,d10,period_blocks,mu0,sigma,theta1,theta2,theta3,theta4,theta5,theta6,theta7,theta8,theta9,theta10,lambda0,lambda1,lambda2,lambda3,lambda4,lambda5,lambda6,lambda7,lambda8,lambda9,lambda10,trend,unit_size,alpha,trend_mean,trend_var,ncc,study_arm,model,reject_h0,bias,MSE,failed,nsim
10,250,0,0,0,0,0,0,0,0,0,0,2,0,1,0,0,0,0,0,0,0,0,0,0,-0.5,-0.5,-0.5,-0.5,-0.5,-0.5,-0.5,-0.5,-0.5,-0.5,-0.5,linear,100,0.025,0,0.5,TRUE,2,fixmodel,0.0234,-5.80672374903346e-4,0.00807433273111976,0,10000
10,250,0,0,0,0,0,0,0,0,0,0,2,0,1,0,0,0,0,0,0,0,0,0,0,-0.5,-0.5,-0.5,-0.5,-0.5,-0.5,-0.5,-0.5,-0.5,-0.5,-0.5,linear,100,0.025,0,0.5,TRUE,2,poolmodel,0.0234,-5.80672374904258e-4,0.008074332731119592,0,10000
10,250,0,0,0,0,0,0,0,0,0,0,2,0,1,0,0,0,0,0,0,0,0,0,0,-0.5,-0.5,-0.5,-0.5,-0.5,-0.5,-0.5,-0.5,-0.5,-0.5,-0.5,linear,100,0.025,0,0.5,TRUE,2,sepmodel,0.0234,-5.80672374904258e-4,0.008074332731119592,0,10000
10,250,0,0,0,0,0,0,0,0,0,0,2,0,1,0,0,0,0,0,0,0,0,0,0,-0.5,-0.5,-0.5,-0.5,-0.5,-0.5,-0.5,-0.5,-0.5,-0.5,-0.5,linear,100,0.025,0,0.5,TRUE,3,fixmodel,0.0224,5.604809126560345e-4,0.008042145702581984,0,10000
10,250,0,0,0,0,0,0,0,0,0,0,2,0,1,0,0,0,0,0,0,0,0,0,0,-0.5,-0.5,-0.5,-0.5,-0.5,-0.5,-0.5,-0.5,-0.5,-0.5,-0.5,linear,100,0.025,0,0.5,TRUE,3,poolmodel,0.0225,5.604809126550791e-4,0.008042145702581955,0,10000
10,250,0,0,0,0,0,0,0,0,0,0,2,0,1,0,0,0,0,0,0,0,0,0,0,-0.5,-0.5,-0.5,-0.5,-0.5,-0.5,-0.5,-0.5,-0.5,-0.5,-0.5,linear,100,0.025,0,0.5,TRUE,3,sepmodel,0.0225,5.604809126550791e-4,0.008042145702581955,0,10000
10,250,0,0,0,0,0,0,0,0,0,0,2,0,1,0,0,0,0,0,0,0,0,0,0,-0.5,-0.5,-0.5,-0.5,-0.5,-0.5,-0.5,-0.5,-0.5,-0.5,-0.5,linear,100,0.025,0,0.5,TRUE,4,fixmodel,0.0239,-2.9595393486312984e-4,0.007904133808301357,0,10000
10,250,0,0,0,0,0,0,0,0,0,0,2,0,1,0,0,0,0,0,0,0,0,0,0,-0.5,-0.5,-0.5,-0.5,-0.5,-0.5,-0.5,-0.5,-0.5,-0.5,-0.5,linear,100,0.025,0,0.5,TRUE,4,poolmodel,0.0235,-2.9595393486405656e-4,0.007904133808301312,0,10000
10,250,0,0,0,0,0,0,0,0,0,0,2,0,1,0,0,0,0,0,0,0,0,0,0,-0.5,-0.5,-0.5,-0.5,-0.5,-0.5,-0.5,-0.5,-0.5,-0.5,-0.5,linear,100,0.025,0,0.5,TRUE,4,sepmodel,0.0235,-2.9595393486405656e-4,0.007904133808301312,0,10000
10,250,0,0,0,0,0,0,0,0,0,0,2,0,1,0,0,0,0,0,0,0,0,0,0,-0.5,-0.5,-0.5,-0.5,-0.5,-0.5,-0.5,-0.5,-0.5,-0.5,-0.5,linear,100,0.025,0,0.5,TRUE,5,fixmodel,0.0216,-6.062252094111323e-4,0.007863002830143396,0,10000
10,250,0,0,0,0,0,0,0,0,0,0,2,0,1,0,0,0,0,0,0,0,0,0,0,-0.5,-0.5,-0.5,-0.5,-0.5,-0.5,-0.5,-0.5,-0.5,-0.5,-0.5,linear,100,0.025,0,0.5,TRUE,5,poolmodel,0.0219,-6.062252094120979e-4,0.007863002830143406,0,10000
10,250,0,0,0,0,0,0,0,0,0,0,2,0,1,0,0,0,0,0,0,0,0,0,0,-0.5,-0.5,-0.5,-0.5,-0.5,-0.5,-0.5,-0.5,-0.5,-0.5,-0.5,linear,100,0.025,0,0.5,TRUE,5,sepmodel,0.0219,-6.062252094120979e-4,0.007863002830143406,0,10000
10,250,0,0,0,0,0,0,0,0,0,0,2,0,1,0,0,0,0,0,0,0,0,0,0,-0.5,-0.5,-0.5,-0.5,-0.5,-0.5,-0.5,-0.5,-0.5,-0.5,-0.5,linear,100,0.025,0,0.5,TRUE,6,fixmodel,0.0233,3.258309627715798e-5,0.008019684958121968,0,10000
10,250,0,0,0,0,0,0,0,0,0,0,2,0,1,0,0,0,0,0,0,0,0,0,0,-0.5,-0.5,-0.5,-0.5,-0.5,-0.5,-0.5,-0.5,-0.5,-0.5,-0.5,linear,100,0.025,0,0.5,TRUE,6,poolmodel,0.0233,3.258309627622513e-5,0.008019684958121966,0,10000
10,250,0,0,0,0,0,0,0,0,0,0,2,0,1,0,0,0,0,0,0,0,0,0,0,-0.5,-0.5,-0.5,-0.5,-0.5,-0.5,-0.5,-0.5,-0.5,-0.5,-0.5,linear,100,0.025,0,0.5,TRUE,6,sepmodel,0.0233,3.258309627622513e-5,0.008019684958121966,0,10000
10,250,0,0,0,0,0,0,0,0,0,0,2,0,1,0,0,0,0,0,0,0,0,0,0,-0.5,-0.5,-0.5,-0.5,-0.5,-0.5,-0.5,-0.5,-0.5,-0.5,-0.5,linear,100,0.025,0,0.5,TRUE,7,fixmodel,0.0222,-3.2587026293484373e-4,0.00804727079737431,0,10000
10,250,0,0,0,0,0,0,0,0,0,0,2,0,1,0,0,0,0,0,0,0,0,0,0,-0.5,-0.5,-0.5,-0.5,-0.5,-0.5,-0.5,-0.5,-0.5,-0.5,-0.5,linear,100,0.025,0,0.5,TRUE,7,poolmodel,0.0223,-3.258702629358062e-4,0.008047270797374304,0,10000
10,250,0,0,0,0,0,0,0,0,0,0,2,0,1,0,0,0,0,0,0,0,0,0,0,-0.5,-0.5,-0.5,-0.5,-0.5,-0.5,-0.5,-0.5,-0.5,-0.5,-0.5,linear,100,0.025,0,0.5,TRUE,7,sepmodel,0.0223,-3.258702629358062e-4,0.008047270797374304,0,10000
10,250,0,0,0,0,0,0,0,0,0,0,2,0,1,0,0,0,0,0,0,0,0,0,0,-0.5,-0.5,-0.5,-0.5,-0.5,-0.5,-0.5,-0.5,-0.5,-0.5,-0.5,linear,100,0.025,0,0.5,TRUE,8,fixmodel,0.023,-2.9463196987369736e-4,0.00791511087759242,0,10000
10,250,0,0,0,0,0,0,0,0,0,0,2,0,1,0,0,0,0,0,0,0,0,0,0,-0.5,-0.5,-0.5,-0.5,-0.5,-0.5,-0.5,-0.5,-0.5,-0.5,-0.5,linear,100,0.025,0,0.5,TRUE,8,poolmodel,0.0223,-2.946319698746822e-4,0.007915110877592441,0,10000
10,250,0,0,0,0,0,0,0,0,0,0,2,0,1,0,0,0,0,0,0,0,0,0,0,-0.5,-0.5,-0.5,-0.5,-0.5,-0.5,-0.5,-0.5,-0.5,-0.5,-0.5,linear,100,0.025,0,0.5,TRUE,8,sepmodel,0.0223,-2.946319698746822e-4,0.007915110877592441,0,10000
10,250,0,0,0,0,0,0,0,0,0,0,2,0,1,0,0,0,0,0,0,0,0,0,0,-0.5,-0.5,-0.5,-0.5,-0.5,-0.5,-0.5,-0.5,-0.5,-0.5,-0.5,linear,100,0.025,0,0.5,TRUE,9,fixmodel,0.0226,-8.226355555246305e-4,0.00799862694021767,0,10000
10,250,0,0,0,0,0,0,0,0,0,0,2,0,1,0,0,0,0,0,0,0,0,0,0,-0.5,-0.5,-0.5,-0.5,-0.5,-0.5,-0.5,-0.5,-0.5,-0.5,-0.5,linear,100,0.025,0,0.5,TRUE,9,poolmodel,0.0226,-8.226355555255867e-4,0.00799862694021768,0,10000
10,250,0,0,0,0,0,0,0,0,0,0,2,0,1,0,0,0,0,0,0,0,0,0,0,-0.5,-0.5,-0.5,-0.5,-0.5,-0.5,-0.5,-0.5,-0.5,-0.5,-0.5,linear,100,0.025,0,0.5,TRUE,9,sepmodel,0.0226,-8.226355555255867e-4,0.00799862694021768,0,10000
10,250,0,0,0,0,0,0,0,0,0,0,2,0,1,0,0,0,0,0,0,0,0,0,0,-0.5,-0.5,-0.5,-0.5,-0.5,-0.5,-0.5,-0.5,-0.5,-0.5,-0.5,linear,100,0.025,0,0.5,TRUE,10,fixmodel,0.0239,1.7328147277103845e-4,0.007888247643490737,0,10000
10,250,0,0,0,0,0,0,0,0,0,0,2,0,1,0,0,0,0,0,0,0,0,0,0,-0.5,-0.5,-0.5,-0.5,-0.5,-0.5,-0.5,-0.5,-0.5,-0.5,-0.5,linear,100,0.025,0,0.5,TRUE,10,poolmodel,0.023,1.7328147277007082e-4,0.007888247643490736,0,10000
10,250,0,0,0,0,0,0,0,0,0,0,2,0,1,0,0,0,0,0,0,0,0,0,0,-0.5,-0.5,-0.5,-0.5,-0.5,-0.5,-0.5,-0.5,-0.5,-0.5,-0.5,linear,100,0.025,0,0.5,TRUE,10,sepmodel,0.023,1.7328147277007082e-4,0.007888247643490736,0,10000
10,250,0,25,50,75,100,125,150,175,200,225,2,0,1,0,0,0,0,0,0,0,0,0,0,-0.5,-0.5,-0.5,-0.5,-0.5,-0.5,-0.5,-0.5,-0.5,-0.5,-0.5,linear,100,0.025,0,0.5,TRUE,2,fixmodel,0.0241,5.557284168397382e-5,0.007887141008867985,0,10000
10,250,0,25,50,75,100,125,150,175,200,225,2,0,1,0,0,0,0,0,0,0,0,0,0,-0.5,-0.5,-0.5,-0.5,-0.5,-0.5,-0.5,-0.5,-0.5,-0.5,-0.5,linear,100,0.025,0,0.5,TRUE,2,poolmodel,0.0165,-0.01070181131322436,0.00787190538123788,0,10000
10,250,0,25,50,75,100,125,150,175,200,225,2,0,1,0,0,0,0,0,0,0,0,0,0,-0.5,-0.5,-0.5,-0.5,-0.5,-0.5,-0.5,-0.5,-0.5,-0.5,-0.5,linear,100,0.025,0,0.5,TRUE,2,sepmodel,0.024,-7.36999219592352e-5,0.00797648089665474,0,10000
10,250,0,25,50,75,100,125,150,175,200,225,2,0,1,0,0,0,0,0,0,0,0,0,0,-0.5,-0.5,-0.5,-0.5,-0.5,-0.5,-0.5,-0.5,-0.5,-0.5,-0.5,linear,100,0.025,0,0.5,TRUE,3,fixmodel,0.0268,3.001743743101439e-4,0.008113893817431387,0,10000
10,250,0,25,50,75,100,125,150,175,200,225,2,0,1,0,0,0,0,0,0,0,0,0,0,-0.5,-0.5,-0.5,-0.5,-0.5,-0.5,-0.5,-0.5,-0.5,-0.5,-0.5,linear,100,0.025,0,0.5,TRUE,3,poolmodel,0.0165,-0.017399838457437228,0.00825399280408132,0,10000
10,250,0,25,50,75,100,125,150,175,200,225,2,0,1,0,0,0,0,0,0,0,0,0,0,-0.5,-0.5,-0.5,-0.5,-0.5,-0.5,-0.5,-0.5,-0.5,-0.5,-0.5,linear,100,0.025,0,0.5,TRUE,3,sepmodel,0.0266,1.6367714366689664e-4,0.008263900661086426,0,10000
10,250,0,25,50,75,100,125,150,175,200,225,2,0,1,0,0,0,0,0,0,0,0,0,0,-0.5,-0.5,-0.5,-0.5,-0.5,-0.5,-0.5,-0.5,-0.5,-0.5,-0.5,linear,100,0.025,0,0.5,TRUE,4,fixmodel,0.0259,-2.947820214377569e-4,0.007893569956801287,0,10000
10,250,0,25,50,75,100,125,150,175,200,225,2,0,1,0,0,0,0,0,0,0,0,0,0,-0.5,-0.5,-0.5,-0.5,-0.5,-0.5,-0.5,-0.5,-0.5,-0.5,-0.5,linear,100,0.025,0,0.5,TRUE,4,poolmodel,0.0123,-0.024466729927456927,0.008333107029330827,0,10000
10,250,0,25,50,75,100,125,150,175,200,225,2,0,1,0,0,0,0,0,0,0,0,0,0,-0.5,-0.5,-0.5,-0.5,-0.5,-0.5,-0.5,-0.5,-0.5,-0.5,-0.5,linear,100,0.025,0,0.5,TRUE,4,sepmodel,0.0254,-4.182101657258447e-4,0.00811258482443534,0,10000
10,250,0,25,50,75,100,125,150,175,200,225,2,0,1,0,0,0,0,0,0,0,0,0,0,-0.5,-0.5,-0.5,-0.5,-0.5,-0.5,-0.5,-0.5,-0.5,-0.5,-0.5,linear,100,0.025,0,0.5,TRUE,5,fixmodel,0.0251,4.71696098904878e-4,0.007757516575861373,0,10000
10,250,0,25,50,75,100,125,150,175,200,225,2,0,1,0,0,0,0,0,0,0,0,0,0,-0.5,-0.5,-0.5,-0.5,-0.5,-0.5,-0.5,-0.5,-0.5,-0.5,-0.5,linear,100,0.025,0,0.5,TRUE,5,poolmodel,0.0111,-0.02842309782915065,0.008365788569642556,0,10000
10,250,0,25,50,75,100,125,150,175,200,225,2,0,1,0,0,0,0,0,0,0,0,0,0,-0.5,-0.5,-0.5,-0.5,-0.5,-0.5,-0.5,-0.5,-0.5,-0.5,-0.5,linear,100,0.025,0,0.5,TRUE,5,sepmodel,0.0249,2.3651977929935362e-4,0.008055617451768514,0,10000
10,250,0,25,50,75,100,125,150,175,200,225,2,0,1,0,0,0,0,0,0,0,0,0,0,-0.5,-0.5,-0.5,-0.5,-0.5,-0.5,-0.5,-0.5,-0.5,-0.5,-0.5,linear,100,0.025,0,0.5,TRUE,6,fixmodel,0.0252,-1.9498157431209194e-4,0.007691177244034871,0,10000
10,250,0,25,50,75,100,125,150,175,200,225,2,0,1,0,0,0,0,0,0,0,0,0,0,-0.5,-0.5,-0.5,-0.5,-0.5,-0.5,-0.5,-0.5,-0.5,-0.5,-0.5,linear,100,0.025,0,0.5,TRUE,6,poolmodel,0.0102,-0.03286792040800516,0.008598591182458927,0,10000
10,250,0,25,50,75,100,125,150,175,200,225,2,0,1,0,0,0,0,0,0,0,0,0,0,-0.5,-0.5,-0.5,-0.5,-0.5,-0.5,-0.5,-0.5,-0.5,-0.5,-0.5,linear,100,0.025,0,0.5,TRUE,6,sepmodel,0.0238,-3.605870177263179e-4,0.007954906597933869,0,10000
10,250,0,25,50,75,100,125,150,175,200,225,2,0,1,0,0,0,0,0,0,0,0,0,0,-0.5,-0.5,-0.5,-0.5,-0.5,-0.5,-0.5,-0.5,-0.5,-0.5,-0.5,linear,100,0.025,0,0.5,TRUE,7,fixmodel,0.0241,1.5303464476495508e-4,0.007788890430825504,0,10000
10,250,0,25,50,75,100,125,150,175,200,225,2,0,1,0,0,0,0,0,0,0,0,0,0,-0.5,-0.5,-0.5,-0.5,-0.5,-0.5,-0.5,-0.5,-0.5,-0.5,-0.5,linear,100,0.025,0,0.5,TRUE,7,poolmodel,0.008,-0.03646078593796624,0.008924306701870657,0,10000
10,250,0,25,50,75,100,125,150,175,200,225,2,0,1,0,0,0,0,0,0,0,0,0,0,-0.5,-0.5,-0.5,-0.5,-0.5,-0.5,-0.5,-0.5,-0.5,-0.5,-0.5,linear,100,0.025,0,0.5,TRUE,7,sepmodel,0.0234,-1.5143615634925451e-5,0.008122296191585353,0,10000
10,250,0,25,50,75,100,125,150,175,200,225,2,0,1,0,0,0,0,0,0,0,0,0,0,-0.5,-0.5,-0.5,-0.5,-0.5,-0.5,-0.5,-0.5,-0.5,-0.5,-0.5,linear,100,0.025,0,0.5,TRUE,8,fixmodel,0.026,4.910314479835959e-5,0.00771256395198135,0,10000
10,250,0,25,50,75,100,125,150,175,200,225,2,0,1,0,0,0,0,0,0,0,0,0,0,-0.5,-0.5,-0.5,-0.5,-0.5,-0.5,-0.5,-0.5,-0.5,-0.5,-0.5,linear,100,0.025,0,0.5,TRUE,8,poolmodel,0.0069,-0.03945861190564517,0.009083236355053561,0,10000
10,250,0,25,50,75,100,125,150,175,200,225,2,0,1,0,0,0,0,0,0,0,0,0,0,-0.5,-0.5,-0.5,-0.5,-0.5,-0.5,-0.5,-0.5,-0.5,-0.5,-0.5,linear,100,0.025,0,0.5,TRUE,8,sepmodel,0.0247,-1.7878979950822752e-5,0.008076588308724954,0,10000
10,250,0,25,50,75,100,125,150,175,200,225,2,0,1,0,0,0,0,0,0,0,0,0,0,-0.5,-0.5,-0.5,-0.5,-0.5,-0.5,-0.5,-0.5,-0.5,-0.5,-0.5,linear,100,0.025,0,0.5,TRUE,9,fixmodel,0.0238,9.307362584206606e-4,0.007635842867509972,0,10000
10,250,0,25,50,75,100,125,150,175,200,225,2,0,1,0,0,0,0,0,0,0,0,0,0,-0.5,-0.5,-0.5,-0.5,-0.5,-0.5,-0.5,-0.5,-0.5,-0.5,-0.5,linear,100,0.025,0,0.5,TRUE,9,poolmodel,0.0062,-0.04147035272490588,0.009162016370195371,0,10000
10,250,0,25,50,75,100,125,150,175,200,225,2,0,1,0,0,0,0,0,0,0,0,0,0,-0.5,-0.5,-0.5,-0.5,-0.5,-0.5,-0.5,-0.5,-0.5,-0.5,-0.5,linear,100,0.025,0,0.5,TRUE,9,sepmodel,0.0221,8.318049747902108e-4,0.00801106305978151,0,10000
10,250,0,25,50,75,100,125,150,175,200,225,2,0,1,0,0,0,0,0,0,0,0,0,0,-0.5,-0.5,-0.5,-0.5,-0.5,-0.5,-0.5,-0.5,-0.5,-0.5,-0.5,linear,100,0.025,0,0.5,TRUE,10,fixmodel,0.0257,4.7236153708424624e-4,0.007615336069565137,0,10000
10,250,0,25,50,75,100,125,150,175,200,225,2,0,1,0,0,0,0,0,0,0,0,0,0,-0.5,-0.5,-0.5,-0.5,-0.5,-0.5,-0.5,-0.5,-0.5,-0.5,-0.5,linear,100,0.025,0,0.5,TRUE,10,poolmodel,0.0059,-0.04386585985867147,0.009356133230470317,0,10000
10,250,0,25,50,75,100,125,150,175,200,225,2,0,1,0,0,0,0,0,0,0,0,0,0,-0.5,-0.5,-0.5,-0.5,-0.5,-0.5,-0.5,-0.5,-0.5,-0.5,-0.5,linear,100,0.025,0,0.5,TRUE,10,sepmodel,0.0245,3.086098013991855e-4,0.008049511375829614,0,10000
10,250,0,50,100,150,200,250,300,350,400,450,2,0,1,0,0,0,0,0,0,0,0,0,0,-0.5,-0.5,-0.5,-0.5,-0.5,-0.5,-0.5,-0.5,-0.5,-0.5,-0.5,linear,100,0.025,0,0.5,TRUE,2,fixmodel,0.0261,-3.548267404834326e-4,0.007976314822976584,0,10000
10,250,0,50,100,150,200,250,300,350,400,450,2,0,1,0,0,0,0,0,0,0,0,0,0,-0.5,-0.5,-0.5,-0.5,-0.5,-0.5,-0.5,-0.5,-0.5,-0.5,-0.5,linear,100,0.025,0,0.5,TRUE,2,poolmodel,0.0166,-0.01695195984827449,0.008067619148101146,0,10000
10,250,0,50,100,150,200,250,300,350,400,450,2,0,1,0,0,0,0,0,0,0,0,0,0,-0.5,-0.5,-0.5,-0.5,-0.5,-0.5,-0.5,-0.5,-0.5,-0.5,-0.5,linear,100,0.025,0,0.5,TRUE,2,sepmodel,0.0253,-4.607253889406422e-4,0.008179966235633579,0,10000
10,250,0,50,100,150,200,250,300,350,400,450,2,0,1,0,0,0,0,0,0,0,0,0,0,-0.5,-0.5,-0.5,-0.5,-0.5,-0.5,-0.5,-0.5,-0.5,-0.5,-0.5,linear,100,0.025,0,0.5,TRUE,3,fixmodel,0.0243,-0.0010020222047571147,0.007815456093153525,0,10000
10,250,0,50,100,150,200,250,300,350,400,450,2,0,1,0,0,0,0,0,0,0,0,0,0,-0.5,-0.5,-0.5,-0.5,-0.5,-0.5,-0.5,-0.5,-0.5,-0.5,-0.5,linear,100,0.025,0,0.5,TRUE,3,poolmodel,0.0093,-0.031031329343499742,0.00853790521770291,0,10000
10,250,0,50,100,150,200,250,300,350,400,450,2,0,1,0,0,0,0,0,0,0,0,0,0,-0.5,-0.5,-0.5,-0.5,-0.5,-0.5,-0.5,-0.5,-0.5,-0.5,-0.5,linear,100,0.025,0,0.5,TRUE,3,sepmodel,0.0238,-0.0012188466859497289,0.008188718347229547,0,10000
10,250,0,50,100,150,200,250,300,350,400,450,2,0,1,0,0,0,0,0,0,0,0,0,0,-0.5,-0.5,-0.5,-0.5,-0.5,-0.5,-0.5,-0.5,-0.5,-0.5,-0.5,linear,100,0.025,0,0.5,TRUE,4,fixmodel,0.0245,3.08339038508682e-4,0.007724935176790959,0,10000
10,250,0,50,100,150,200,250,300,350,400,450,2,0,1,0,0,0,0,0,0,0,0,0,0,-0.5,-0.5,-0.5,-0.5,-0.5,-0.5,-0.5,-0.5,-0.5,-0.5,-0.5,linear,100,0.025,0,0.5,TRUE,4,poolmodel,0.0063,-0.04081017409434878,0.009057992364615144,0,10000
10,250,0,50,100,150,200,250,300,350,400,450,2,0,1,0,0,0,0,0,0,0,0,0,0,-0.5,-0.5,-0.5,-0.5,-0.5,-0.5,-0.5,-0.5,-0.5,-0.5,-0.5,linear,100,0.025,0,0.5,TRUE,4,sepmodel,0.0246,1.0516008646187336e-4,0.008248237909870764,0,10000
10,250,0,50,100,150,200,250,300,350,400,450,2,0,1,0,0,0,0,0,0,0,0,0,0,-0.5,-0.5,-0.5,-0.5,-0.5,-0.5,-0.5,-0.5,-0.5,-0.5,-0.5,linear,100,0.025,0,0.5,TRUE,5,fixmodel,0.0255,1.609051536093103e-4,0.007527582267196394,0,10000
10,250,0,50,100,150,200,250,300,350,400,450,2,0,1,0,0,0,0,0,0,0,0,0,0,-0.5,-0.5,-0.5,-0.5,-0.5,-0.5,-0.5,-0.5,-0.5,-0.5,-0.5,linear,100,0.025,0,0.5,TRUE,5,poolmodel,0.0053,-0.049784754183533446,0.009734853993864536,0,10000
10,250,0,50,100,150,200,250,300,350,400,450,2,0,1,0,0,0,0,0,0,0,0,0,0,-0.5,-0.5,-0.5,-0.5,-0.5,-0.5,-0.5,-0.5,-0.5,-0.5,-0.5,linear,100,0.025,0,0.5,TRUE,5,sepmodel,0.0247,-4.761098718041476e-6,0.008088200904778256,0,10000
10,250,0,50,100,150,200,250,300,350,400,450,2,0,1,0,0,0,0,0,0,0,0,0,0,-0.5,-0.5,-0.5,-0.5,-0.5,-0.5,-0.5,-0.5,-0.5,-0.5,-0.5,linear,100,0.025,0,0.5,TRUE,6,fixmodel,0.0248,8.343144020705943e-4,0.007371776226463863,0,10000
10,250,0,50,100,150,200,250,300,350,400,450,2,0,1,0,0,0,0,0,0,0,0,0,0,-0.5,-0.5,-0.5,-0.5,-0.5,-0.5,-0.5,-0.5,-0.5,-0.5,-0.5,linear,100,0.025,0,0.5,TRUE,6,poolmodel,0.0028,-0.05642759732427368,0.010249854912515094,0,10000
10,250,0,50,100,150,200,250,300,350,400,450,2,0,1,0,0,0,0,0,0,0,0,0,0,-0.5,-0.5,-0.5,-0.5,-0.5,-0.5,-0.5,-0.5,-0.5,-0.5,-0.5,linear,100,0.025,0,0.5,TRUE,6,sepmodel,0.0224,6.621421586927728e-4,0.008021151226256582,0,10000
10,250,0,50,100,150,200,250,300,350,400,450,2,0,1,0,0,0,0,0,0,0,0,0,0,-0.5,-0.5,-0.5,-0.5,-0.5,-0.5,-0.5,-0.5,-0.5,-0.5,-0.5,linear,100,0.025,0,0.5,TRUE,7,fixmodel,0.0247,-5.687307780926255e-4,0.007427281793992309,0,10000
10,250,0,50,100,150,200,250,300,350,400,450,2,0,1,0,0,0,0,0,0,0,0,0,0,-0.5,-0.5,-0.5,-0.5,-0.5,-0.5,-0.5,-0.5,-0.5,-0.5,-0.5,linear,100,0.025,0,0.5,TRUE,7,poolmodel,0.0034,-0.06433024653573588,0.011235827134509843,0,10000
10,250,0,50,100,150,200,250,300,350,400,450,2,0,1,0,0,0,0,0,0,0,0,0,0,-0.5,-0.5,-0.5,-0.5,-0.5,-0.5,-0.5,-0.5,-0.5,-0.5,-0.5,linear,100,0.025,0,0.5,TRUE,7,sepmodel,0.0245,-8.738016866743445e-4,0.008102913359739502,0,10000
10,250,0,50,100,150,200,250,300,350,400,450,2,0,1,0,0,0,0,0,0,0,0,0,0,-0.5,-0.5,-0.5,-0.5,-0.5,-0.5,-0.5,-0.5,-0.5,-0.5,-0.5,linear,100,0.025,0,0.5,TRUE,8,fixmodel,0.0238,3.459700646741073e-4,0.007237857839228061,0,10000
10,250,0,50,100,150,200,250,300,350,400,450,2,0,1,0,0,0,0,0,0,0,0,0,0,-0.5,-0.5,-0.5,-0.5,-0.5,-0.5,-0.5,-0.5,-0.5,-0.5,-0.5,linear,100,0.025,0,0.5,TRUE,8,poolmodel,0.0024,-0.0698520438001718,0.011850675599970517,0,10000
10,250,0,50,100,150,200,250,300,350,400,450,2,0,1,0,0,0,0,0,0,0,0,0,0,-0.5,-0.5,-0.5,-0.5,-0.5,-0.5,-0.5,-0.5,-0.5,-0.5,-0.5,linear,100,0.025,0,0.5,TRUE,8,sepmodel,0.0227,4.9867559280105296e-5,0.007984335412876088,0,10000
10,250,0,50,100,150,200,250,300,350,400,450,2,0,1,0,0,0,0,0,0,0,0,0,0,-0.5,-0.5,-0.5,-0.5,-0.5,-0.5,-0.5,-0.5,-0.5,-0.5,-0.5,linear,100,0.025,0,0.5,TRUE,9,fixmodel,0.0257,-4.0717201859312267e-4,0.00738651214465249,0,10000
10,250,0,50,100,150,200,250,300,350,400,450,2,0,1,0,0,0,0,0,0,0,0,0,0,-0.5,-0.5,-0.5,-0.5,-0.5,-0.5,-0.5,-0.5,-0.5,-0.5,-0.5,linear,100,0.025,0,0.5,TRUE,9,poolmodel,0.0026,-0.07525679626957114,0.012695578852695366,0,10000
10,250,0,50,100,150,200,250,300,350,400,450,2,0,1,0,0,0,0,0,0,0,0,0,0,-0.5,-0.5,-0.5,-0.5,-0.5,-0.5,-0.5,-0.5,-0.5,-0.5,-0.5,linear,100,0.025,0,0.5,TRUE,9,sepmodel,0.0254,-7.726874908933648e-4,0.008180355118658271,0,10000
10,250,0,50,100,150,200,250,300,350,400,450,2,0,1,0,0,0,0,0,0,0,0,0,0,-0.5,-0.5,-0.5,-0.5,-0.5,-0.5,-0.5,-0.5,-0.5,-0.5,-0.5,linear,100,0.025,0,0.5,TRUE,10,fixmodel,0.0255,-4.419523167344448e-4,0.007214335785000005,0,10000
10,250,0,50,100,150,200,250,300,350,400,450,2,0,1,0,0,0,0,0,0,0,0,0,0,-0.5,-0.5,-0.5,-0.5,-0.5,-0.5,-0.5,-0.5,-0.5,-0.5,-0.5,linear,100,0.025,0,0.5,TRUE,10,poolmodel,0.0017,-0.07993750071764061,0.013263121032557867,0,10000
10,250,0,50,100,150,200,250,300,350,400,450,2,0,1,0,0,0,0,0,0,0,0,0,0,-0.5,-0.5,-0.5,-0.5,-0.5,-0.5,-0.5,-0.5,-0.5,-0.5,-0.5,linear,100,0.025,0,0.5,TRUE,10,sepmodel,0.0236,-8.424008660351246e-4,0.008038680715440965,0,10000
10,250,0,75,150,225,300,375,450,525,600,675,2,0,1,0,0,0,0,0,0,0,0,0,0,-0.5,-0.5,-0.5,-0.5,-0.5,-0.5,-0.5,-0.5,-0.5,-0.5,-0.5,linear,100,0.025,0,0.5,TRUE,2,fixmodel,0.0246,-0.0016485737564921527,0.007707346604752882,0,10000
10,250,0,75,150,225,300,375,450,525,600,675,2,0,1,0,0,0,0,0,0,0,0,0,0,-0.5,-0.5,-0.5,-0.5,-0.5,-0.5,-0.5,-0.5,-0.5,-0.5,-0.5,linear,100,0.025,0,0.5,TRUE,2,poolmodel,0.0133,-0.02261193219203731,0.00789937106599846,0,10000
10,250,0,75,150,225,300,375,450,525,600,675,2,0,1,0,0,0,0,0,0,0,0,0,0,-0.5,-0.5,-0.5,-0.5,-0.5,-0.5,-0.5,-0.5,-0.5,-0.5,-0.5,linear,100,0.025,0,0.5,TRUE,2,sepmodel,0.0235,-0.001900317381978904,0.007999316388949738,0,10000
10,250,0,75,150,225,300,375,450,525,600,675,2,0,1,0,0,0,0,0,0,0,0,0,0,-0.5,-0.5,-0.5,-0.5,-0.5,-0.5,-0.5,-0.5,-0.5,-0.5,-0.5,linear,100,0.025,0,0.5,TRUE,3,fixmodel,0.0251,-6.835735449934046e-5,0.007452040614524608,0,10000
10,250,0,75,150,225,300,375,450,525,600,675,2,0,1,0,0,0,0,0,0,0,0,0,0,-0.5,-0.5,-0.5,-0.5,-0.5,-0.5,-0.5,-0.5,-0.5,-0.5,-0.5,linear,100,0.025,0,0.5,TRUE,3,poolmodel,0.0079,-0.038788367649570235,0.008560754238859214,0,10000
10,250,0,75,150,225,300,375,450,525,600,675,2,0,1,0,0,0,0,0,0,0,0,0,0,-0.5,-0.5,-0.5,-0.5,-0.5,-0.5,-0.5,-0.5,-0.5,-0.5,-0.5,linear,100,0.025,0,0.5,TRUE,3,sepmodel,0.0246,-1.45082916349297e-4,0.007972468125052286,0,10000
10,250,0,75,150,225,300,375,450,525,600,675,2,0,1,0,0,0,0,0,0,0,0,0,0,-0.5,-0.5,-0.5,-0.5,-0.5,-0.5,-0.5,-0.5,-0.5,-0.5,-0.5,linear,100,0.025,0,0.5,TRUE,4,fixmodel,0.0261,-0.001705344307711543,0.0075035849233267456,0,10000
10,250,0,75,150,225,300,375,450,525,600,675,2,0,1,0,0,0,0,0,0,0,0,0,0,-0.5,-0.5,-0.5,-0.5,-0.5,-0.5,-0.5,-0.5,-0.5,-0.5,-0.5,linear,100,0.025,0,0.5,TRUE,4,poolmodel,0.0049,-0.05562946361068658,0.010206853089980516,0,10000
10,250,0,75,150,225,300,375,450,525,600,675,2,0,1,0,0,0,0,0,0,0,0,0,0,-0.5,-0.5,-0.5,-0.5,-0.5,-0.5,-0.5,-0.5,-0.5,-0.5,-0.5,linear,100,0.025,0,0.5,TRUE,4,sepmodel,0.0236,-0.0017653799646383576,0.008066935412396193,0,10000
10,250,0,75,150,225,300,375,450,525,600,675,2,0,1,0,0,0,0,0,0,0,0,0,0,-0.5,-0.5,-0.5,-0.5,-0.5,-0.5,-0.5,-0.5,-0.5,-0.5,-0.5,linear,100,0.025,0,0.5,TRUE,5,fixmodel,0.0258,-7.260114711291819e-4,0.007440184418064763,0,10000
10,250,0,75,150,225,300,375,450,525,600,675,2,0,1,0,0,0,0,0,0,0,0,0,0,-0.5,-0.5,-0.5,-0.5,-0.5,-0.5,-0.5,-0.5,-0.5,-0.5,-0.5,linear,100,0.025,0,0.5,TRUE,5,poolmodel,0.0029,-0.06731840445208227,0.011575182901372815,0,10000
10,250,0,75,150,225,300,375,450,525,600,675,2,0,1,0,0,0,0,0,0,0,0,0,0,-0.5,-0.5,-0.5,-0.5,-0.5,-0.5,-0.5,-0.5,-0.5,-0.5,-0.5,linear,100,0.025,0,0.5,TRUE,5,sepmodel,0.0272,-7.487172431752084e-4,0.008244339495970773,0,10000
10,250,0,75,150,225,300,375,450,525,600,675,2,0,1,0,0,0,0,0,0,0,0,0,0,-0.5,-0.5,-0.5,-0.5,-0.5,-0.5,-0.5,-0.5,-0.5,-0.5,-0.5,linear,100,0.025,0,0.5,TRUE,6,fixmodel,0.0242,-0.0015881123345722905,0.007164817678735312,0,10000
10,250,0,75,150,225,300,375,450,525,600,675,2,0,1,0,0,0,0,0,0,0,0,0,0,-0.5,-0.5,-0.5,-0.5,-0.5,-0.5,-0.5,-0.5,-0.5,-0.5,-0.5,linear,100,0.025,0,0.5,TRUE,6,poolmodel,0.0021,-0.07959248520291956,0.013101739168752544,0,10000
10,250,0,75,150,225,300,375,450,525,600,675,2,0,1,0,0,0,0,0,0,0,0,0,0,-0.5,-0.5,-0.5,-0.5,-0.5,-0.5,-0.5,-0.5,-0.5,-0.5,-0.5,linear,100,0.025,0,0.5,TRUE,6,sepmodel,0.024,-0.0012570810289404735,0.00795068849560545,0,10000
10,250,0,75,150,225,300,375,450,525,600,675,2,0,1,0,0,0,0,0,0,0,0,0,0,-0.5,-0.5,-0.5,-0.5,-0.5,-0.5,-0.5,-0.5,-0.5,-0.5,-0.5,linear,100,0.025,0,0.5,TRUE,7,fixmodel,0.0239,-0.001296421406474267,0.007152928058387575,0,10000
10,250,0,75,150,225,300,375,450,525,600,675,2,0,1,0,0,0,0,0,0,0,0,0,0,-0.5,-0.5,-0.5,-0.5,-0.5,-0.5,-0.5,-0.5,-0.5,-0.5,-0.5,linear,100,0.025,0,0.5,TRUE,7,poolmodel,0.0014,-0.08819440937395842,0.014522430880709366,0,10000
10,250,0,75,150,225,300,375,450,525,600,675,2,0,1,0,0,0,0,0,0,0,0,0,0,-0.5,-0.5,-0.5,-0.5,-0.5,-0.5,-0.5,-0.5,-0.5,-0.5,-0.5,linear,100,0.025,0,0.5,TRUE,7,sepmodel,0.0224,-9.542121456947405e-4,0.008036516564611344,0,10000
10,250,0,75,150,225,300,375,450,525,600,675,2,0,1,0,0,0,0,0,0,0,0,0,0,-0.5,-0.5,-0.5,-0.5,-0.5,-0.5,-0.5,-0.5,-0.5,-0.5,-0.5,linear,100,0.025,0,0.5,TRUE,8,fixmodel,0.0238,-0.0016744072430877148,0.006971061615868845,0,10000
10,250,0,75,150,225,300,375,450,525,600,675,2,0,1,0,0,0,0,0,0,0,0,0,0,-0.5,-0.5,-0.5,-0.5,-0.5,-0.5,-0.5,-0.5,-0.5,-0.5,-0.5,linear,100,0.025,0,0.5,TRUE,8,poolmodel,9e-4,-0.09733359746555693,0.01608169994988596,0,10000
10,250,0,75,150,225,300,375,450,525,600,675,2,0,1,0,0,0,0,0,0,0,0,0,0,-0.5,-0.5,-0.5,-0.5,-0.5,-0.5,-0.5,-0.5,-0.5,-0.5,-0.5,linear,100,0.025,0,0.5,TRUE,8,sepmodel,0.0216,-0.001369152404139574,0.007931272811547818,0,10000
10,250,0,75,150,225,300,375,450,525,600,675,2,0,1,0,0,0,0,0,0,0,0,0,0,-0.5,-0.5,-0.5,-0.5,-0.5,-0.5,-0.5,-0.5,-0.5,-0.5,-0.5,linear,100,0.025,0,0.5,TRUE,9,fixmodel,0.0245,-0.0014364666667443001,0.007027619188845888,0,10000
10,250,0,75,150,225,300,375,450,525,600,675,2,0,1,0,0,0,0,0,0,0,0,0,0,-0.5,-0.5,-0.5,-0.5,-0.5,-0.5,-0.5,-0.5,-0.5,-0.5,-0.5,linear,100,0.025,0,0.5,TRUE,9,poolmodel,7e-4,-0.10410359317913875,0.01744187707348596,0,10000
10,250,0,75,150,225,300,375,450,525,600,675,2,0,1,0,0,0,0,0,0,0,0,0,0,-0.5,-0.5,-0.5,-0.5,-0.5,-0.5,-0.5,-0.5,-0.5,-0.5,-0.5,linear,100,0.025,0,0.5,TRUE,9,sepmodel,0.0256,-0.001241423595412751,0.008028223071721453,0,10000
10,250,0,75,150,225,300,375,450,525,600,675,2,0,1,0,0,0,0,0,0,0,0,0,0,-0.5,-0.5,-0.5,-0.5,-0.5,-0.5,-0.5,-0.5,-0.5,-0.5,-0.5,linear,100,0.025,0,0.5,TRUE,10,fixmodel,0.0236,-0.0010673745878012257,0.006902901877947013,0,10000
10,250,0,75,150,225,300,375,450,525,600,675,2,0,1,0,0,0,0,0,0,0,0,0,0,-0.5,-0.5,-0.5,-0.5,-0.5,-0.5,-0.5,-0.5,-0.5,-0.5,-0.5,linear,100,0.025,0,0.5,TRUE,10,poolmodel,7e-4,-0.11057097789144552,0.018674138138426583,0,10000
10,250,0,75,150,225,300,375,450,525,600,675,2,0,1,0,0,0,0,0,0,0,0,0,0,-0.5,-0.5,-0.5,-0.5,-0.5,-0.5,-0.5,-0.5,-0.5,-0.5,-0.5,linear,100,0.025,0,0.5,TRUE,10,sepmodel,0.024,-7.81118998825475e-4,0.00793677917244648,0,10000
10,250,0,100,200,300,400,500,600,700,800,900,2,0,1,0,0,0,0,0,0,0,0,0,0,-0.5,-0.5,-0.5,-0.5,-0.5,-0.5,-0.5,-0.5,-0.5,-0.5,-0.5,linear,100,0.025,0,0.5,TRUE,2,fixmodel,0.0257,-5.934180456513768e-4,0.007552534935092097,0,10000
10,250,0,100,200,300,400,500,600,700,800,900,2,0,1,0,0,0,0,0,0,0,0,0,0,-0.5,-0.5,-0.5,-0.5,-0.5,-0.5,-0.5,-0.5,-0.5,-0.5,-0.5,linear,100,0.025,0,0.5,TRUE,2,poolmodel,0.0115,-0.02362918112758882,0.007810780897361016,0,10000
10,250,0,100,200,300,400,500,600,700,800,900,2,0,1,0,0,0,0,0,0,0,0,0,0,-0.5,-0.5,-0.5,-0.5,-0.5,-0.5,-0.5,-0.5,-0.5,-0.5,-0.5,linear,100,0.025,0,0.5,TRUE,2,sepmodel,0.0245,-5.085993091314033e-4,0.007867835414012125,0,10000
10,250,0,100,200,300,400,500,600,700,800,900,2,0,1,0,0,0,0,0,0,0,0,0,0,-0.5,-0.5,-0.5,-0.5,-0.5,-0.5,-0.5,-0.5,-0.5,-0.5,-0.5,linear,100,0.025,0,0.5,TRUE,3,fixmodel,0.0242,-0.0013822359968499183,0.007436296703908809,0,10000
10,250,0,100,200,300,400,500,600,700,800,900,2,0,1,0,0,0,0,0,0,0,0,0,0,-0.5,-0.5,-0.5,-0.5,-0.5,-0.5,-0.5,-0.5,-0.5,-0.5,-0.5,linear,100,0.025,0,0.5,TRUE,3,poolmodel,0.0064,-0.04601545771047527,0.009125102121525591,0,10000
10,250,0,100,200,300,400,500,600,700,800,900,2,0,1,0,0,0,0,0,0,0,0,0,0,-0.5,-0.5,-0.5,-0.5,-0.5,-0.5,-0.5,-0.5,-0.5,-0.5,-0.5,linear,100,0.025,0,0.5,TRUE,3,sepmodel,0.026,-0.0013069594156424418,0.008056762919740645,0,10000
10,250,0,100,200,300,400,500,600,700,800,900,2,0,1,0,0,0,0,0,0,0,0,0,0,-0.5,-0.5,-0.5,-0.5,-0.5,-0.5,-0.5,-0.5,-0.5,-0.5,-0.5,linear,100,0.025,0,0.5,TRUE,4,fixmodel,0.0222,4.116296088919535e-4,0.007086392702615631,0,10000
10,250,0,100,200,300,400,500,600,700,800,900,2,0,1,0,0,0,0,0,0,0,0,0,0,-0.5,-0.5,-0.5,-0.5,-0.5,-0.5,-0.5,-0.5,-0.5,-0.5,-0.5,linear,100,0.025,0,0.5,TRUE,4,poolmodel,0.0029,-0.06288033353205767,0.010616661421264774,0,10000
10,250,0,100,200,300,400,500,600,700,800,900,2,0,1,0,0,0,0,0,0,0,0,0,0,-0.5,-0.5,-0.5,-0.5,-0.5,-0.5,-0.5,-0.5,-0.5,-0.5,-0.5,linear,100,0.025,0,0.5,TRUE,4,sepmodel,0.0226,3.126131964078595e-4,0.007845262837509543,0,10000
10,250,0,100,200,300,400,500,600,700,800,900,2,0,1,0,0,0,0,0,0,0,0,0,0,-0.5,-0.5,-0.5,-0.5,-0.5,-0.5,-0.5,-0.5,-0.5,-0.5,-0.5,linear,100,0.025,0,0.5,TRUE,5,fixmodel,0.0247,-4.538896897535123e-4,0.007308334208896014,0,10000
10,250,0,100,200,300,400,500,600,700,800,900,2,0,1,0,0,0,0,0,0,0,0,0,0,-0.5,-0.5,-0.5,-0.5,-0.5,-0.5,-0.5,-0.5,-0.5,-0.5,-0.5,linear,100,0.025,0,0.5,TRUE,5,poolmodel,0.0017,-0.07977909682781635,0.013195710180484911,0,10000
10,250,0,100,200,300,400,500,600,700,800,900,2,0,1,0,0,0,0,0,0,0,0,0,0,-0.5,-0.5,-0.5,-0.5,-0.5,-0.5,-0.5,-0.5,-0.5,-0.5,-0.5,linear,100,0.025,0,0.5,TRUE,5,sepmodel,0.0238,-7.949621471088532e-4,0.008189665082760922,0,10000
10,250,0,100,200,300,400,500,600,700,800,900,2,0,1,0,0,0,0,0,0,0,0,0,0,-0.5,-0.5,-0.5,-0.5,-0.5,-0.5,-0.5,-0.5,-0.5,-0.5,-0.5,linear,100,0.025,0,0.5,TRUE,6,fixmodel,0.0252,-0.001232655940884974,0.007057109941623303,0,10000
10,250,0,100,200,300,400,500,600,700,800,900,2,0,1,0,0,0,0,0,0,0,0,0,0,-0.5,-0.5,-0.5,-0.5,-0.5,-0.5,-0.5,-0.5,-0.5,-0.5,-0.5,linear,100,0.025,0,0.5,TRUE,6,poolmodel,4e-4,-0.09466557259208609,0.015523062752084855,0,10000
10,250,0,100,200,300,400,500,600,700,800,900,2,0,1,0,0,0,0,0,0,0,0,0,0,-0.5,-0.5,-0.5,-0.5,-0.5,-0.5,-0.5,-0.5,-0.5,-0.5,-0.5,linear,100,0.025,0,0.5,TRUE,6,sepmodel,0.0274,-0.001558637897202426,0.008097699562469854,0,10000
10,250,0,100,200,300,400,500,600,700,800,900,2,0,1,0,0,0,0,0,0,0,0,0,0,-0.5,-0.5,-0.5,-0.5,-0.5,-0.5,-0.5,-0.5,-0.5,-0.5,-0.5,linear,100,0.025,0,0.5,TRUE,7,fixmodel,0.0247,9.451104476357969e-4,0.006996475039445521,0,10000
10,250,0,100,200,300,400,500,600,700,800,900,2,0,1,0,0,0,0,0,0,0,0,0,0,-0.5,-0.5,-0.5,-0.5,-0.5,-0.5,-0.5,-0.5,-0.5,-0.5,-0.5,linear,100,0.025,0,0.5,TRUE,7,poolmodel,9e-4,-0.1041870759265332,0.01733175904991429,0,10000
10,250,0,100,200,300,400,500,600,700,800,900,2,0,1,0,0,0,0,0,0,0,0,0,0,-0.5,-0.5,-0.5,-0.5,-0.5,-0.5,-0.5,-0.5,-0.5,-0.5,-0.5,linear,100,0.025,0,0.5,TRUE,7,sepmodel,0.0238,5.800470682478399e-4,0.008135746977553608,0,10000
10,250,0,100,200,300,400,500,600,700,800,900,2,0,1,0,0,0,0,0,0,0,0,0,0,-0.5,-0.5,-0.5,-0.5,-0.5,-0.5,-0.5,-0.5,-0.5,-0.5,-0.5,linear,100,0.025,0,0.5,TRUE,8,fixmodel,0.0259,7.276841383130828e-4,0.006861778954812041,0,10000
10,250,0,100,200,300,400,500,600,700,800,900,2,0,1,0,0,0,0,0,0,0,0,0,0,-0.5,-0.5,-0.5,-0.5,-0.5,-0.5,-0.5,-0.5,-0.5,-0.5,-0.5,linear,100,0.025,0,0.5,TRUE,8,poolmodel,1e-4,-0.11526926220740394,0.019653752032596863,0,10000
10,250,0,100,200,300,400,500,600,700,800,900,2,0,1,0,0,0,0,0,0,0,0,0,0,-0.5,-0.5,-0.5,-0.5,-0.5,-0.5,-0.5,-0.5,-0.5,-0.5,-0.5,linear,100,0.025,0,0.5,TRUE,8,sepmodel,0.0265,3.338001900720301e-4,0.008052547824911813,0,10000
10,250,0,100,200,300,400,500,600,700,800,900,2,0,1,0,0,0,0,0,0,0,0,0,0,-0.5,-0.5,-0.5,-0.5,-0.5,-0.5,-0.5,-0.5,-0.5,-0.5,-0.5,linear,100,0.025,0,0.5,TRUE,9,fixmodel,0.0262,-9.25386341096442e-4,0.006951670262432629,0,10000
10,250,0,100,200,300,400,500,600,700,800,900,2,0,1,0,0,0,0,0,0,0,0,0,0,-0.5,-0.5,-0.5,-0.5,-0.5,-0.5,-0.5,-0.5,-0.5,-0.5,-0.5,linear,100,0.025,0,0.5,TRUE,9,poolmodel,0,-0.1259251463465212,0.022282596009722544,0,10000
10,250,0,100,200,300,400,500,600,700,800,900,2,0,1,0,0,0,0,0,0,0,0,0,0,-0.5,-0.5,-0.5,-0.5,-0.5,-0.5,-0.5,-0.5,-0.5,-0.5,-0.5,linear,100,0.025,0,0.5,TRUE,9,sepmodel,0.0244,-0.0011636032368263296,0.008148661150479708,0,10000
10,250,0,100,200,300,400,500,600,700,800,900,2,0,1,0,0,0,0,0,0,0,0,0,0,-0.5,-0.5,-0.5,-0.5,-0.5,-0.5,-0.5,-0.5,-0.5,-0.5,-0.5,linear,100,0.025,0,0.5,TRUE,10,fixmodel,0.0222,-2.569146576575977e-4,0.006741997582140745,0,10000
10,250,0,100,200,300,400,500,600,700,800,900,2,0,1,0,0,0,0,0,0,0,0,0,0,-0.5,-0.5,-0.5,-0.5,-0.5,-0.5,-0.5,-0.5,-0.5,-0.5,-0.5,linear,100,0.025,0,0.5,TRUE,10,poolmodel,0,-0.1330627257887238,0.02384647525159494,0,10000
10,250,0,100,200,300,400,500,600,700,800,900,2,0,1,0,0,0,0,0,0,0,0,0,0,-0.5,-0.5,-0.5,-0.5,-0.5,-0.5,-0.5,-0.5,-0.5,-0.5,-0.5,linear,100,0.025,0,0.5,TRUE,10,sepmodel,0.0236,-5.578095132158017e-4,0.008062033319074529,0,10000
10,250,0,125,250,375,500,625,750,875,1000,1125,2,0,1,0,0,0,0,0,0,0,0,0,0,-0.5,-0.5,-0.5,-0.5,-0.5,-0.5,-0.5,-0.5,-0.5,-0.5,-0.5,linear,100,0.025,0,0.5,TRUE,2,fixmodel,0.0255,5.14256360072472e-4,0.007546255399025306,0,10000
10,250,0,125,250,375,500,625,750,875,1000,1125,2,0,1,0,0,0,0,0,0,0,0,0,0,-0.5,-0.5,-0.5,-0.5,-0.5,-0.5,-0.5,-0.5,-0.5,-0.5,-0.5,linear,100,0.025,0,0.5,TRUE,2,poolmodel,0.0119,-0.023864070616755783,0.007642176795069167,0,10000
10,250,0,125,250,375,500,625,750,875,1000,1125,2,0,1,0,0,0,0,0,0,0,0,0,0,-0.5,-0.5,-0.5,-0.5,-0.5,-0.5,-0.5,-0.5,-0.5,-0.5,-0.5,linear,100,0.025,0,0.5,TRUE,2,sepmodel,0.0258,5.883898286730495e-4,0.007946624702354676,0,10000
10,250,0,125,250,375,500,625,750,875,1000,1125,2,0,1,0,0,0,0,0,0,0,0,0,0,-0.5,-0.5,-0.5,-0.5,-0.5,-0.5,-0.5,-0.5,-0.5,-0.5,-0.5,linear,100,0.025,0,0.5,TRUE,3,fixmodel,0.0233,-5.751972406122425e-4,0.0073736623400208695,0,10000
10,250,0,125,250,375,500,625,750,875,1000,1125,2,0,1,0,0,0,0,0,0,0,0,0,0,-0.5,-0.5,-0.5,-0.5,-0.5,-0.5,-0.5,-0.5,-0.5,-0.5,-0.5,linear,100,0.025,0,0.5,TRUE,3,poolmodel,0.0043,-0.04910350799979077,0.009256467241864562,0,10000
10,250,0,125,250,375,500,625,750,875,1000,1125,2,0,1,0,0,0,0,0,0,0,0,0,0,-0.5,-0.5,-0.5,-0.5,-0.5,-0.5,-0.5,-0.5,-0.5,-0.5,-0.5,linear,100,0.025,0,0.5,TRUE,3,sepmodel,0.0232,-5.208097135162338e-4,0.007957705596678858,0,10000
10,250,0,125,250,375,500,625,750,875,1000,1125,2,0,1,0,0,0,0,0,0,0,0,0,0,-0.5,-0.5,-0.5,-0.5,-0.5,-0.5,-0.5,-0.5,-0.5,-0.5,-0.5,linear,100,0.025,0,0.5,TRUE,4,fixmodel,0.0232,9.558876629840589e-4,0.007016262847038879,0,10000
10,250,0,125,250,375,500,625,750,875,1000,1125,2,0,1,0,0,0,0,0,0,0,0,0,0,-0.5,-0.5,-0.5,-0.5,-0.5,-0.5,-0.5,-0.5,-0.5,-0.5,-0.5,linear,100,0.025,0,0.5,TRUE,4,poolmodel,0.0013,-0.06919099816390849,0.011208606781035281,0,10000
10,250,0,125,250,375,500,625,750,875,1000,1125,2,0,1,0,0,0,0,0,0,0,0,0,0,-0.5,-0.5,-0.5,-0.5,-0.5,-0.5,-0.5,-0.5,-0.5,-0.5,-0.5,linear,100,0.025,0,0.5,TRUE,4,sepmodel,0.0233,9.061076374766923e-4,0.00788840885493024,0,10000
10,250,0,125,250,375,500,625,750,875,1000,1125,2,0,1,0,0,0,0,0,0,0,0,0,0,-0.5,-0.5,-0.5,-0.5,-0.5,-0.5,-0.5,-0.5,-0.5,-0.5,-0.5,linear,100,0.025,0,0.5,TRUE,5,fixmodel,0.0228,-0.0011224709917126753,0.006976904236515119,0,10000
10,250,0,125,250,375,500,625,750,875,1000,1125,2,0,1,0,0,0,0,0,0,0,0,0,0,-0.5,-0.5,-0.5,-0.5,-0.5,-0.5,-0.5,-0.5,-0.5,-0.5,-0.5,linear,100,0.025,0,0.5,TRUE,5,poolmodel,9e-4,-0.09004013656471278,0.014427999738111739,0,10000
10,250,0,125,250,375,500,625,750,875,1000,1125,2,0,1,0,0,0,0,0,0,0,0,0,0,-0.5,-0.5,-0.5,-0.5,-0.5,-0.5,-0.5,-0.5,-0.5,-0.5,-0.5,linear,100,0.025,0,0.5,TRUE,5,sepmodel,0.0248,-0.0010653292364004826,0.007887583808748959,0,10000
10,250,0,125,250,375,500,625,750,875,1000,1125,2,0,1,0,0,0,0,0,0,0,0,0,0,-0.5,-0.5,-0.5,-0.5,-0.5,-0.5,-0.5,-0.5,-0.5,-0.5,-0.5,linear,100,0.025,0,0.5,TRUE,6,fixmodel,0.0227,-3.679350309457316e-4,0.006753809936073356,0,10000
10,250,0,125,250,375,500,625,750,875,1000,1125,2,0,1,0,0,0,0,0,0,0,0,0,0,-0.5,-0.5,-0.5,-0.5,-0.5,-0.5,-0.5,-0.5,-0.5,-0.5,-0.5,linear,100,0.025,0,0.5,TRUE,6,poolmodel,2e-4,-0.10586153781758274,0.01729723111331779,0,10000
10,250,0,125,250,375,500,625,750,875,1000,1125,2,0,1,0,0,0,0,0,0,0,0,0,0,-0.5,-0.5,-0.5,-0.5,-0.5,-0.5,-0.5,-0.5,-0.5,-0.5,-0.5,linear,100,0.025,0,0.5,TRUE,6,sepmodel,0.0231,-5.196495492660765e-4,0.007781030364347947,0,10000
10,250,0,125,250,375,500,625,750,875,1000,1125,2,0,1,0,0,0,0,0,0,0,0,0,0,-0.5,-0.5,-0.5,-0.5,-0.5,-0.5,-0.5,-0.5,-0.5,-0.5,-0.5,linear,100,0.025,0,0.5,TRUE,7,fixmodel,0.0233,1.1297759762402398e-4,0.0068877791147976195,0,10000
10,250,0,125,250,375,500,625,750,875,1000,1125,2,0,1,0,0,0,0,0,0,0,0,0,0,-0.5,-0.5,-0.5,-0.5,-0.5,-0.5,-0.5,-0.5,-0.5,-0.5,-0.5,linear,100,0.025,0,0.5,TRUE,7,poolmodel,4e-4,-0.11964212871644374,0.020530217201660414,0,10000
10,250,0,125,250,375,500,625,750,875,1000,1125,2,0,1,0,0,0,0,0,0,0,0,0,0,-0.5,-0.5,-0.5,-0.5,-0.5,-0.5,-0.5,-0.5,-0.5,-0.5,-0.5,linear,100,0.025,0,0.5,TRUE,7,sepmodel,0.0237,1.475161083383479e-7,0.007991036642096718,0,10000
10,250,0,125,250,375,500,625,750,875,1000,1125,2,0,1,0,0,0,0,0,0,0,0,0,0,-0.5,-0.5,-0.5,-0.5,-0.5,-0.5,-0.5,-0.5,-0.5,-0.5,-0.5,linear,100,0.025,0,0.5,TRUE,8,fixmodel,0.026,-5.668405514227562e-4,0.006854875495463539,0,10000
10,250,0,125,250,375,500,625,750,875,1000,1125,2,0,1,0,0,0,0,0,0,0,0,0,0,-0.5,-0.5,-0.5,-0.5,-0.5,-0.5,-0.5,-0.5,-0.5,-0.5,-0.5,linear,100,0.025,0,0.5,TRUE,8,poolmodel,1e-4,-0.1326562529588896,0.02379966558955001,0,10000
10,250,0,125,250,375,500,625,750,875,1000,1125,2,0,1,0,0,0,0,0,0,0,0,0,0,-0.5,-0.5,-0.5,-0.5,-0.5,-0.5,-0.5,-0.5,-0.5,-0.5,-0.5,linear,100,0.025,0,0.5,TRUE,8,sepmodel,0.0234,-6.662365905823868e-4,0.007945566253844455,0,10000
10,250,0,125,250,375,500,625,750,875,1000,1125,2,0,1,0,0,0,0,0,0,0,0,0,0,-0.5,-0.5,-0.5,-0.5,-0.5,-0.5,-0.5,-0.5,-0.5,-0.5,-0.5,linear,100,0.025,0,0.5,TRUE,9,fixmodel,0.0248,-0.0011648131406151768,0.006721221009747473,0,10000
10,250,0,125,250,375,500,625,750,875,1000,1125,2,0,1,0,0,0,0,0,0,0,0,0,0,-0.5,-0.5,-0.5,-0.5,-0.5,-0.5,-0.5,-0.5,-0.5,-0.5,-0.5,linear,100,0.025,0,0.5,TRUE,9,poolmodel,3e-4,-0.14361275779327407,0.026649310443245748,0,10000
10,250,0,125,250,375,500,625,750,875,1000,1125,2,0,1,0,0,0,0,0,0,0,0,0,0,-0.5,-0.5,-0.5,-0.5,-0.5,-0.5,-0.5,-0.5,-0.5,-0.5,-0.5,linear,100,0.025,0,0.5,TRUE,9,sepmodel,0.0231,-0.0013753440813347624,0.007880953530757911,0,10000
10,250,0,125,250,375,500,625,750,875,1000,1125,2,0,1,0,0,0,0,0,0,0,0,0,0,-0.5,-0.5,-0.5,-0.5,-0.5,-0.5,-0.5,-0.5,-0.5,-0.5,-0.5,linear,100,0.025,0,0.5,TRUE,10,fixmodel,0.0247,-0.001227141294227744,0.0067137604839339554,0,10000
10,250,0,125,250,375,500,625,750,875,1000,1125,2,0,1,0,0,0,0,0,0,0,0,0,0,-0.5,-0.5,-0.5,-0.5,-0.5,-0.5,-0.5,-0.5,-0.5,-0.5,-0.5,linear,100,0.025,0,0.5,TRUE,10,poolmodel,0,-0.1521395937774175,0.02912186646325949,0,10000
10,250,0,125,250,375,500,625,750,875,1000,1125,2,0,1,0,0,0,0,0,0,0,0,0,0,-0.5,-0.5,-0.5,-0.5,-0.5,-0.5,-0.5,-0.5,-0.5,-0.5,-0.5,linear,100,0.025,0,0.5,TRUE,10,sepmodel,0.0229,-0.001264443544021732,0.007917963440593942,0,10000
10,250,0,150,300,450,600,750,900,1050,1200,1350,2,0,1,0,0,0,0,0,0,0,0,0,0,-0.5,-0.5,-0.5,-0.5,-0.5,-0.5,-0.5,-0.5,-0.5,-0.5,-0.5,linear,100,0.025,0,0.5,TRUE,2,fixmodel,0.0253,-3.857303577243086e-4,0.00753856084253043,0,10000
10,250,0,150,300,450,600,750,900,1050,1200,1350,2,0,1,0,0,0,0,0,0,0,0,0,0,-0.5,-0.5,-0.5,-0.5,-0.5,-0.5,-0.5,-0.5,-0.5,-0.5,-0.5,linear,100,0.025,0,0.5,TRUE,2,poolmodel,0.012,-0.02579942931786772,0.007769524040405905,0,10000
10,250,0,150,300,450,600,750,900,1050,1200,1350,2,0,1,0,0,0,0,0,0,0,0,0,0,-0.5,-0.5,-0.5,-0.5,-0.5,-0.5,-0.5,-0.5,-0.5,-0.5,-0.5,linear,100,0.025,0,0.5,TRUE,2,sepmodel,0.0254,-4.025591052099434e-4,0.007986178617476825,0,10000
10,250,0,150,300,450,600,750,900,1050,1200,1350,2,0,1,0,0,0,0,0,0,0,0,0,0,-0.5,-0.5,-0.5,-0.5,-0.5,-0.5,-0.5,-0.5,-0.5,-0.5,-0.5,linear,100,0.025,0,0.5,TRUE,3,fixmodel,0.0218,-1.1436688032409695e-4,0.007301802567129377,0,10000
10,250,0,150,300,450,600,750,900,1050,1200,1350,2,0,1,0,0,0,0,0,0,0,0,0,0,-0.5,-0.5,-0.5,-0.5,-0.5,-0.5,-0.5,-0.5,-0.5,-0.5,-0.5,linear,100,0.025,0,0.5,TRUE,3,poolmodel,0.0053,-0.051490065740685126,0.009382390683371626,0,10000
10,250,0,150,300,450,600,750,900,1050,1200,1350,2,0,1,0,0,0,0,0,0,0,0,0,0,-0.5,-0.5,-0.5,-0.5,-0.5,-0.5,-0.5,-0.5,-0.5,-0.5,-0.5,linear,100,0.025,0,0.5,TRUE,3,sepmodel,0.0228,-1.5779472315056223e-5,0.008030004778114271,0,10000
10,250,0,150,300,450,600,750,900,1050,1200,1350,2,0,1,0,0,0,0,0,0,0,0,0,0,-0.5,-0.5,-0.5,-0.5,-0.5,-0.5,-0.5,-0.5,-0.5,-0.5,-0.5,linear,100,0.025,0,0.5,TRUE,4,fixmodel,0.0274,0.001597393870220016,0.007115510049341694,0,10000
10,250,0,150,300,450,600,750,900,1050,1200,1350,2,0,1,0,0,0,0,0,0,0,0,0,0,-0.5,-0.5,-0.5,-0.5,-0.5,-0.5,-0.5,-0.5,-0.5,-0.5,-0.5,linear,100,0.025,0,0.5,TRUE,4,poolmodel,0.001,-0.07402195802726558,0.0119065622776468,0,10000
10,250,0,150,300,450,600,750,900,1050,1200,1350,2,0,1,0,0,0,0,0,0,0,0,0,0,-0.5,-0.5,-0.5,-0.5,-0.5,-0.5,-0.5,-0.5,-0.5,-0.5,-0.5,linear,100,0.025,0,0.5,TRUE,4,sepmodel,0.0265,0.0016008942486273642,0.008072002031412971,0,10000
10,250,0,150,300,450,600,750,900,1050,1200,1350,2,0,1,0,0,0,0,0,0,0,0,0,0,-0.5,-0.5,-0.5,-0.5,-0.5,-0.5,-0.5,-0.5,-0.5,-0.5,-0.5,linear,100,0.025,0,0.5,TRUE,5,fixmodel,0.0263,3.600157141536648e-4,0.00697430363708871,0,10000
10,250,0,150,300,450,600,750,900,1050,1200,1350,2,0,1,0,0,0,0,0,0,0,0,0,0,-0.5,-0.5,-0.5,-0.5,-0.5,-0.5,-0.5,-0.5,-0.5,-0.5,-0.5,linear,100,0.025,0,0.5,TRUE,5,poolmodel,7e-4,-0.0966360244765095,0.015593202716825042,0,10000
10,250,0,150,300,450,600,750,900,1050,1200,1350,2,0,1,0,0,0,0,0,0,0,0,0,0,-0.5,-0.5,-0.5,-0.5,-0.5,-0.5,-0.5,-0.5,-0.5,-0.5,-0.5,linear,100,0.025,0,0.5,TRUE,5,sepmodel,0.025,0.00041040902220775693,0.007962582634168585,0,10000
10,250,0,150,300,450,600,750,900,1050,1200,1350,2,0,1,0,0,0,0,0,0,0,0,0,0,-0.5,-0.5,-0.5,-0.5,-0.5,-0.5,-0.5,-0.5,-0.5,-0.5,-0.5,linear,100,0.025,0,0.5,TRUE,6,fixmodel,0.024,5.708445117696453e-4,0.006870238213453995,0,10000
10,250,0,150,300,450,600,750,900,1050,1200,1350,2,0,1,0,0,0,0,0,0,0,0,0,0,-0.5,-0.5,-0.5,-0.5,-0.5,-0.5,-0.5,-0.5,-0.5,-0.5,-0.5,linear,100,0.025,0,0.5,TRUE,6,poolmodel,4e-4,-0.11457855906345617,0.019206094021776792,0,10000
10,250,0,150,300,450,600,750,900,1050,1200,1350,2,0,1,0,0,0,0,0,0,0,0,0,0,-0.5,-0.5,-0.5,-0.5,-0.5,-0.5,-0.5,-0.5,-0.5,-0.5,-0.5,linear,100,0.025,0,0.5,TRUE,6,sepmodel,0.0238,3.171772679215311e-4,0.007910460955149674,0,10000
10,250,0,150,300,450,600,750,900,1050,1200,1350,2,0,1,0,0,0,0,0,0,0,0,0,0,-0.5,-0.5,-0.5,-0.5,-0.5,-0.5,-0.5,-0.5,-0.5,-0.5,-0.5,linear,100,0.025,0,0.5,TRUE,7,fixmodel,0.0242,-8.514978739672453e-6,0.006859238689590246,0,10000
10,250,0,150,300,450,600,750,900,1050,1200,1350,2,0,1,0,0,0,0,0,0,0,0,0,0,-0.5,-0.5,-0.5,-0.5,-0.5,-0.5,-0.5,-0.5,-0.5,-0.5,-0.5,linear,100,0.025,0,0.5,TRUE,7,poolmodel,2e-4,-0.1313214332607935,0.023308258549429244,0,10000
10,250,0,150,300,450,600,750,900,1050,1200,1350,2,0,1,0,0,0,0,0,0,0,0,0,0,-0.5,-0.5,-0.5,-0.5,-0.5,-0.5,-0.5,-0.5,-0.5,-0.5,-0.5,linear,100,0.025,0,0.5,TRUE,7,sepmodel,0.0216,-2.770076627204824e-4,0.007903628413603422,0,10000
10,250,0,150,300,450,600,750,900,1050,1200,1350,2,0,1,0,0,0,0,0,0,0,0,0,0,-0.5,-0.5,-0.5,-0.5,-0.5,-0.5,-0.5,-0.5,-0.5,-0.5,-0.5,linear,100,0.025,0,0.5,TRUE,8,fixmodel,0.0249,7.303430317339861e-4,0.006786075909982152,0,10000
10,250,0,150,300,450,600,750,900,1050,1200,1350,2,0,1,0,0,0,0,0,0,0,0,0,0,-0.5,-0.5,-0.5,-0.5,-0.5,-0.5,-0.5,-0.5,-0.5,-0.5,-0.5,linear,100,0.025,0,0.5,TRUE,8,poolmodel,0,-0.14482708287959453,0.02696564003224945,0,10000
10,250,0,150,300,450,600,750,900,1050,1200,1350,2,0,1,0,0,0,0,0,0,0,0,0,0,-0.5,-0.5,-0.5,-0.5,-0.5,-0.5,-0.5,-0.5,-0.5,-0.5,-0.5,linear,100,0.025,0,0.5,TRUE,8,sepmodel,0.0246,3.3559235667450965e-4,0.007892324896364768,0,10000
10,250,0,150,300,450,600,750,900,1050,1200,1350,2,0,1,0,0,0,0,0,0,0,0,0,0,-0.5,-0.5,-0.5,-0.5,-0.5,-0.5,-0.5,-0.5,-0.5,-0.5,-0.5,linear,100,0.025,0,0.5,TRUE,9,fixmodel,0.0261,7.164528227945103e-4,0.006799136967993249,0,10000
10,250,0,150,300,450,600,750,900,1050,1200,1350,2,0,1,0,0,0,0,0,0,0,0,0,0,-0.5,-0.5,-0.5,-0.5,-0.5,-0.5,-0.5,-0.5,-0.5,-0.5,-0.5,linear,100,0.025,0,0.5,TRUE,9,poolmodel,0,-0.15697557387040928,0.030555694581740653,0,10000
10,250,0,150,300,450,600,750,900,1050,1200,1350,2,0,1,0,0,0,0,0,0,0,0,0,0,-0.5,-0.5,-0.5,-0.5,-0.5,-0.5,-0.5,-0.5,-0.5,-0.5,-0.5,linear,100,0.025,0,0.5,TRUE,9,sepmodel,0.0246,2.1958007850435854e-4,0.007989154811047863,0,10000
10,250,0,150,300,450,600,750,900,1050,1200,1350,2,0,1,0,0,0,0,0,0,0,0,0,0,-0.5,-0.5,-0.5,-0.5,-0.5,-0.5,-0.5,-0.5,-0.5,-0.5,-0.5,linear,100,0.025,0,0.5,TRUE,10,fixmodel,0.0258,-5.105927798591698e-4,0.006782633891622443,0,10000
10,250,0,150,300,450,600,750,900,1050,1200,1350,2,0,1,0,0,0,0,0,0,0,0,0,0,-0.5,-0.5,-0.5,-0.5,-0.5,-0.5,-0.5,-0.5,-0.5,-0.5,-0.5,linear,100,0.025,0,0.5,TRUE,10,poolmodel,0,-0.16889097823864857,0.034444949126132475,0,10000
10,250,0,150,300,450,600,750,900,1050,1200,1350,2,0,1,0,0,0,0,0,0,0,0,0,0,-0.5,-0.5,-0.5,-0.5,-0.5,-0.5,-0.5,-0.5,-0.5,-0.5,-0.5,linear,100,0.025,0,0.5,TRUE,10,sepmodel,0.0244,-8.01087842073837e-4,0.007973331257900368,0,10000
10,250,0,175,350,525,700,875,1050,1225,1400,1575,2,0,1,0,0,0,0,0,0,0,0,0,0,-0.5,-0.5,-0.5,-0.5,-0.5,-0.5,-0.5,-0.5,-0.5,-0.5,-0.5,linear,100,0.025,0,0.5,TRUE,2,fixmodel,0.0252,5.821376593562989e-4,0.007458756395178798,0,10000
10,250,0,175,350,525,700,875,1050,1225,1400,1575,2,0,1,0,0,0,0,0,0,0,0,0,0,-0.5,-0.5,-0.5,-0.5,-0.5,-0.5,-0.5,-0.5,-0.5,-0.5,-0.5,linear,100,0.025,0,0.5,TRUE,2,poolmodel,0.0111,-0.024938268669939666,0.007487513077328771,0,10000
10,250,0,175,350,525,700,875,1050,1225,1400,1575,2,0,1,0,0,0,0,0,0,0,0,0,0,-0.5,-0.5,-0.5,-0.5,-0.5,-0.5,-0.5,-0.5,-0.5,-0.5,-0.5,linear,100,0.025,0,0.5,TRUE,2,sepmodel,0.0241,6.279897819760879e-4,0.007928687592687321,0,10000
10,250,0,175,350,525,700,875,1050,1225,1400,1575,2,0,1,0,0,0,0,0,0,0,0,0,0,-0.5,-0.5,-0.5,-0.5,-0.5,-0.5,-0.5,-0.5,-0.5,-0.5,-0.5,linear,100,0.025,0,0.5,TRUE,3,fixmodel,0.0257,-4.926460285778447e-4,0.00725180251641549,0,10000
10,250,0,175,350,525,700,875,1050,1225,1400,1575,2,0,1,0,0,0,0,0,0,0,0,0,0,-0.5,-0.5,-0.5,-0.5,-0.5,-0.5,-0.5,-0.5,-0.5,-0.5,-0.5,linear,100,0.025,0,0.5,TRUE,3,poolmodel,0.0051,-0.0523912801847722,0.0092505764375511,0,10000
10,250,0,175,350,525,700,875,1050,1225,1400,1575,2,0,1,0,0,0,0,0,0,0,0,0,0,-0.5,-0.5,-0.5,-0.5,-0.5,-0.5,-0.5,-0.5,-0.5,-0.5,-0.5,linear,100,0.025,0,0.5,TRUE,3,sepmodel,0.0257,-3.0558709618826613e-4,0.00790382350518699,0,10000
10,250,0,175,350,525,700,875,1050,1225,1400,1575,2,0,1,0,0,0,0,0,0,0,0,0,0,-0.5,-0.5,-0.5,-0.5,-0.5,-0.5,-0.5,-0.5,-0.5,-0.5,-0.5,linear,100,0.025,0,0.5,TRUE,4,fixmodel,0.0248,-6.34501009757486e-5,0.007179397001695838,0,10000
10,250,0,175,350,525,700,875,1050,1225,1400,1575,2,0,1,0,0,0,0,0,0,0,0,0,0,-0.5,-0.5,-0.5,-0.5,-0.5,-0.5,-0.5,-0.5,-0.5,-0.5,-0.5,linear,100,0.025,0,0.5,TRUE,4,poolmodel,0.0018,-0.07716119536510177,0.012241031976026488,0,10000
10,250,0,175,350,525,700,875,1050,1225,1400,1575,2,0,1,0,0,0,0,0,0,0,0,0,0,-0.5,-0.5,-0.5,-0.5,-0.5,-0.5,-0.5,-0.5,-0.5,-0.5,-0.5,linear,100,0.025,0,0.5,TRUE,4,sepmodel,0.023,-3.789328045348017e-4,0.007998349288716565,0,10000
10,250,0,175,350,525,700,875,1050,1225,1400,1575,2,0,1,0,0,0,0,0,0,0,0,0,0,-0.5,-0.5,-0.5,-0.5,-0.5,-0.5,-0.5,-0.5,-0.5,-0.5,-0.5,linear,100,0.025,0,0.5,TRUE,5,fixmodel,0.0258,5.999794926590489e-4,0.007115224258586301,0,10000
10,250,0,175,350,525,700,875,1050,1225,1400,1575,2,0,1,0,0,0,0,0,0,0,0,0,0,-0.5,-0.5,-0.5,-0.5,-0.5,-0.5,-0.5,-0.5,-0.5,-0.5,-0.5,linear,100,0.025,0,0.5,TRUE,5,poolmodel,6e-4,-0.09883373463359986,0.015917001622880147,0,10000
10,250,0,175,350,525,700,875,1050,1225,1400,1575,2,0,1,0,0,0,0,0,0,0,0,0,0,-0.5,-0.5,-0.5,-0.5,-0.5,-0.5,-0.5,-0.5,-0.5,-0.5,-0.5,linear,100,0.025,0,0.5,TRUE,5,sepmodel,0.0269,1.2060516839563485e-4,0.008045062293515638,0,10000
10,250,0,175,350,525,700,875,1050,1225,1400,1575,2,0,1,0,0,0,0,0,0,0,0,0,0,-0.5,-0.5,-0.5,-0.5,-0.5,-0.5,-0.5,-0.5,-0.5,-0.5,-0.5,linear,100,0.025,0,0.5,TRUE,6,fixmodel,0.0258,-5.489425060493987e-4,0.007047538452130392,0,10000
10,250,0,175,350,525,700,875,1050,1225,1400,1575,2,0,1,0,0,0,0,0,0,0,0,0,0,-0.5,-0.5,-0.5,-0.5,-0.5,-0.5,-0.5,-0.5,-0.5,-0.5,-0.5,linear,100,0.025,0,0.5,TRUE,6,poolmodel,3e-4,-0.11984769943455725,0.020359127767724083,0,10000
10,250,0,175,350,525,700,875,1050,1225,1400,1575,2,0,1,0,0,0,0,0,0,0,0,0,0,-0.5,-0.5,-0.5,-0.5,-0.5,-0.5,-0.5,-0.5,-0.5,-0.5,-0.5,linear,100,0.025,0,0.5,TRUE,6,sepmodel,0.0257,-0.0011923845247280242,0.008075446419937305,0,10000
10,250,0,175,350,525,700,875,1050,1225,1400,1575,2,0,1,0,0,0,0,0,0,0,0,0,0,-0.5,-0.5,-0.5,-0.5,-0.5,-0.5,-0.5,-0.5,-0.5,-0.5,-0.5,linear,100,0.025,0,0.5,TRUE,7,fixmodel,0.0257,-0.0018862379154300228,0.007063215008742387,0,10000
10,250,0,175,350,525,700,875,1050,1225,1400,1575,2,0,1,0,0,0,0,0,0,0,0,0,0,-0.5,-0.5,-0.5,-0.5,-0.5,-0.5,-0.5,-0.5,-0.5,-0.5,-0.5,linear,100,0.025,0,0.5,TRUE,7,poolmodel,0,-0.1406890760963438,0.025843987130304506,0,10000
10,250,0,175,350,525,700,875,1050,1225,1400,1575,2,0,1,0,0,0,0,0,0,0,0,0,0,-0.5,-0.5,-0.5,-0.5,-0.5,-0.5,-0.5,-0.5,-0.5,-0.5,-0.5,linear,100,0.025,0,0.5,TRUE,7,sepmodel,0.0238,-0.0027726904952668587,0.00815696471177609,0,10000
10,250,0,175,350,525,700,875,1050,1225,1400,1575,2,0,1,0,0,0,0,0,0,0,0,0,0,-0.5,-0.5,-0.5,-0.5,-0.5,-0.5,-0.5,-0.5,-0.5,-0.5,-0.5,linear,100,0.025,0,0.5,TRUE,8,fixmodel,0.0241,-0.001283082329026284,0.0069227602796365015,0,10000
10,250,0,175,350,525,700,875,1050,1225,1400,1575,2,0,1,0,0,0,0,0,0,0,0,0,0,-0.5,-0.5,-0.5,-0.5,-0.5,-0.5,-0.5,-0.5,-0.5,-0.5,-0.5,linear,100,0.025,0,0.5,TRUE,8,poolmodel,2e-4,-0.1564174716400015,0.03026228021044463,0,10000
10,250,0,175,350,525,700,875,1050,1225,1400,1575,2,0,1,0,0,0,0,0,0,0,0,0,0,-0.5,-0.5,-0.5,-0.5,-0.5,-0.5,-0.5,-0.5,-0.5,-0.5,-0.5,linear,100,0.025,0,0.5,TRUE,8,sepmodel,0.0227,-0.002133554355141472,0.008121419356057745,0,10000
10,250,0,175,350,525,700,875,1050,1225,1400,1575,2,0,1,0,0,0,0,0,0,0,0,0,0,-0.5,-0.5,-0.5,-0.5,-0.5,-0.5,-0.5,-0.5,-0.5,-0.5,-0.5,linear,100,0.025,0,0.5,TRUE,9,fixmodel,0.0233,-0.001037246600757358,0.006813257037828519,0,10000
10,250,0,175,350,525,700,875,1050,1225,1400,1575,2,0,1,0,0,0,0,0,0,0,0,0,0,-0.5,-0.5,-0.5,-0.5,-0.5,-0.5,-0.5,-0.5,-0.5,-0.5,-0.5,linear,100,0.025,0,0.5,TRUE,9,poolmodel,0,-0.1697563043534076,0.03451682402982679,0,10000
10,250,0,175,350,525,700,875,1050,1225,1400,1575,2,0,1,0,0,0,0,0,0,0,0,0,0,-0.5,-0.5,-0.5,-0.5,-0.5,-0.5,-0.5,-0.5,-0.5,-0.5,-0.5,linear,100,0.025,0,0.5,TRUE,9,sepmodel,0.0223,-0.0019391484954980438,0.00804854396691299,0,10000
10,250,0,175,350,525,700,875,1050,1225,1400,1575,2,0,1,0,0,0,0,0,0,0,0,0,0,-0.5,-0.5,-0.5,-0.5,-0.5,-0.5,-0.5,-0.5,-0.5,-0.5,-0.5,linear,100,0.025,0,0.5,TRUE,10,fixmodel,0.0242,1.3215728790681546e-5,0.006729673461000151,0,10000
10,250,0,175,350,525,700,875,1050,1225,1400,1575,2,0,1,0,0,0,0,0,0,0,0,0,0,-0.5,-0.5,-0.5,-0.5,-0.5,-0.5,-0.5,-0.5,-0.5,-0.5,-0.5,linear,100,0.025,0,0.5,TRUE,10,poolmodel,0,-0.18045146453902533,0.038221945545864125,0,10000
10,250,0,175,350,525,700,875,1050,1225,1400,1575,2,0,1,0,0,0,0,0,0,0,0,0,0,-0.5,-0.5,-0.5,-0.5,-0.5,-0.5,-0.5,-0.5,-0.5,-0.5,-0.5,linear,100,0.025,0,0.5,TRUE,10,sepmodel,0.0261,-6.660342794137147e-4,0.007971250800090906,0,10000
10,250,0,200,400,600,800,1000,1200,1400,1600,1800,2,0,1,0,0,0,0,0,0,0,0,0,0,-0.5,-0.5,-0.5,-0.5,-0.5,-0.5,-0.5,-0.5,-0.5,-0.5,-0.5,linear,100,0.025,0,0.5,TRUE,2,fixmodel,0.0266,-2.842235243704599e-4,0.007618034830103866,0,10000
10,250,0,200,400,600,800,1000,1200,1400,1600,1800,2,0,1,0,0,0,0,0,0,0,0,0,0,-0.5,-0.5,-0.5,-0.5,-0.5,-0.5,-0.5,-0.5,-0.5,-0.5,-0.5,linear,100,0.025,0,0.5,TRUE,2,poolmodel,0.0105,-0.02655068272289285,0.0076379144382810946,0,10000
10,250,0,200,400,600,800,1000,1200,1400,1600,1800,2,0,1,0,0,0,0,0,0,0,0,0,0,-0.5,-0.5,-0.5,-0.5,-0.5,-0.5,-0.5,-0.5,-0.5,-0.5,-0.5,linear,100,0.025,0,0.5,TRUE,2,sepmodel,0.0271,3.479549454888691e-6,0.00810531990043832,0,10000
10,250,0,200,400,600,800,1000,1200,1400,1600,1800,2,0,1,0,0,0,0,0,0,0,0,0,0,-0.5,-0.5,-0.5,-0.5,-0.5,-0.5,-0.5,-0.5,-0.5,-0.5,-0.5,linear,100,0.025,0,0.5,TRUE,3,fixmodel,0.0257,-7.857055228136488e-4,0.007321215013528208,0,10000
10,250,0,200,400,600,800,1000,1200,1400,1600,1800,2,0,1,0,0,0,0,0,0,0,0,0,0,-0.5,-0.5,-0.5,-0.5,-0.5,-0.5,-0.5,-0.5,-0.5,-0.5,-0.5,linear,100,0.025,0,0.5,TRUE,3,poolmodel,0.0043,-0.053803891776255636,0.0092675523072057,0,10000
10,250,0,200,400,600,800,1000,1200,1400,1600,1800,2,0,1,0,0,0,0,0,0,0,0,0,0,-0.5,-0.5,-0.5,-0.5,-0.5,-0.5,-0.5,-0.5,-0.5,-0.5,-0.5,linear,100,0.025,0,0.5,TRUE,3,sepmodel,0.0265,-5.108402045465002e-4,0.007936724485129448,0,10000
10,250,0,200,400,600,800,1000,1200,1400,1600,1800,2,0,1,0,0,0,0,0,0,0,0,0,0,-0.5,-0.5,-0.5,-0.5,-0.5,-0.5,-0.5,-0.5,-0.5,-0.5,-0.5,linear,100,0.025,0,0.5,TRUE,4,fixmodel,0.0259,-9.36947567859795e-4,0.0072625562536589505,0,10000
10,250,0,200,400,600,800,1000,1200,1400,1600,1800,2,0,1,0,0,0,0,0,0,0,0,0,0,-0.5,-0.5,-0.5,-0.5,-0.5,-0.5,-0.5,-0.5,-0.5,-0.5,-0.5,linear,100,0.025,0,0.5,TRUE,4,poolmodel,0.002,-0.07915738034622466,0.012397601004968995,0,10000
10,250,0,200,400,600,800,1000,1200,1400,1600,1800,2,0,1,0,0,0,0,0,0,0,0,0,0,-0.5,-0.5,-0.5,-0.5,-0.5,-0.5,-0.5,-0.5,-0.5,-0.5,-0.5,linear,100,0.025,0,0.5,TRUE,4,sepmodel,0.0248,-3.4518735157556207e-4,0.0080474972485245,0,10000
10,250,0,200,400,600,800,1000,1200,1400,1600,1800,2,0,1,0,0,0,0,0,0,0,0,0,0,-0.5,-0.5,-0.5,-0.5,-0.5,-0.5,-0.5,-0.5,-0.5,-0.5,-0.5,linear,100,0.025,0,0.5,TRUE,5,fixmodel,0.0265,5.927106135438363e-4,0.007118454385336886,0,10000
10,250,0,200,400,600,800,1000,1200,1400,1600,1800,2,0,1,0,0,0,0,0,0,0,0,0,0,-0.5,-0.5,-0.5,-0.5,-0.5,-0.5,-0.5,-0.5,-0.5,-0.5,-0.5,linear,100,0.025,0,0.5,TRUE,5,poolmodel,2e-4,-0.10168626017708265,0.016357833173791914,0,10000
10,250,0,200,400,600,800,1000,1200,1400,1600,1800,2,0,1,0,0,0,0,0,0,0,0,0,0,-0.5,-0.5,-0.5,-0.5,-0.5,-0.5,-0.5,-0.5,-0.5,-0.5,-0.5,linear,100,0.025,0,0.5,TRUE,5,sepmodel,0.025,0.0010948847567319323,0.008012924338878359,0,10000
10,250,0,200,400,600,800,1000,1200,1400,1600,1800,2,0,1,0,0,0,0,0,0,0,0,0,0,-0.5,-0.5,-0.5,-0.5,-0.5,-0.5,-0.5,-0.5,-0.5,-0.5,-0.5,linear,100,0.025,0,0.5,TRUE,6,fixmodel,0.024,7.584756988732006e-4,0.00710243729381964,0,10000
10,250,0,200,400,600,800,1000,1200,1400,1600,1800,2,0,1,0,0,0,0,0,0,0,0,0,0,-0.5,-0.5,-0.5,-0.5,-0.5,-0.5,-0.5,-0.5,-0.5,-0.5,-0.5,linear,100,0.025,0,0.5,TRUE,6,poolmodel,1e-4,-0.1255704447823804,0.02163815495852589,0,10000
10,250,0,200,400,600,800,1000,1200,1400,1600,1800,2,0,1,0,0,0,0,0,0,0,0,0,0,-0.5,-0.5,-0.5,-0.5,-0.5,-0.5,-0.5,-0.5,-0.5,-0.5,-0.5,linear,100,0.025,0,0.5,TRUE,6,sepmodel,0.0262,0.0012147877277202442,0.00810083428724126,0,10000
10,250,0,200,400,600,800,1000,1200,1400,1600,1800,2,0,1,0,0,0,0,0,0,0,0,0,0,-0.5,-0.5,-0.5,-0.5,-0.5,-0.5,-0.5,-0.5,-0.5,-0.5,-0.5,linear,100,0.025,0,0.5,TRUE,7,fixmodel,0.025,-6.428931803585493e-4,0.00683549501871752,0,10000
10,250,0,200,400,600,800,1000,1200,1400,1600,1800,2,0,1,0,0,0,0,0,0,0,0,0,0,-0.5,-0.5,-0.5,-0.5,-0.5,-0.5,-0.5,-0.5,-0.5,-0.5,-0.5,linear,100,0.025,0,0.5,TRUE,7,poolmodel,0,-0.1471972983824159,0.027395686048038524,0,10000
10,250,0,200,400,600,800,1000,1200,1400,1600,1800,2,0,1,0,0,0,0,0,0,0,0,0,0,-0.5,-0.5,-0.5,-0.5,-0.5,-0.5,-0.5,-0.5,-0.5,-0.5,-0.5,linear,100,0.025,0,0.5,TRUE,7,sepmodel,0.0245,-1.5839240994119678e-5,0.007929571275118782,0,10000
10,250,0,200,400,600,800,1000,1200,1400,1600,1800,2,0,1,0,0,0,0,0,0,0,0,0,0,-0.5,-0.5,-0.5,-0.5,-0.5,-0.5,-0.5,-0.5,-0.5,-0.5,-0.5,linear,100,0.025,0,0.5,TRUE,8,fixmodel,0.0266,-4.577928706542017e-4,0.007007087398490041,0,10000
10,250,0,200,400,600,800,1000,1200,1400,1600,1800,2,0,1,0,0,0,0,0,0,0,0,0,0,-0.5,-0.5,-0.5,-0.5,-0.5,-0.5,-0.5,-0.5,-0.5,-0.5,-0.5,linear,100,0.025,0,0.5,TRUE,8,poolmodel,0,-0.1651885325262687,0.033046327371273096,0,10000
10,250,0,200,400,600,800,1000,1200,1400,1600,1800,2,0,1,0,0,0,0,0,0,0,0,0,0,-0.5,-0.5,-0.5,-0.5,-0.5,-0.5,-0.5,-0.5,-0.5,-0.5,-0.5,linear,100,0.025,0,0.5,TRUE,8,sepmodel,0.0262,6.806272577876348e-5,0.008171239875514108,0,10000
10,250,0,200,400,600,800,1000,1200,1400,1600,1800,2,0,1,0,0,0,0,0,0,0,0,0,0,-0.5,-0.5,-0.5,-0.5,-0.5,-0.5,-0.5,-0.5,-0.5,-0.5,-0.5,linear,100,0.025,0,0.5,TRUE,9,fixmodel,0.0236,-4.7826507442043413e-4,0.0066344681471772445,0,10000
10,250,0,200,400,600,800,1000,1200,1400,1600,1800,2,0,1,0,0,0,0,0,0,0,0,0,0,-0.5,-0.5,-0.5,-0.5,-0.5,-0.5,-0.5,-0.5,-0.5,-0.5,-0.5,linear,100,0.025,0,0.5,TRUE,9,poolmodel,0,-0.18059954856959648,0.0380331057552513,0,10000
10,250,0,200,400,600,800,1000,1200,1400,1600,1800,2,0,1,0,0,0,0,0,0,0,0,0,0,-0.5,-0.5,-0.5,-0.5,-0.5,-0.5,-0.5,-0.5,-0.5,-0.5,-0.5,linear,100,0.025,0,0.5,TRUE,9,sepmodel,0.0253,-5.009827722507818e-5,0.0077742130960420635,0,10000
10,250,0,200,400,600,800,1000,1200,1400,1600,1800,2,0,1,0,0,0,0,0,0,0,0,0,0,-0.5,-0.5,-0.5,-0.5,-0.5,-0.5,-0.5,-0.5,-0.5,-0.5,-0.5,linear,100,0.025,0,0.5,TRUE,10,fixmodel,0.0248,-9.847607673186946e-4,0.006845192133542123,0,10000
10,250,0,200,400,600,800,1000,1200,1400,1600,1800,2,0,1,0,0,0,0,0,0,0,0,0,0,-0.5,-0.5,-0.5,-0.5,-0.5,-0.5,-0.5,-0.5,-0.5,-0.5,-0.5,linear,100,0.025,0,0.5,TRUE,10,poolmodel,0,-0.1932553834079085,0.04294396842191847,0,10000
10,250,0,200,400,600,800,1000,1200,1400,1600,1800,2,0,1,0,0,0,0,0,0,0,0,0,0,-0.5,-0.5,-0.5,-0.5,-0.5,-0.5,-0.5,-0.5,-0.5,-0.5,-0.5,linear,100,0.025,0,0.5,TRUE,10,sepmodel,0.0243,-6.181504782496286e-4,0.008065812670865454,0,10000
10,250,0,225,450,675,900,1125,1350,1575,1800,2025,2,0,1,0,0,0,0,0,0,0,0,0,0,-0.5,-0.5,-0.5,-0.5,-0.5,-0.5,-0.5,-0.5,-0.5,-0.5,-0.5,linear,100,0.025,0,0.5,TRUE,2,fixmodel,0.0236,-2.355047029800908e-4,0.007437711475717545,0,10000
10,250,0,225,450,675,900,1125,1350,1575,1800,2025,2,0,1,0,0,0,0,0,0,0,0,0,0,-0.5,-0.5,-0.5,-0.5,-0.5,-0.5,-0.5,-0.5,-0.5,-0.5,-0.5,linear,100,0.025,0,0.5,TRUE,2,poolmodel,0.0104,-0.026903201348784933,0.00748198631890978,0,10000
10,250,0,225,450,675,900,1125,1350,1575,1800,2025,2,0,1,0,0,0,0,0,0,0,0,0,0,-0.5,-0.5,-0.5,-0.5,-0.5,-0.5,-0.5,-0.5,-0.5,-0.5,-0.5,linear,100,0.025,0,0.5,TRUE,2,sepmodel,0.0244,-1.1849846396238047e-4,0.007979745046624414,0,10000
10,250,0,225,450,675,900,1125,1350,1575,1800,2025,2,0,1,0,0,0,0,0,0,0,0,0,0,-0.5,-0.5,-0.5,-0.5,-0.5,-0.5,-0.5,-0.5,-0.5,-0.5,-0.5,linear,100,0.025,0,0.5,TRUE,3,fixmodel,0.0278,7.555712755562586e-4,0.007361937909146803,0,10000
10,250,0,225,450,675,900,1125,1350,1575,1800,2025,2,0,1,0,0,0,0,0,0,0,0,0,0,-0.5,-0.5,-0.5,-0.5,-0.5,-0.5,-0.5,-0.5,-0.5,-0.5,-0.5,linear,100,0.025,0,0.5,TRUE,3,poolmodel,0.0047,-0.05288680535520995,0.009120146644651002,0,10000
10,250,0,225,450,675,900,1125,1350,1575,1800,2025,2,0,1,0,0,0,0,0,0,0,0,0,0,-0.5,-0.5,-0.5,-0.5,-0.5,-0.5,-0.5,-0.5,-0.5,-0.5,-0.5,linear,100,0.025,0,0.5,TRUE,3,sepmodel,0.0272,8.266260112604111e-4,0.008117348650204866,0,10000
10,250,0,225,450,675,900,1125,1350,1575,1800,2025,2,0,1,0,0,0,0,0,0,0,0,0,0,-0.5,-0.5,-0.5,-0.5,-0.5,-0.5,-0.5,-0.5,-0.5,-0.5,-0.5,linear,100,0.025,0,0.5,TRUE,4,fixmodel,0.0275,-3.054240513636119e-5,0.007375627813115489,0,10000
10,250,0,225,450,675,900,1125,1350,1575,1800,2025,2,0,1,0,0,0,0,0,0,0,0,0,0,-0.5,-0.5,-0.5,-0.5,-0.5,-0.5,-0.5,-0.5,-0.5,-0.5,-0.5,linear,100,0.025,0,0.5,TRUE,4,poolmodel,0.0016,-0.07777050174525195,0.012189269283732977,0,10000
10,250,0,225,450,675,900,1125,1350,1575,1800,2025,2,0,1,0,0,0,0,0,0,0,0,0,0,-0.5,-0.5,-0.5,-0.5,-0.5,-0.5,-0.5,-0.5,-0.5,-0.5,-0.5,linear,100,0.025,0,0.5,TRUE,4,sepmodel,0.0261,4.1421489317179823e-4,0.008282062166510454,0,10000
10,250,0,225,450,675,900,1125,1350,1575,1800,2025,2,0,1,0,0,0,0,0,0,0,0,0,0,-0.5,-0.5,-0.5,-0.5,-0.5,-0.5,-0.5,-0.5,-0.5,-0.5,-0.5,linear,100,0.025,0,0.5,TRUE,5,fixmodel,0.0255,0.0010479218993935916,0.007255819056941499,0,10000
10,250,0,225,450,675,900,1125,1350,1575,1800,2025,2,0,1,0,0,0,0,0,0,0,0,0,0,-0.5,-0.5,-0.5,-0.5,-0.5,-0.5,-0.5,-0.5,-0.5,-0.5,-0.5,linear,100,0.025,0,0.5,TRUE,5,poolmodel,4e-4,-0.10386788861322206,0.01673052355643907,0,10000
10,250,0,225,450,675,900,1125,1350,1575,1800,2025,2,0,1,0,0,0,0,0,0,0,0,0,0,-0.5,-0.5,-0.5,-0.5,-0.5,-0.5,-0.5,-0.5,-0.5,-0.5,-0.5,linear,100,0.025,0,0.5,TRUE,5,sepmodel,0.0255,0.0012789336836841441,0.008165010386419945,0,10000
10,250,0,225,450,675,900,1125,1350,1575,1800,2025,2,0,1,0,0,0,0,0,0,0,0,0,0,-0.5,-0.5,-0.5,-0.5,-0.5,-0.5,-0.5,-0.5,-0.5,-0.5,-0.5,linear,100,0.025,0,0.5,TRUE,6,fixmodel,0.0263,6.137702996027823e-4,0.0070529540604745405,0,10000
10,250,0,225,450,675,900,1125,1350,1575,1800,2025,2,0,1,0,0,0,0,0,0,0,0,0,0,-0.5,-0.5,-0.5,-0.5,-0.5,-0.5,-0.5,-0.5,-0.5,-0.5,-0.5,linear,100,0.025,0,0.5,TRUE,6,poolmodel,0,-0.1283529758273262,0.022179687468675765,0,10000
10,250,0,225,450,675,900,1125,1350,1575,1800,2025,2,0,1,0,0,0,0,0,0,0,0,0,0,-0.5,-0.5,-0.5,-0.5,-0.5,-0.5,-0.5,-0.5,-0.5,-0.5,-0.5,linear,100,0.025,0,0.5,TRUE,6,sepmodel,0.0251,9.818651790097252e-4,0.00799661337449051,0,10000
10,250,0,225,450,675,900,1125,1350,1575,1800,2025,2,0,1,0,0,0,0,0,0,0,0,0,0,-0.5,-0.5,-0.5,-0.5,-0.5,-0.5,-0.5,-0.5,-0.5,-0.5,-0.5,linear,100,0.025,0,0.5,TRUE,7,fixmodel,0.0264,-7.055839652829871e-4,0.0070862983336253856,0,10000
10,250,0,225,450,675,900,1125,1350,1575,1800,2025,2,0,1,0,0,0,0,0,0,0,0,0,0,-0.5,-0.5,-0.5,-0.5,-0.5,-0.5,-0.5,-0.5,-0.5,-0.5,-0.5,linear,100,0.025,0,0.5,TRUE,7,poolmodel,1e-4,-0.15204607290672134,0.02877845751392276,0,10000
10,250,0,225,450,675,900,1125,1350,1575,1800,2025,2,0,1,0,0,0,0,0,0,0,0,0,0,-0.5,-0.5,-0.5,-0.5,-0.5,-0.5,-0.5,-0.5,-0.5,-0.5,-0.5,linear,100,0.025,0,0.5,TRUE,7,sepmodel,0.0269,-6.203982451450109e-4,0.008088082836322247,0,10000
10,250,0,225,450,675,900,1125,1350,1575,1800,2025,2,0,1,0,0,0,0,0,0,0,0,0,0,-0.5,-0.5,-0.5,-0.5,-0.5,-0.5,-0.5,-0.5,-0.5,-0.5,-0.5,linear,100,0.025,0,0.5,TRUE,8,fixmodel,0.0242,3.001711210569525e-4,0.006818993124328804,0,10000
10,250,0,225,450,675,900,1125,1350,1575,1800,2025,2,0,1,0,0,0,0,0,0,0,0,0,0,-0.5,-0.5,-0.5,-0.5,-0.5,-0.5,-0.5,-0.5,-0.5,-0.5,-0.5,linear,100,0.025,0,0.5,TRUE,8,poolmodel,0,-0.1712278121902711,0.03477860576519581,0,10000
10,250,0,225,450,675,900,1125,1350,1575,1800,2025,2,0,1,0,0,0,0,0,0,0,0,0,0,-0.5,-0.5,-0.5,-0.5,-0.5,-0.5,-0.5,-0.5,-0.5,-0.5,-0.5,linear,100,0.025,0,0.5,TRUE,8,sepmodel,0.0246,2.3304286800193738e-7,0.007955601191948741,0,10000
10,250,0,225,450,675,900,1125,1350,1575,1800,2025,2,0,1,0,0,0,0,0,0,0,0,0,0,-0.5,-0.5,-0.5,-0.5,-0.5,-0.5,-0.5,-0.5,-0.5,-0.5,-0.5,linear,100,0.025,0,0.5,TRUE,9,fixmodel,0.0274,6.503430539886221e-4,0.006858638984815173,0,10000
10,250,0,225,450,675,900,1125,1350,1575,1800,2025,2,0,1,0,0,0,0,0,0,0,0,0,0,-0.5,-0.5,-0.5,-0.5,-0.5,-0.5,-0.5,-0.5,-0.5,-0.5,-0.5,linear,100,0.025,0,0.5,TRUE,9,poolmodel,0,-0.18762522742824275,0.04062070498743519,0,10000
10,250,0,225,450,675,900,1125,1350,1575,1800,2025,2,0,1,0,0,0,0,0,0,0,0,0,0,-0.5,-0.5,-0.5,-0.5,-0.5,-0.5,-0.5,-0.5,-0.5,-0.5,-0.5,linear,100,0.025,0,0.5,TRUE,9,sepmodel,0.0278,1.8006948567745665e-4,0.007973114832399372,0,10000
10,250,0,225,450,675,900,1125,1350,1575,1800,2025,2,0,1,0,0,0,0,0,0,0,0,0,0,-0.5,-0.5,-0.5,-0.5,-0.5,-0.5,-0.5,-0.5,-0.5,-0.5,-0.5,linear,100,0.025,0,0.5,TRUE,10,fixmodel,0.024,-1.0675055633994836e-4,0.0066663055755777165,0,10000
10,250,0,225,450,675,900,1125,1350,1575,1800,2025,2,0,1,0,0,0,0,0,0,0,0,0,0,-0.5,-0.5,-0.5,-0.5,-0.5,-0.5,-0.5,-0.5,-0.5,-0.5,-0.5,linear,100,0.025,0,0.5,TRUE,10,poolmodel,0,-0.20171152737926024,0.0458617909987848,0,10000
10,250,0,225,450,675,900,1125,1350,1575,1800,2025,2,0,1,0,0,0,0,0,0,0,0,0,0,-0.5,-0.5,-0.5,-0.5,-0.5,-0.5,-0.5,-0.5,-0.5,-0.5,-0.5,linear,100,0.025,0,0.5,TRUE,10,sepmodel,0.0249,-7.025025380353975e-4,0.007948343590234967,0,10000
10,250,0,250,500,750,1000,1250,1500,1750,2000,2250,2,0,1,0,0,0,0,0,0,0,0,0,0,-0.5,-0.5,-0.5,-0.5,-0.5,-0.5,-0.5,-0.5,-0.5,-0.5,-0.5,linear,100,0.025,0,0.5,TRUE,2,fixmodel,0.0252,0.0013317330745399524,0.007311781090945893,0,10000
10,250,0,250,500,750,1000,1250,1500,1750,2000,2250,2,0,1,0,0,0,0,0,0,0,0,0,0,-0.5,-0.5,-0.5,-0.5,-0.5,-0.5,-0.5,-0.5,-0.5,-0.5,-0.5,linear,100,0.025,0,0.5,TRUE,2,poolmodel,0.0109,-0.026080728508359546,0.0072498533629771055,0,10000
10,250,0,250,500,750,1000,1250,1500,1750,2000,2250,2,0,1,0,0,0,0,0,0,0,0,0,0,-0.5,-0.5,-0.5,-0.5,-0.5,-0.5,-0.5,-0.5,-0.5,-0.5,-0.5,linear,100,0.025,0,0.5,TRUE,2,sepmodel,0.0246,0.0016255018215653792,0.007893861999247135,0,10000
10,250,0,250,500,750,1000,1250,1500,1750,2000,2250,2,0,1,0,0,0,0,0,0,0,0,0,0,-0.5,-0.5,-0.5,-0.5,-0.5,-0.5,-0.5,-0.5,-0.5,-0.5,-0.5,linear,100,0.025,0,0.5,TRUE,3,fixmodel,0.0228,1.8364913963390614e-4,0.007081174522827151,0,10000
10,250,0,250,500,750,1000,1250,1500,1750,2000,2250,2,0,1,0,0,0,0,0,0,0,0,0,0,-0.5,-0.5,-0.5,-0.5,-0.5,-0.5,-0.5,-0.5,-0.5,-0.5,-0.5,linear,100,0.025,0,0.5,TRUE,3,poolmodel,0.0046,-0.05248730567592085,0.008722637105354175,0,10000
10,250,0,250,500,750,1000,1250,1500,1750,2000,2250,2,0,1,0,0,0,0,0,0,0,0,0,0,-0.5,-0.5,-0.5,-0.5,-0.5,-0.5,-0.5,-0.5,-0.5,-0.5,-0.5,linear,100,0.025,0,0.5,TRUE,3,sepmodel,0.0235,2.0821133258442571e-4,0.0078107350939514,0,10000
10,250,0,250,500,750,1000,1250,1500,1750,2000,2250,2,0,1,0,0,0,0,0,0,0,0,0,0,-0.5,-0.5,-0.5,-0.5,-0.5,-0.5,-0.5,-0.5,-0.5,-0.5,-0.5,linear,100,0.025,0,0.5,TRUE,4,fixmodel,0.0251,8.994929698443927e-4,0.007257407860362209,0,10000
10,250,0,250,500,750,1000,1250,1500,1750,2000,2250,2,0,1,0,0,0,0,0,0,0,0,0,0,-0.5,-0.5,-0.5,-0.5,-0.5,-0.5,-0.5,-0.5,-0.5,-0.5,-0.5,linear,100,0.025,0,0.5,TRUE,4,poolmodel,0.0013,-0.07669504004639033,0.011868855924835749,0,10000
10,250,0,250,500,750,1000,1250,1500,1750,2000,2250,2,0,1,0,0,0,0,0,0,0,0,0,0,-0.5,-0.5,-0.5,-0.5,-0.5,-0.5,-0.5,-0.5,-0.5,-0.5,-0.5,linear,100,0.025,0,0.5,TRUE,4,sepmodel,0.0258,6.251089133967755e-4,0.008069928272889071,0,10000
10,250,0,250,500,750,1000,1250,1500,1750,2000,2250,2,0,1,0,0,0,0,0,0,0,0,0,0,-0.5,-0.5,-0.5,-0.5,-0.5,-0.5,-0.5,-0.5,-0.5,-0.5,-0.5,linear,100,0.025,0,0.5,TRUE,5,fixmodel,0.0278,0.001353924663382655,0.007009066783669007,0,10000
10,250,0,250,500,750,1000,1250,1500,1750,2000,2250,2,0,1,0,0,0,0,0,0,0,0,0,0,-0.5,-0.5,-0.5,-0.5,-0.5,-0.5,-0.5,-0.5,-0.5,-0.5,-0.5,linear,100,0.025,0,0.5,TRUE,5,poolmodel,5e-4,-0.10284168563099177,0.016196513441982033,0,10000
10,250,0,250,500,750,1000,1250,1500,1750,2000,2250,2,0,1,0,0,0,0,0,0,0,0,0,0,-0.5,-0.5,-0.5,-0.5,-0.5,-0.5,-0.5,-0.5,-0.5,-0.5,-0.5,linear,100,0.025,0,0.5,TRUE,5,sepmodel,0.0272,0.0012982914965706698,0.008013043972478201,0,10000
10,250,0,250,500,750,1000,1250,1500,1750,2000,2250,2,0,1,0,0,0,0,0,0,0,0,0,0,-0.5,-0.5,-0.5,-0.5,-0.5,-0.5,-0.5,-0.5,-0.5,-0.5,-0.5,linear,100,0.025,0,0.5,TRUE,6,fixmodel,0.0229,-1.6647458252931868e-4,0.007022668903192321,0,10000
10,250,0,250,500,750,1000,1250,1500,1750,2000,2250,2,0,1,0,0,0,0,0,0,0,0,0,0,-0.5,-0.5,-0.5,-0.5,-0.5,-0.5,-0.5,-0.5,-0.5,-0.5,-0.5,linear,100,0.025,0,0.5,TRUE,6,poolmodel,1e-4,-0.12920759422049352,0.022251329023686903,0,10000
10,250,0,250,500,750,1000,1250,1500,1750,2000,2250,2,0,1,0,0,0,0,0,0,0,0,0,0,-0.5,-0.5,-0.5,-0.5,-0.5,-0.5,-0.5,-0.5,-0.5,-0.5,-0.5,linear,100,0.025,0,0.5,TRUE,6,sepmodel,0.0233,-1.5509402264847624e-4,0.00800023833432441,0,10000
10,250,0,250,500,750,1000,1250,1500,1750,2000,2250,2,0,1,0,0,0,0,0,0,0,0,0,0,-0.5,-0.5,-0.5,-0.5,-0.5,-0.5,-0.5,-0.5,-0.5,-0.5,-0.5,linear,100,0.025,0,0.5,TRUE,7,fixmodel,0.0262,2.0754781139341547e-4,0.006877503725751657,0,10000
10,250,0,250,500,750,1000,1250,1500,1750,2000,2250,2,0,1,0,0,0,0,0,0,0,0,0,0,-0.5,-0.5,-0.5,-0.5,-0.5,-0.5,-0.5,-0.5,-0.5,-0.5,-0.5,linear,100,0.025,0,0.5,TRUE,7,poolmodel,0,-0.15324040274179182,0.028892142051541843,0,10000
10,250,0,250,500,750,1000,1250,1500,1750,2000,2250,2,0,1,0,0,0,0,0,0,0,0,0,0,-0.5,-0.5,-0.5,-0.5,-0.5,-0.5,-0.5,-0.5,-0.5,-0.5,-0.5,linear,100,0.025,0,0.5,TRUE,7,sepmodel,0.0253,8.478733902413811e-5,0.007928481107692894,0,10000
10,250,0,250,500,750,1000,1250,1500,1750,2000,2250,2,0,1,0,0,0,0,0,0,0,0,0,0,-0.5,-0.5,-0.5,-0.5,-0.5,-0.5,-0.5,-0.5,-0.5,-0.5,-0.5,linear,100,0.025,0,0.5,TRUE,8,fixmodel,0.0256,9.244412704213836e-5,0.006998746518181527,0,10000
10,250,0,250,500,750,1000,1250,1500,1750,2000,2250,2,0,1,0,0,0,0,0,0,0,0,0,0,-0.5,-0.5,-0.5,-0.5,-0.5,-0.5,-0.5,-0.5,-0.5,-0.5,-0.5,linear,100,0.025,0,0.5,TRUE,8,poolmodel,0,-0.1758117270282346,0.036342774782653554,0,10000
10,250,0,250,500,750,1000,1250,1500,1750,2000,2250,2,0,1,0,0,0,0,0,0,0,0,0,0,-0.5,-0.5,-0.5,-0.5,-0.5,-0.5,-0.5,-0.5,-0.5,-0.5,-0.5,linear,100,0.025,0,0.5,TRUE,8,sepmodel,0.0249,9.101240842180448e-5,0.008104974330331515,0,10000
10,250,0,250,500,750,1000,1250,1500,1750,2000,2250,2,0,1,0,0,0,0,0,0,0,0,0,0,-0.5,-0.5,-0.5,-0.5,-0.5,-0.5,-0.5,-0.5,-0.5,-0.5,-0.5,linear,100,0.025,0,0.5,TRUE,9,fixmodel,0.0226,3.816105527299007e-4,0.00687925624253377,0,10000
10,250,0,250,500,750,1000,1250,1500,1750,2000,2250,2,0,1,0,0,0,0,0,0,0,0,0,0,-0.5,-0.5,-0.5,-0.5,-0.5,-0.5,-0.5,-0.5,-0.5,-0.5,-0.5,linear,100,0.025,0,0.5,TRUE,9,poolmodel,0,-0.1938602775587843,0.04286333709590067,0,10000
10,250,0,250,500,750,1000,1250,1500,1750,2000,2250,2,0,1,0,0,0,0,0,0,0,0,0,0,-0.5,-0.5,-0.5,-0.5,-0.5,-0.5,-0.5,-0.5,-0.5,-0.5,-0.5,linear,100,0.025,0,0.5,TRUE,9,sepmodel,0.023,1.7631435986970845e-4,0.007992868919816352,0,10000
10,250,0,250,500,750,1000,1250,1500,1750,2000,2250,2,0,1,0,0,0,0,0,0,0,0,0,0,-0.5,-0.5,-0.5,-0.5,-0.5,-0.5,-0.5,-0.5,-0.5,-0.5,-0.5,linear,100,0.025,0,0.5,TRUE,10,fixmodel,0.0243,7.06475661426208e-4,0.006835435376080794,0,10000
10,250,0,250,500,750,1000,1250,1500,1750,2000,2250,2,0,1,0,0,0,0,0,0,0,0,0,0,-0.5,-0.5,-0.5,-0.5,-0.5,-0.5,-0.5,-0.5,-0.5,-0.5,-0.5,linear,100,0.025,0,0.5,TRUE,10,poolmodel,0,-0.20847186808238552,0.048576060441460886,0,10000
10,250,0,250,500,750,1000,1250,1500,1750,2000,2250,2,0,1,0,0,0,0,0,0,0,0,0,0,-0.5,-0.5,-0.5,-0.5,-0.5,-0.5,-0.5,-0.5,-0.5,-0.5,-0.5,linear,100,0.025,0,0.5,TRUE,10,sepmodel,0.0265,5.158798180075344e-4,0.008037844233802634,0,10000
10,250,0,275,550,825,1100,1375,1650,1925,2200,2475,2,0,1,0,0,0,0,0,0,0,0,0,0,-0.5,-0.5,-0.5,-0.5,-0.5,-0.5,-0.5,-0.5,-0.5,-0.5,-0.5,linear,100,0.025,0,0.5,TRUE,2,fixmodel,0.0226,8.930873174005597e-4,0.007319242429339322,0,10000
10,250,0,275,550,825,1100,1375,1650,1925,2200,2475,2,0,1,0,0,0,0,0,0,0,0,0,0,-0.5,-0.5,-0.5,-0.5,-0.5,-0.5,-0.5,-0.5,-0.5,-0.5,-0.5,linear,100,0.025,0,0.5,TRUE,2,poolmodel,0.0099,-0.027079187897873853,0.007178922340737785,0,10000
10,250,0,275,550,825,1100,1375,1650,1925,2200,2475,2,0,1,0,0,0,0,0,0,0,0,0,0,-0.5,-0.5,-0.5,-0.5,-0.5,-0.5,-0.5,-0.5,-0.5,-0.5,-0.5,linear,100,0.025,0,0.5,TRUE,2,sepmodel,0.0237,8.908074812062359e-4,0.007932030862656087,0,10000
10,250,0,275,550,825,1100,1375,1650,1925,2200,2475,2,0,1,0,0,0,0,0,0,0,0,0,0,-0.5,-0.5,-0.5,-0.5,-0.5,-0.5,-0.5,-0.5,-0.5,-0.5,-0.5,linear,100,0.025,0,0.5,TRUE,3,fixmodel,0.0248,3.477539134422181e-4,0.007294702722532015,0,10000
10,250,0,275,550,825,1100,1375,1650,1925,2200,2475,2,0,1,0,0,0,0,0,0,0,0,0,0,-0.5,-0.5,-0.5,-0.5,-0.5,-0.5,-0.5,-0.5,-0.5,-0.5,-0.5,linear,100,0.025,0,0.5,TRUE,3,poolmodel,0.004,-0.05266656502248916,0.00877293080005226,0,10000
10,250,0,275,550,825,1100,1375,1650,1925,2200,2475,2,0,1,0,0,0,0,0,0,0,0,0,0,-0.5,-0.5,-0.5,-0.5,-0.5,-0.5,-0.5,-0.5,-0.5,-0.5,-0.5,linear,100,0.025,0,0.5,TRUE,3,sepmodel,0.0262,2.704101018009795e-4,0.007902130780145754,0,10000
10,250,0,275,550,825,1100,1375,1650,1925,2200,2475,2,0,1,0,0,0,0,0,0,0,0,0,0,-0.5,-0.5,-0.5,-0.5,-0.5,-0.5,-0.5,-0.5,-0.5,-0.5,-0.5,linear,100,0.025,0,0.5,TRUE,4,fixmodel,0.0236,1.709784978432936e-4,0.0071231812390179705,0,10000
10,250,0,275,550,825,1100,1375,1650,1925,2200,2475,2,0,1,0,0,0,0,0,0,0,0,0,0,-0.5,-0.5,-0.5,-0.5,-0.5,-0.5,-0.5,-0.5,-0.5,-0.5,-0.5,linear,100,0.025,0,0.5,TRUE,4,poolmodel,0.0012,-0.07906774774428607,0.011960709837685306,0,10000
10,250,0,275,550,825,1100,1375,1650,1925,2200,2475,2,0,1,0,0,0,0,0,0,0,0,0,0,-0.5,-0.5,-0.5,-0.5,-0.5,-0.5,-0.5,-0.5,-0.5,-0.5,-0.5,linear,100,0.025,0,0.5,TRUE,4,sepmodel,0.0224,-2.821953504724991e-5,0.007809328527121594,0,10000
10,250,0,275,550,825,1100,1375,1650,1925,2200,2475,2,0,1,0,0,0,0,0,0,0,0,0,0,-0.5,-0.5,-0.5,-0.5,-0.5,-0.5,-0.5,-0.5,-0.5,-0.5,-0.5,linear,100,0.025,0,0.5,TRUE,5,fixmodel,0.0248,-5.704480984274771e-5,0.007272353449853689,0,10000
10,250,0,275,550,825,1100,1375,1650,1925,2200,2475,2,0,1,0,0,0,0,0,0,0,0,0,0,-0.5,-0.5,-0.5,-0.5,-0.5,-0.5,-0.5,-0.5,-0.5,-0.5,-0.5,linear,100,0.025,0,0.5,TRUE,5,poolmodel,3e-4,-0.10389673504359156,0.01634649677364046,0,10000
10,250,0,275,550,825,1100,1375,1650,1925,2200,2475,2,0,1,0,0,0,0,0,0,0,0,0,0,-0.5,-0.5,-0.5,-0.5,-0.5,-0.5,-0.5,-0.5,-0.5,-0.5,-0.5,linear,100,0.025,0,0.5,TRUE,5,sepmodel,0.0251,-1.3157833031221506e-4,0.008075104132060397,0,10000
10,250,0,275,550,825,1100,1375,1650,1925,2200,2475,2,0,1,0,0,0,0,0,0,0,0,0,0,-0.5,-0.5,-0.5,-0.5,-0.5,-0.5,-0.5,-0.5,-0.5,-0.5,-0.5,linear,100,0.025,0,0.5,TRUE,6,fixmodel,0.0241,9.796276745928792e-4,0.006896361082234875,0,10000
10,250,0,275,550,825,1100,1375,1650,1925,2200,2475,2,0,1,0,0,0,0,0,0,0,0,0,0,-0.5,-0.5,-0.5,-0.5,-0.5,-0.5,-0.5,-0.5,-0.5,-0.5,-0.5,linear,100,0.025,0,0.5,TRUE,6,poolmodel,0,-0.1288234903972437,0.02189548911685484,0,10000
10,250,0,275,550,825,1100,1375,1650,1925,2200,2475,2,0,1,0,0,0,0,0,0,0,0,0,0,-0.5,-0.5,-0.5,-0.5,-0.5,-0.5,-0.5,-0.5,-0.5,-0.5,-0.5,linear,100,0.025,0,0.5,TRUE,6,sepmodel,0.0239,5.476921506208831e-4,0.00782592596839916,0,10000
10,250,0,275,550,825,1100,1375,1650,1925,2200,2475,2,0,1,0,0,0,0,0,0,0,0,0,0,-0.5,-0.5,-0.5,-0.5,-0.5,-0.5,-0.5,-0.5,-0.5,-0.5,-0.5,linear,100,0.025,0,0.5,TRUE,7,fixmodel,0.0274,2.1877579609047715e-5,0.00706896837875332,0,10000
10,250,0,275,550,825,1100,1375,1650,1925,2200,2475,2,0,1,0,0,0,0,0,0,0,0,0,0,-0.5,-0.5,-0.5,-0.5,-0.5,-0.5,-0.5,-0.5,-0.5,-0.5,-0.5,linear,100,0.025,0,0.5,TRUE,7,poolmodel,0,-0.15503862721208875,0.02939342127028643,0,10000
10,250,0,275,550,825,1100,1375,1650,1925,2200,2475,2,0,1,0,0,0,0,0,0,0,0,0,0,-0.5,-0.5,-0.5,-0.5,-0.5,-0.5,-0.5,-0.5,-0.5,-0.5,-0.5,linear,100,0.025,0,0.5,TRUE,7,sepmodel,0.0244,-2.2597939004905072e-4,0.008040723663440478,0,10000
10,250,0,275,550,825,1100,1375,1650,1925,2200,2475,2,0,1,0,0,0,0,0,0,0,0,0,0,-0.5,-0.5,-0.5,-0.5,-0.5,-0.5,-0.5,-0.5,-0.5,-0.5,-0.5,linear,100,0.025,0,0.5,TRUE,8,fixmodel,0.0248,9.714778184739952e-5,0.006950795804661836,0,10000
10,250,0,275,550,825,1100,1375,1650,1925,2200,2475,2,0,1,0,0,0,0,0,0,0,0,0,0,-0.5,-0.5,-0.5,-0.5,-0.5,-0.5,-0.5,-0.5,-0.5,-0.5,-0.5,linear,100,0.025,0,0.5,TRUE,8,poolmodel,0,-0.17790566067089797,0.036835898692516765,0,10000
10,250,0,275,550,825,1100,1375,1650,1925,2200,2475,2,0,1,0,0,0,0,0,0,0,0,0,0,-0.5,-0.5,-0.5,-0.5,-0.5,-0.5,-0.5,-0.5,-0.5,-0.5,-0.5,linear,100,0.025,0,0.5,TRUE,8,sepmodel,0.0242,-1.4571920344687536e-4,0.008008756090161325,0,10000
10,250,0,275,550,825,1100,1375,1650,1925,2200,2475,2,0,1,0,0,0,0,0,0,0,0,0,0,-0.5,-0.5,-0.5,-0.5,-0.5,-0.5,-0.5,-0.5,-0.5,-0.5,-0.5,linear,100,0.025,0,0.5,TRUE,9,fixmodel,0.0273,8.165296884392054e-4,0.007056570236626065,0,10000
10,250,0,275,550,825,1100,1375,1650,1925,2200,2475,2,0,1,0,0,0,0,0,0,0,0,0,0,-0.5,-0.5,-0.5,-0.5,-0.5,-0.5,-0.5,-0.5,-0.5,-0.5,-0.5,linear,100,0.025,0,0.5,TRUE,9,poolmodel,0,-0.19750469998166614,0.044182888730250745,0,10000
10,250,0,275,550,825,1100,1375,1650,1925,2200,2475,2,0,1,0,0,0,0,0,0,0,0,0,0,-0.5,-0.5,-0.5,-0.5,-0.5,-0.5,-0.5,-0.5,-0.5,-0.5,-0.5,linear,100,0.025,0,0.5,TRUE,9,sepmodel,0.0261,6.287350919929878e-4,0.008088330618935083,0,10000
10,250,0,275,550,825,1100,1375,1650,1925,2200,2475,2,0,1,0,0,0,0,0,0,0,0,0,0,-0.5,-0.5,-0.5,-0.5,-0.5,-0.5,-0.5,-0.5,-0.5,-0.5,-0.5,linear,100,0.025,0,0.5,TRUE,10,fixmodel,0.026,2.442927924301902e-4,0.0069751558170926264,0,10000
10,250,0,275,550,825,1100,1375,1650,1925,2200,2475,2,0,1,0,0,0,0,0,0,0,0,0,0,-0.5,-0.5,-0.5,-0.5,-0.5,-0.5,-0.5,-0.5,-0.5,-0.5,-0.5,linear,100,0.025,0,0.5,TRUE,10,poolmodel,0,-0.21407461957523014,0.05085845248958167,0,10000
10,250,0,275,550,825,1100,1375,1650,1925,2200,2475,2,0,1,0,0,0,0,0,0,0,0,0,0,-0.5,-0.5,-0.5,-0.5,-0.5,-0.5,-0.5,-0.5,-0.5,-0.5,-0.5,linear,100,0.025,0,0.5,TRUE,10,sepmodel,0.025,2.7278996679307106e-4,0.008057966190114578,0,10000
10,250,0,300,600,900,1200,1500,1800,2100,2400,2700,2,0,1,0,0,0,0,0,0,0,0,0,0,-0.5,-0.5,-0.5,-0.5,-0.5,-0.5,-0.5,-0.5,-0.5,-0.5,-0.5,linear,100,0.025,0,0.5,TRUE,2,fixmodel,0.028,0.0013765124436193365,0.007557254833227594,0,10000
10,250,0,300,600,900,1200,1500,1800,2100,2400,2700,2,0,1,0,0,0,0,0,0,0,0,0,0,-0.5,-0.5,-0.5,-0.5,-0.5,-0.5,-0.5,-0.5,-0.5,-0.5,-0.5,linear,100,0.025,0,0.5,TRUE,2,poolmodel,0.0127,-0.02670558542688218,0.007350170460176544,0,10000
10,250,0,300,600,900,1200,1500,1800,2100,2400,2700,2,0,1,0,0,0,0,0,0,0,0,0,0,-0.5,-0.5,-0.5,-0.5,-0.5,-0.5,-0.5,-0.5,-0.5,-0.5,-0.5,linear,100,0.025,0,0.5,TRUE,2,sepmodel,0.0277,0.001553246313010664,0.008059150136507832,0,10000
10,250,0,300,600,900,1200,1500,1800,2100,2400,2700,2,0,1,0,0,0,0,0,0,0,0,0,0,-0.5,-0.5,-0.5,-0.5,-0.5,-0.5,-0.5,-0.5,-0.5,-0.5,-0.5,linear,100,0.025,0,0.5,TRUE,3,fixmodel,0.0269,7.835925859341862e-4,0.007559861524709427,0,10000
10,250,0,300,600,900,1200,1500,1800,2100,2400,2700,2,0,1,0,0,0,0,0,0,0,0,0,0,-0.5,-0.5,-0.5,-0.5,-0.5,-0.5,-0.5,-0.5,-0.5,-0.5,-0.5,linear,100,0.025,0,0.5,TRUE,3,poolmodel,0.0036,-0.051450808421396065,0.008750413937639817,0,10000
10,250,0,300,600,900,1200,1500,1800,2100,2400,2700,2,0,1,0,0,0,0,0,0,0,0,0,0,-0.5,-0.5,-0.5,-0.5,-0.5,-0.5,-0.5,-0.5,-0.5,-0.5,-0.5,linear,100,0.025,0,0.5,TRUE,3,sepmodel,0.0274,0.001139513876479104,0.008157579906738932,0,10000
10,250,0,300,600,900,1200,1500,1800,2100,2400,2700,2,0,1,0,0,0,0,0,0,0,0,0,0,-0.5,-0.5,-0.5,-0.5,-0.5,-0.5,-0.5,-0.5,-0.5,-0.5,-0.5,linear,100,0.025,0,0.5,TRUE,4,fixmodel,0.0248,1.3376060082748606e-4,0.0071744307274127445,0,10000
10,250,0,300,600,900,1200,1500,1800,2100,2400,2700,2,0,1,0,0,0,0,0,0,0,0,0,0,-0.5,-0.5,-0.5,-0.5,-0.5,-0.5,-0.5,-0.5,-0.5,-0.5,-0.5,linear,100,0.025,0,0.5,TRUE,4,poolmodel,0.0011,-0.07904414470839773,0.011853206529484725,0,10000
10,250,0,300,600,900,1200,1500,1800,2100,2400,2700,2,0,1,0,0,0,0,0,0,0,0,0,0,-0.5,-0.5,-0.5,-0.5,-0.5,-0.5,-0.5,-0.5,-0.5,-0.5,-0.5,linear,100,0.025,0,0.5,TRUE,4,sepmodel,0.0242,5.024598007752057e-4,0.007937842390869842,0,10000
10,250,0,300,600,900,1200,1500,1800,2100,2400,2700,2,0,1,0,0,0,0,0,0,0,0,0,0,-0.5,-0.5,-0.5,-0.5,-0.5,-0.5,-0.5,-0.5,-0.5,-0.5,-0.5,linear,100,0.025,0,0.5,TRUE,5,fixmodel,0.025,-0.0013388998691780873,0.007053726007623557,0,10000
10,250,0,300,600,900,1200,1500,1800,2100,2400,2700,2,0,1,0,0,0,0,0,0,0,0,0,0,-0.5,-0.5,-0.5,-0.5,-0.5,-0.5,-0.5,-0.5,-0.5,-0.5,-0.5,linear,100,0.025,0,0.5,TRUE,5,poolmodel,3e-4,-0.10505438228423265,0.016402479063175136,0,10000
10,250,0,300,600,900,1200,1500,1800,2100,2400,2700,2,0,1,0,0,0,0,0,0,0,0,0,0,-0.5,-0.5,-0.5,-0.5,-0.5,-0.5,-0.5,-0.5,-0.5,-0.5,-0.5,linear,100,0.025,0,0.5,TRUE,5,sepmodel,0.0238,-0.0015947979744769139,0.007836080429305921,0,10000
10,250,0,300,600,900,1200,1500,1800,2100,2400,2700,2,0,1,0,0,0,0,0,0,0,0,0,0,-0.5,-0.5,-0.5,-0.5,-0.5,-0.5,-0.5,-0.5,-0.5,-0.5,-0.5,linear,100,0.025,0,0.5,TRUE,6,fixmodel,0.025,-0.0010736665461207769,0.007175204323190173,0,10000
10,250,0,300,600,900,1200,1500,1800,2100,2400,2700,2,0,1,0,0,0,0,0,0,0,0,0,0,-0.5,-0.5,-0.5,-0.5,-0.5,-0.5,-0.5,-0.5,-0.5,-0.5,-0.5,linear,100,0.025,0,0.5,TRUE,6,poolmodel,2e-4,-0.13011817597150485,0.02234977355884494,0,10000
10,250,0,300,600,900,1200,1500,1800,2100,2400,2700,2,0,1,0,0,0,0,0,0,0,0,0,0,-0.5,-0.5,-0.5,-0.5,-0.5,-0.5,-0.5,-0.5,-0.5,-0.5,-0.5,linear,100,0.025,0,0.5,TRUE,6,sepmodel,0.0251,-0.0012753978209754525,0.008038297019139646,0,10000
10,250,0,300,600,900,1200,1500,1800,2100,2400,2700,2,0,1,0,0,0,0,0,0,0,0,0,0,-0.5,-0.5,-0.5,-0.5,-0.5,-0.5,-0.5,-0.5,-0.5,-0.5,-0.5,linear,100,0.025,0,0.5,TRUE,7,fixmodel,0.0247,-3.606854336613635e-4,0.007117893201545555,0,10000
10,250,0,300,600,900,1200,1500,1800,2100,2400,2700,2,0,1,0,0,0,0,0,0,0,0,0,0,-0.5,-0.5,-0.5,-0.5,-0.5,-0.5,-0.5,-0.5,-0.5,-0.5,-0.5,linear,100,0.025,0,0.5,TRUE,7,poolmodel,1e-4,-0.15457100332400164,0.02904497388125319,0,10000
10,250,0,300,600,900,1200,1500,1800,2100,2400,2700,2,0,1,0,0,0,0,0,0,0,0,0,0,-0.5,-0.5,-0.5,-0.5,-0.5,-0.5,-0.5,-0.5,-0.5,-0.5,-0.5,linear,100,0.025,0,0.5,TRUE,7,sepmodel,0.0249,-3.432281992969159e-4,0.007959226037920505,0,10000
10,250,0,300,600,900,1200,1500,1800,2100,2400,2700,2,0,1,0,0,0,0,0,0,0,0,0,0,-0.5,-0.5,-0.5,-0.5,-0.5,-0.5,-0.5,-0.5,-0.5,-0.5,-0.5,linear,100,0.025,0,0.5,TRUE,8,fixmodel,0.026,1.4534418649500387e-4,0.0072911165865258525,0,10000
10,250,0,300,600,900,1200,1500,1800,2100,2400,2700,2,0,1,0,0,0,0,0,0,0,0,0,0,-0.5,-0.5,-0.5,-0.5,-0.5,-0.5,-0.5,-0.5,-0.5,-0.5,-0.5,linear,100,0.025,0,0.5,TRUE,8,poolmodel,0,-0.1790637803519819,0.037229475134428425,0,10000
10,250,0,300,600,900,1200,1500,1800,2100,2400,2700,2,0,1,0,0,0,0,0,0,0,0,0,0,-0.5,-0.5,-0.5,-0.5,-0.5,-0.5,-0.5,-0.5,-0.5,-0.5,-0.5,linear,100,0.025,0,0.5,TRUE,8,sepmodel,0.0273,5.795365613869055e-4,0.008222305334877823,0,10000
10,250,0,300,600,900,1200,1500,1800,2100,2400,2700,2,0,1,0,0,0,0,0,0,0,0,0,0,-0.5,-0.5,-0.5,-0.5,-0.5,-0.5,-0.5,-0.5,-0.5,-0.5,-0.5,linear,100,0.025,0,0.5,TRUE,9,fixmodel,0.0263,6.995840847308484e-4,0.007029291107298789,0,10000
10,250,0,300,600,900,1200,1500,1800,2100,2400,2700,2,0,1,0,0,0,0,0,0,0,0,0,0,-0.5,-0.5,-0.5,-0.5,-0.5,-0.5,-0.5,-0.5,-0.5,-0.5,-0.5,linear,100,0.025,0,0.5,TRUE,9,poolmodel,0,-0.19981017757502548,0.044958381953260906,0,10000
10,250,0,300,600,900,1200,1500,1800,2100,2400,2700,2,0,1,0,0,0,0,0,0,0,0,0,0,-0.5,-0.5,-0.5,-0.5,-0.5,-0.5,-0.5,-0.5,-0.5,-0.5,-0.5,linear,100,0.025,0,0.5,TRUE,9,sepmodel,0.0283,0.001028283275522429,0.00796702578413244,0,10000
10,250,0,300,600,900,1200,1500,1800,2100,2400,2700,2,0,1,0,0,0,0,0,0,0,0,0,0,-0.5,-0.5,-0.5,-0.5,-0.5,-0.5,-0.5,-0.5,-0.5,-0.5,-0.5,linear,100,0.025,0,0.5,TRUE,10,fixmodel,0.0251,-5.220688395910658e-4,0.007074991488394103,0,10000
10,250,0,300,600,900,1200,1500,1800,2100,2400,2700,2,0,1,0,0,0,0,0,0,0,0,0,0,-0.5,-0.5,-0.5,-0.5,-0.5,-0.5,-0.5,-0.5,-0.5,-0.5,-0.5,linear,100,0.025,0,0.5,TRUE,10,poolmodel,0,-0.21768222050685676,0.052342872364797226,0,10000
10,250,0,300,600,900,1200,1500,1800,2100,2400,2700,2,0,1,0,0,0,0,0,0,0,0,0,0,-0.5,-0.5,-0.5,-0.5,-0.5,-0.5,-0.5,-0.5,-0.5,-0.5,-0.5,linear,100,0.025,0,0.5,TRUE,10,sepmodel,0.0245,-2.2528965037983353e-4,0.00798902389901012,0,10000
10,250,0,325,650,975,1300,1625,1950,2275,2600,2925,2,0,1,0,0,0,0,0,0,0,0,0,0,-0.5,-0.5,-0.5,-0.5,-0.5,-0.5,-0.5,-0.5,-0.5,-0.5,-0.5,linear,100,0.025,0,0.5,TRUE,2,fixmodel,0.028,5.874705791367011e-4,0.007463976262857444,0,10000
10,250,0,325,650,975,1300,1625,1950,2275,2600,2925,2,0,1,0,0,0,0,0,0,0,0,0,0,-0.5,-0.5,-0.5,-0.5,-0.5,-0.5,-0.5,-0.5,-0.5,-0.5,-0.5,linear,100,0.025,0,0.5,TRUE,2,poolmodel,0.0109,-0.027733156335835424,0.007126707935889713,0,10000
10,250,0,325,650,975,1300,1625,1950,2275,2600,2925,2,0,1,0,0,0,0,0,0,0,0,0,0,-0.5,-0.5,-0.5,-0.5,-0.5,-0.5,-0.5,-0.5,-0.5,-0.5,-0.5,linear,100,0.025,0,0.5,TRUE,2,sepmodel,0.0279,1.8197720633664446e-4,0.008002532996232003,0,10000
10,250,0,325,650,975,1300,1625,1950,2275,2600,2925,2,0,1,0,0,0,0,0,0,0,0,0,0,-0.5,-0.5,-0.5,-0.5,-0.5,-0.5,-0.5,-0.5,-0.5,-0.5,-0.5,linear,100,0.025,0,0.5,TRUE,3,fixmodel,0.0249,0.0011996059502114838,0.0074477441093595,0,10000
10,250,0,325,650,975,1300,1625,1950,2275,2600,2925,2,0,1,0,0,0,0,0,0,0,0,0,0,-0.5,-0.5,-0.5,-0.5,-0.5,-0.5,-0.5,-0.5,-0.5,-0.5,-0.5,linear,100,0.025,0,0.5,TRUE,3,poolmodel,0.0038,-0.052419426444851994,0.008612271804653484,0,10000
10,250,0,325,650,975,1300,1625,1950,2275,2600,2925,2,0,1,0,0,0,0,0,0,0,0,0,0,-0.5,-0.5,-0.5,-0.5,-0.5,-0.5,-0.5,-0.5,-0.5,-0.5,-0.5,linear,100,0.025,0,0.5,TRUE,3,sepmodel,0.0233,0.0011222603168851322,0.00802507119291531,0,10000
10,250,0,325,650,975,1300,1625,1950,2275,2600,2925,2,0,1,0,0,0,0,0,0,0,0,0,0,-0.5,-0.5,-0.5,-0.5,-0.5,-0.5,-0.5,-0.5,-0.5,-0.5,-0.5,linear,100,0.025,0,0.5,TRUE,4,fixmodel,0.0273,0.001169124841770897,0.007476432643097522,0,10000
10,250,0,325,650,975,1300,1625,1950,2275,2600,2925,2,0,1,0,0,0,0,0,0,0,0,0,0,-0.5,-0.5,-0.5,-0.5,-0.5,-0.5,-0.5,-0.5,-0.5,-0.5,-0.5,linear,100,0.025,0,0.5,TRUE,4,poolmodel,0.0012,-0.07813243797919346,0.011750093117596887,0,10000
10,250,0,325,650,975,1300,1625,1950,2275,2600,2925,2,0,1,0,0,0,0,0,0,0,0,0,0,-0.5,-0.5,-0.5,-0.5,-0.5,-0.5,-0.5,-0.5,-0.5,-0.5,-0.5,linear,100,0.025,0,0.5,TRUE,4,sepmodel,0.0261,0.001164630740201216,0.008119737003375416,0,10000
10,250,0,325,650,975,1300,1625,1950,2275,2600,2925,2,0,1,0,0,0,0,0,0,0,0,0,0,-0.5,-0.5,-0.5,-0.5,-0.5,-0.5,-0.5,-0.5,-0.5,-0.5,-0.5,linear,100,0.025,0,0.5,TRUE,5,fixmodel,0.025,-4.546360133137696e-5,0.007192183759191037,0,10000
10,250,0,325,650,975,1300,1625,1950,2275,2600,2925,2,0,1,0,0,0,0,0,0,0,0,0,0,-0.5,-0.5,-0.5,-0.5,-0.5,-0.5,-0.5,-0.5,-0.5,-0.5,-0.5,linear,100,0.025,0,0.5,TRUE,5,poolmodel,3e-4,-0.10412863348063443,0.016090118937805493,0,10000
10,250,0,325,650,975,1300,1625,1950,2275,2600,2925,2,0,1,0,0,0,0,0,0,0,0,0,0,-0.5,-0.5,-0.5,-0.5,-0.5,-0.5,-0.5,-0.5,-0.5,-0.5,-0.5,linear,100,0.025,0,0.5,TRUE,5,sepmodel,0.0252,-8.261159199039696e-5,0.008011917040591633,0,10000
10,250,0,325,650,975,1300,1625,1950,2275,2600,2925,2,0,1,0,0,0,0,0,0,0,0,0,0,-0.5,-0.5,-0.5,-0.5,-0.5,-0.5,-0.5,-0.5,-0.5,-0.5,-0.5,linear,100,0.025,0,0.5,TRUE,6,fixmodel,0.0248,7.757997683173387e-4,0.007170919308842019,0,10000
10,250,0,325,650,975,1300,1625,1950,2275,2600,2925,2,0,1,0,0,0,0,0,0,0,0,0,0,-0.5,-0.5,-0.5,-0.5,-0.5,-0.5,-0.5,-0.5,-0.5,-0.5,-0.5,linear,100,0.025,0,0.5,TRUE,6,poolmodel,1e-4,-0.12874359380705291,0.02173982582810021,0,10000
10,250,0,325,650,975,1300,1625,1950,2275,2600,2925,2,0,1,0,0,0,0,0,0,0,0,0,0,-0.5,-0.5,-0.5,-0.5,-0.5,-0.5,-0.5,-0.5,-0.5,-0.5,-0.5,linear,100,0.025,0,0.5,TRUE,6,sepmodel,0.0254,7.08690518562457e-4,0.008034074645557561,0,10000
10,250,0,325,650,975,1300,1625,1950,2275,2600,2925,2,0,1,0,0,0,0,0,0,0,0,0,0,-0.5,-0.5,-0.5,-0.5,-0.5,-0.5,-0.5,-0.5,-0.5,-0.5,-0.5,linear,100,0.025,0,0.5,TRUE,7,fixmodel,0.027,0.0021096284692527223,0.007083037385998793,0,10000
10,250,0,325,650,975,1300,1625,1950,2275,2600,2925,2,0,1,0,0,0,0,0,0,0,0,0,0,-0.5,-0.5,-0.5,-0.5,-0.5,-0.5,-0.5,-0.5,-0.5,-0.5,-0.5,linear,100,0.025,0,0.5,TRUE,7,poolmodel,0,-0.1530852815573287,0.028461418839038306,0,10000
10,250,0,325,650,975,1300,1625,1950,2275,2600,2925,2,0,1,0,0,0,0,0,0,0,0,0,0,-0.5,-0.5,-0.5,-0.5,-0.5,-0.5,-0.5,-0.5,-0.5,-0.5,-0.5,linear,100,0.025,0,0.5,TRUE,7,sepmodel,0.0264,0.0017929986130276873,0.0078983137936089,0,10000
10,250,0,325,650,975,1300,1625,1950,2275,2600,2925,2,0,1,0,0,0,0,0,0,0,0,0,0,-0.5,-0.5,-0.5,-0.5,-0.5,-0.5,-0.5,-0.5,-0.5,-0.5,-0.5,linear,100,0.025,0,0.5,TRUE,8,fixmodel,0.0269,9.442090104135455e-4,0.007234276491693409,0,10000
10,250,0,325,650,975,1300,1625,1950,2275,2600,2925,2,0,1,0,0,0,0,0,0,0,0,0,0,-0.5,-0.5,-0.5,-0.5,-0.5,-0.5,-0.5,-0.5,-0.5,-0.5,-0.5,linear,100,0.025,0,0.5,TRUE,8,poolmodel,0,-0.17918311190293762,0.03712726251538694,0,10000
10,250,0,325,650,975,1300,1625,1950,2275,2600,2925,2,0,1,0,0,0,0,0,0,0,0,0,0,-0.5,-0.5,-0.5,-0.5,-0.5,-0.5,-0.5,-0.5,-0.5,-0.5,-0.5,linear,100,0.025,0,0.5,TRUE,8,sepmodel,0.0261,5.612222760369147e-4,0.00800818756154856,0,10000
10,250,0,325,650,975,1300,1625,1950,2275,2600,2925,2,0,1,0,0,0,0,0,0,0,0,0,0,-0.5,-0.5,-0.5,-0.5,-0.5,-0.5,-0.5,-0.5,-0.5,-0.5,-0.5,linear,100,0.025,0,0.5,TRUE,9,fixmodel,0.026,0.0023622765563412556,0.007034362233375933,0,10000
10,250,0,325,650,975,1300,1625,1950,2275,2600,2925,2,0,1,0,0,0,0,0,0,0,0,0,0,-0.5,-0.5,-0.5,-0.5,-0.5,-0.5,-0.5,-0.5,-0.5,-0.5,-0.5,linear,100,0.025,0,0.5,TRUE,9,poolmodel,0,-0.2009608786810185,0.04526391928539079,0,10000
10,250,0,325,650,975,1300,1625,1950,2275,2600,2925,2,0,1,0,0,0,0,0,0,0,0,0,0,-0.5,-0.5,-0.5,-0.5,-0.5,-0.5,-0.5,-0.5,-0.5,-0.5,-0.5,linear,100,0.025,0,0.5,TRUE,9,sepmodel,0.0245,0.0016816881646066727,0.00778228559659252,0,10000
10,250,0,325,650,975,1300,1625,1950,2275,2600,2925,2,0,1,0,0,0,0,0,0,0,0,0,0,-0.5,-0.5,-0.5,-0.5,-0.5,-0.5,-0.5,-0.5,-0.5,-0.5,-0.5,linear,100,0.025,0,0.5,TRUE,10,fixmodel,0.026,5.322461584682759e-4,0.007068709016846432,0,10000
10,250,0,325,650,975,1300,1625,1950,2275,2600,2925,2,0,1,0,0,0,0,0,0,0,0,0,0,-0.5,-0.5,-0.5,-0.5,-0.5,-0.5,-0.5,-0.5,-0.5,-0.5,-0.5,linear,100,0.025,0,0.5,TRUE,10,poolmodel,0,-0.22020051518695752,0.05329145238693257,0,10000
10,250,0,325,650,975,1300,1625,1950,2275,2600,2925,2,0,1,0,0,0,0,0,0,0,0,0,0,-0.5,-0.5,-0.5,-0.5,-0.5,-0.5,-0.5,-0.5,-0.5,-0.5,-0.5,linear,100,0.025,0,0.5,TRUE,10,sepmodel,0.026,1.4763614679977818e-4,0.00784507985368438,0,10000
10,250,0,350,700,1050,1400,1750,2100,2450,2800,3150,2,0,1,0,0,0,0,0,0,0,0,0,0,-0.5,-0.5,-0.5,-0.5,-0.5,-0.5,-0.5,-0.5,-0.5,-0.5,-0.5,linear,100,0.025,0,0.5,TRUE,2,fixmodel,0.0243,-3.089558494878743e-4,0.007625410098499355,0,10000
10,250,0,350,700,1050,1400,1750,2100,2450,2800,3150,2,0,1,0,0,0,0,0,0,0,0,0,0,-0.5,-0.5,-0.5,-0.5,-0.5,-0.5,-0.5,-0.5,-0.5,-0.5,-0.5,linear,100,0.025,0,0.5,TRUE,2,poolmodel,0.0086,-0.027870859182415844,0.00720922361579269,0,10000
10,250,0,350,700,1050,1400,1750,2100,2450,2800,3150,2,0,1,0,0,0,0,0,0,0,0,0,0,-0.5,-0.5,-0.5,-0.5,-0.5,-0.5,-0.5,-0.5,-0.5,-0.5,-0.5,linear,100,0.025,0,0.5,TRUE,2,sepmodel,0.0246,-9.922401624767333e-5,0.00806390408685247,0,10000
10,250,0,350,700,1050,1400,1750,2100,2450,2800,3150,2,0,1,0,0,0,0,0,0,0,0,0,0,-0.5,-0.5,-0.5,-0.5,-0.5,-0.5,-0.5,-0.5,-0.5,-0.5,-0.5,linear,100,0.025,0,0.5,TRUE,3,fixmodel,0.0229,-5.155525354755848e-4,0.007524706542308006,0,10000
10,250,0,350,700,1050,1400,1750,2100,2450,2800,3150,2,0,1,0,0,0,0,0,0,0,0,0,0,-0.5,-0.5,-0.5,-0.5,-0.5,-0.5,-0.5,-0.5,-0.5,-0.5,-0.5,linear,100,0.025,0,0.5,TRUE,3,poolmodel,0.004,-0.054025092666757604,0.008826259031851875,0,10000
10,250,0,350,700,1050,1400,1750,2100,2450,2800,3150,2,0,1,0,0,0,0,0,0,0,0,0,0,-0.5,-0.5,-0.5,-0.5,-0.5,-0.5,-0.5,-0.5,-0.5,-0.5,-0.5,linear,100,0.025,0,0.5,TRUE,3,sepmodel,0.0223,-4.407940395327178e-4,0.00811310157148088,0,10000
10,250,0,350,700,1050,1400,1750,2100,2450,2800,3150,2,0,1,0,0,0,0,0,0,0,0,0,0,-0.5,-0.5,-0.5,-0.5,-0.5,-0.5,-0.5,-0.5,-0.5,-0.5,-0.5,linear,100,0.025,0,0.5,TRUE,4,fixmodel,0.0264,0.0010931105514717608,0.007374691632794638,0,10000
10,250,0,350,700,1050,1400,1750,2100,2450,2800,3150,2,0,1,0,0,0,0,0,0,0,0,0,0,-0.5,-0.5,-0.5,-0.5,-0.5,-0.5,-0.5,-0.5,-0.5,-0.5,-0.5,linear,100,0.025,0,0.5,TRUE,4,poolmodel,0.0014,-0.07770039358658082,0.011535185844788454,0,10000
10,250,0,350,700,1050,1400,1750,2100,2450,2800,3150,2,0,1,0,0,0,0,0,0,0,0,0,0,-0.5,-0.5,-0.5,-0.5,-0.5,-0.5,-0.5,-0.5,-0.5,-0.5,-0.5,linear,100,0.025,0,0.5,TRUE,4,sepmodel,0.0258,0.001272654443916351,0.008022007609555017,0,10000
10,250,0,350,700,1050,1400,1750,2100,2450,2800,3150,2,0,1,0,0,0,0,0,0,0,0,0,0,-0.5,-0.5,-0.5,-0.5,-0.5,-0.5,-0.5,-0.5,-0.5,-0.5,-0.5,linear,100,0.025,0,0.5,TRUE,5,fixmodel,0.0239,3.8654218933786627e-4,0.007313396136198777,0,10000
10,250,0,350,700,1050,1400,1750,2100,2450,2800,3150,2,0,1,0,0,0,0,0,0,0,0,0,0,-0.5,-0.5,-0.5,-0.5,-0.5,-0.5,-0.5,-0.5,-0.5,-0.5,-0.5,linear,100,0.025,0,0.5,TRUE,5,poolmodel,2e-4,-0.10396529281031668,0.016019429234915342,0,10000
10,250,0,350,700,1050,1400,1750,2100,2450,2800,3150,2,0,1,0,0,0,0,0,0,0,0,0,0,-0.5,-0.5,-0.5,-0.5,-0.5,-0.5,-0.5,-0.5,-0.5,-0.5,-0.5,linear,100,0.025,0,0.5,TRUE,5,sepmodel,0.0233,1.7017399666218163e-4,0.00790515728653366,0,10000
10,250,0,350,700,1050,1400,1750,2100,2450,2800,3150,2,0,1,0,0,0,0,0,0,0,0,0,0,-0.5,-0.5,-0.5,-0.5,-0.5,-0.5,-0.5,-0.5,-0.5,-0.5,-0.5,linear,100,0.025,0,0.5,TRUE,6,fixmodel,0.0223,-0.001218280238496786,0.0072117370666038095,0,10000
10,250,0,350,700,1050,1400,1750,2100,2450,2800,3150,2,0,1,0,0,0,0,0,0,0,0,0,0,-0.5,-0.5,-0.5,-0.5,-0.5,-0.5,-0.5,-0.5,-0.5,-0.5,-0.5,linear,100,0.025,0,0.5,TRUE,6,poolmodel,0,-0.12921265132674697,0.02175087828432981,0,10000
10,250,0,350,700,1050,1400,1750,2100,2450,2800,3150,2,0,1,0,0,0,0,0,0,0,0,0,0,-0.5,-0.5,-0.5,-0.5,-0.5,-0.5,-0.5,-0.5,-0.5,-0.5,-0.5,linear,100,0.025,0,0.5,TRUE,6,sepmodel,0.0234,-0.0019223325018016837,0.007908457108291682,0,10000
10,250,0,350,700,1050,1400,1750,2100,2450,2800,3150,2,0,1,0,0,0,0,0,0,0,0,0,0,-0.5,-0.5,-0.5,-0.5,-0.5,-0.5,-0.5,-0.5,-0.5,-0.5,-0.5,linear,100,0.025,0,0.5,TRUE,7,fixmodel,0.0247,-0.0013805527464259104,0.0073693793844552356,0,10000
10,250,0,350,700,1050,1400,1750,2100,2450,2800,3150,2,0,1,0,0,0,0,0,0,0,0,0,0,-0.5,-0.5,-0.5,-0.5,-0.5,-0.5,-0.5,-0.5,-0.5,-0.5,-0.5,linear,100,0.025,0,0.5,TRUE,7,poolmodel,0,-0.15380041023772373,0.028769176824044222,0,10000
10,250,0,350,700,1050,1400,1750,2100,2450,2800,3150,2,0,1,0,0,0,0,0,0,0,0,0,0,-0.5,-0.5,-0.5,-0.5,-0.5,-0.5,-0.5,-0.5,-0.5,-0.5,-0.5,linear,100,0.025,0,0.5,TRUE,7,sepmodel,0.0249,-0.0019026108683807268,0.008052399326032288,0,10000
10,250,0,350,700,1050,1400,1750,2100,2450,2800,3150,2,0,1,0,0,0,0,0,0,0,0,0,0,-0.5,-0.5,-0.5,-0.5,-0.5,-0.5,-0.5,-0.5,-0.5,-0.5,-0.5,linear,100,0.025,0,0.5,TRUE,8,fixmodel,0.0251,-0.0012511391220746341,0.00723530566213531,0,10000
10,250,0,350,700,1050,1400,1750,2100,2450,2800,3150,2,0,1,0,0,0,0,0,0,0,0,0,0,-0.5,-0.5,-0.5,-0.5,-0.5,-0.5,-0.5,-0.5,-0.5,-0.5,-0.5,linear,100,0.025,0,0.5,TRUE,8,poolmodel,0,-0.17908914771822876,0.036952652570400875,0,10000
10,250,0,350,700,1050,1400,1750,2100,2450,2800,3150,2,0,1,0,0,0,0,0,0,0,0,0,0,-0.5,-0.5,-0.5,-0.5,-0.5,-0.5,-0.5,-0.5,-0.5,-0.5,-0.5,linear,100,0.025,0,0.5,TRUE,8,sepmodel,0.0257,-9.704005835983585e-4,0.00790293608523617,0,10000
10,250,0,350,700,1050,1400,1750,2100,2450,2800,3150,2,0,1,0,0,0,0,0,0,0,0,0,0,-0.5,-0.5,-0.5,-0.5,-0.5,-0.5,-0.5,-0.5,-0.5,-0.5,-0.5,linear,100,0.025,0,0.5,TRUE,9,fixmodel,0.0263,-2.821220918528393e-4,0.007390466053793209,0,10000
10,250,0,350,700,1050,1400,1750,2100,2450,2800,3150,2,0,1,0,0,0,0,0,0,0,0,0,0,-0.5,-0.5,-0.5,-0.5,-0.5,-0.5,-0.5,-0.5,-0.5,-0.5,-0.5,linear,100,0.025,0,0.5,TRUE,9,poolmodel,0,-0.2028404517300333,0.04598544440990868,0,10000
10,250,0,350,700,1050,1400,1750,2100,2450,2800,3150,2,0,1,0,0,0,0,0,0,0,0,0,0,-0.5,-0.5,-0.5,-0.5,-0.5,-0.5,-0.5,-0.5,-0.5,-0.5,-0.5,linear,100,0.025,0,0.5,TRUE,9,sepmodel,0.0249,-4.319057839162769e-4,0.008050554395140014,0,10000
10,250,0,350,700,1050,1400,1750,2100,2450,2800,3150,2,0,1,0,0,0,0,0,0,0,0,0,0,-0.5,-0.5,-0.5,-0.5,-0.5,-0.5,-0.5,-0.5,-0.5,-0.5,-0.5,linear,100,0.025,0,0.5,TRUE,10,fixmodel,0.0265,5.34043839188478e-4,0.007240840704856949,0,10000
10,250,0,350,700,1050,1400,1750,2100,2450,2800,3150,2,0,1,0,0,0,0,0,0,0,0,0,0,-0.5,-0.5,-0.5,-0.5,-0.5,-0.5,-0.5,-0.5,-0.5,-0.5,-0.5,linear,100,0.025,0,0.5,TRUE,10,poolmodel,0,-0.22171988883166616,0.05395883973052731,0,10000
10,250,0,350,700,1050,1400,1750,2100,2450,2800,3150,2,0,1,0,0,0,0,0,0,0,0,0,0,-0.5,-0.5,-0.5,-0.5,-0.5,-0.5,-0.5,-0.5,-0.5,-0.5,-0.5,linear,100,0.025,0,0.5,TRUE,10,sepmodel,0.0255,9.229320579229989e-4,0.00796291052748821,0,10000
10,250,0,375,750,1125,1500,1875,2250,2625,3000,3375,2,0,1,0,0,0,0,0,0,0,0,0,0,-0.5,-0.5,-0.5,-0.5,-0.5,-0.5,-0.5,-0.5,-0.5,-0.5,-0.5,linear,100,0.025,0,0.5,TRUE,2,fixmodel,0.0246,1.0340947593899691e-4,0.007543122645450583,0,10000
10,250,0,375,750,1125,1500,1875,2250,2625,3000,3375,2,0,1,0,0,0,0,0,0,0,0,0,0,-0.5,-0.5,-0.5,-0.5,-0.5,-0.5,-0.5,-0.5,-0.5,-0.5,-0.5,linear,100,0.025,0,0.5,TRUE,2,poolmodel,0.0117,-0.027040544256974067,0.006982038860144137,0,10000
10,250,0,375,750,1125,1500,1875,2250,2625,3000,3375,2,0,1,0,0,0,0,0,0,0,0,0,0,-0.5,-0.5,-0.5,-0.5,-0.5,-0.5,-0.5,-0.5,-0.5,-0.5,-0.5,linear,100,0.025,0,0.5,TRUE,2,sepmodel,0.0255,3.578139332224216e-5,0.007999716658579063,0,10000
10,250,0,375,750,1125,1500,1875,2250,2625,3000,3375,2,0,1,0,0,0,0,0,0,0,0,0,0,-0.5,-0.5,-0.5,-0.5,-0.5,-0.5,-0.5,-0.5,-0.5,-0.5,-0.5,linear,100,0.025,0,0.5,TRUE,3,fixmodel,0.0254,-7.057810412886328e-4,0.007552961215354122,0,10000
10,250,0,375,750,1125,1500,1875,2250,2625,3000,3375,2,0,1,0,0,0,0,0,0,0,0,0,0,-0.5,-0.5,-0.5,-0.5,-0.5,-0.5,-0.5,-0.5,-0.5,-0.5,-0.5,linear,100,0.025,0,0.5,TRUE,3,poolmodel,0.0044,-0.054086613856042916,0.008627007541901958,0,10000
10,250,0,375,750,1125,1500,1875,2250,2625,3000,3375,2,0,1,0,0,0,0,0,0,0,0,0,0,-0.5,-0.5,-0.5,-0.5,-0.5,-0.5,-0.5,-0.5,-0.5,-0.5,-0.5,linear,100,0.025,0,0.5,TRUE,3,sepmodel,0.0252,-8.033992917285065e-4,0.00811482919440459,0,10000
10,250,0,375,750,1125,1500,1875,2250,2625,3000,3375,2,0,1,0,0,0,0,0,0,0,0,0,0,-0.5,-0.5,-0.5,-0.5,-0.5,-0.5,-0.5,-0.5,-0.5,-0.5,-0.5,linear,100,0.025,0,0.5,TRUE,4,fixmodel,0.0243,1.5221794578021753e-4,0.007427056502109768,0,10000
10,250,0,375,750,1125,1500,1875,2250,2625,3000,3375,2,0,1,0,0,0,0,0,0,0,0,0,0,-0.5,-0.5,-0.5,-0.5,-0.5,-0.5,-0.5,-0.5,-0.5,-0.5,-0.5,linear,100,0.025,0,0.5,TRUE,4,poolmodel,9e-4,-0.07882467039628857,0.0115739611709164,0,10000
10,250,0,375,750,1125,1500,1875,2250,2625,3000,3375,2,0,1,0,0,0,0,0,0,0,0,0,0,-0.5,-0.5,-0.5,-0.5,-0.5,-0.5,-0.5,-0.5,-0.5,-0.5,-0.5,linear,100,0.025,0,0.5,TRUE,4,sepmodel,0.024,-2.2528239487328375e-4,0.0079316815883998,0,10000
10,250,0,375,750,1125,1500,1875,2250,2625,3000,3375,2,0,1,0,0,0,0,0,0,0,0,0,0,-0.5,-0.5,-0.5,-0.5,-0.5,-0.5,-0.5,-0.5,-0.5,-0.5,-0.5,linear,100,0.025,0,0.5,TRUE,5,fixmodel,0.0246,-6.127973113850425e-4,0.007513567783851298,0,10000
10,250,0,375,750,1125,1500,1875,2250,2625,3000,3375,2,0,1,0,0,0,0,0,0,0,0,0,0,-0.5,-0.5,-0.5,-0.5,-0.5,-0.5,-0.5,-0.5,-0.5,-0.5,-0.5,linear,100,0.025,0,0.5,TRUE,5,poolmodel,1e-4,-0.10450496778484651,0.016021067577504544,0,10000
10,250,0,375,750,1125,1500,1875,2250,2625,3000,3375,2,0,1,0,0,0,0,0,0,0,0,0,0,-0.5,-0.5,-0.5,-0.5,-0.5,-0.5,-0.5,-0.5,-0.5,-0.5,-0.5,linear,100,0.025,0,0.5,TRUE,5,sepmodel,0.025,-4.2445355820989344e-4,0.008108009101077951,0,10000
10,250,0,375,750,1125,1500,1875,2250,2625,3000,3375,2,0,1,0,0,0,0,0,0,0,0,0,0,-0.5,-0.5,-0.5,-0.5,-0.5,-0.5,-0.5,-0.5,-0.5,-0.5,-0.5,linear,100,0.025,0,0.5,TRUE,6,fixmodel,0.0258,-3.7286468377299004e-4,0.007450260545484799,0,10000
10,250,0,375,750,1125,1500,1875,2250,2625,3000,3375,2,0,1,0,0,0,0,0,0,0,0,0,0,-0.5,-0.5,-0.5,-0.5,-0.5,-0.5,-0.5,-0.5,-0.5,-0.5,-0.5,linear,100,0.025,0,0.5,TRUE,6,poolmodel,2e-4,-0.1285779753880316,0.021553127447884547,0,10000
10,250,0,375,750,1125,1500,1875,2250,2625,3000,3375,2,0,1,0,0,0,0,0,0,0,0,0,0,-0.5,-0.5,-0.5,-0.5,-0.5,-0.5,-0.5,-0.5,-0.5,-0.5,-0.5,linear,100,0.025,0,0.5,TRUE,6,sepmodel,0.0229,-5.170595504285761e-4,0.007937163947646065,0,10000
10,250,0,375,750,1125,1500,1875,2250,2625,3000,3375,2,0,1,0,0,0,0,0,0,0,0,0,0,-0.5,-0.5,-0.5,-0.5,-0.5,-0.5,-0.5,-0.5,-0.5,-0.5,-0.5,linear,100,0.025,0,0.5,TRUE,7,fixmodel,0.0228,2.817445841615475e-4,0.007445797301749858,0,10000
10,250,0,375,750,1125,1500,1875,2250,2625,3000,3375,2,0,1,0,0,0,0,0,0,0,0,0,0,-0.5,-0.5,-0.5,-0.5,-0.5,-0.5,-0.5,-0.5,-0.5,-0.5,-0.5,linear,100,0.025,0,0.5,TRUE,7,poolmodel,0,-0.152364038748105,0.02813937774900182,0,10000
10,250,0,375,750,1125,1500,1875,2250,2625,3000,3375,2,0,1,0,0,0,0,0,0,0,0,0,0,-0.5,-0.5,-0.5,-0.5,-0.5,-0.5,-0.5,-0.5,-0.5,-0.5,-0.5,linear,100,0.025,0,0.5,TRUE,7,sepmodel,0.0224,-3.623640754515482e-5,0.007973285525139845,0,10000
10,250,0,375,750,1125,1500,1875,2250,2625,3000,3375,2,0,1,0,0,0,0,0,0,0,0,0,0,-0.5,-0.5,-0.5,-0.5,-0.5,-0.5,-0.5,-0.5,-0.5,-0.5,-0.5,linear,100,0.025,0,0.5,TRUE,8,fixmodel,0.026,4.864670125025429e-4,0.007405225358831859,0,10000
10,250,0,375,750,1125,1500,1875,2250,2625,3000,3375,2,0,1,0,0,0,0,0,0,0,0,0,0,-0.5,-0.5,-0.5,-0.5,-0.5,-0.5,-0.5,-0.5,-0.5,-0.5,-0.5,linear,100,0.025,0,0.5,TRUE,8,poolmodel,0,-0.17744876309051208,0.03643423148403513,0,10000
10,250,0,375,750,1125,1500,1875,2250,2625,3000,3375,2,0,1,0,0,0,0,0,0,0,0,0,0,-0.5,-0.5,-0.5,-0.5,-0.5,-0.5,-0.5,-0.5,-0.5,-0.5,-0.5,linear,100,0.025,0,0.5,TRUE,8,sepmodel,0.026,7.304291370708891e-4,0.007979107341767913,0,10000
10,250,0,375,750,1125,1500,1875,2250,2625,3000,3375,2,0,1,0,0,0,0,0,0,0,0,0,0,-0.5,-0.5,-0.5,-0.5,-0.5,-0.5,-0.5,-0.5,-0.5,-0.5,-0.5,linear,100,0.025,0,0.5,TRUE,9,fixmodel,0.0275,5.55191828281075e-4,0.007569368239373626,0,10000
10,250,0,375,750,1125,1500,1875,2250,2625,3000,3375,2,0,1,0,0,0,0,0,0,0,0,0,0,-0.5,-0.5,-0.5,-0.5,-0.5,-0.5,-0.5,-0.5,-0.5,-0.5,-0.5,linear,100,0.025,0,0.5,TRUE,9,poolmodel,0,-0.20224725112688893,0.04571471699503634,0,10000
10,250,0,375,750,1125,1500,1875,2250,2625,3000,3375,2,0,1,0,0,0,0,0,0,0,0,0,0,-0.5,-0.5,-0.5,-0.5,-0.5,-0.5,-0.5,-0.5,-0.5,-0.5,-0.5,linear,100,0.025,0,0.5,TRUE,9,sepmodel,0.0272,5.660648565162107e-4,0.008119466068670788,0,10000
10,250,0,375,750,1125,1500,1875,2250,2625,3000,3375,2,0,1,0,0,0,0,0,0,0,0,0,0,-0.5,-0.5,-0.5,-0.5,-0.5,-0.5,-0.5,-0.5,-0.5,-0.5,-0.5,linear,100,0.025,0,0.5,TRUE,10,fixmodel,0.0248,7.807240739036369e-4,0.007302224371018749,0,10000
10,250,0,375,750,1125,1500,1875,2250,2625,3000,3375,2,0,1,0,0,0,0,0,0,0,0,0,0,-0.5,-0.5,-0.5,-0.5,-0.5,-0.5,-0.5,-0.5,-0.5,-0.5,-0.5,linear,100,0.025,0,0.5,TRUE,10,poolmodel,0,-0.2228615487253183,0.05431873301965471,0,10000
10,250,0,375,750,1125,1500,1875,2250,2625,3000,3375,2,0,1,0,0,0,0,0,0,0,0,0,0,-0.5,-0.5,-0.5,-0.5,-0.5,-0.5,-0.5,-0.5,-0.5,-0.5,-0.5,linear,100,0.025,0,0.5,TRUE,10,sepmodel,0.0245,9.489685519940209e-4,0.007885498505009223,0,10000
10,250,0,400,800,1200,1600,2000,2400,2800,3200,3600,2,0,1,0,0,0,0,0,0,0,0,0,0,-0.5,-0.5,-0.5,-0.5,-0.5,-0.5,-0.5,-0.5,-0.5,-0.5,-0.5,linear,100,0.025,0,0.5,TRUE,2,fixmodel,0.0242,-5.904105330321359e-4,0.007542335520791586,0,10000
10,250,0,400,800,1200,1600,2000,2400,2800,3200,3600,2,0,1,0,0,0,0,0,0,0,0,0,0,-0.5,-0.5,-0.5,-0.5,-0.5,-0.5,-0.5,-0.5,-0.5,-0.5,-0.5,linear,100,0.025,0,0.5,TRUE,2,poolmodel,0.0093,-0.026785527986516875,0.006869371630695256,0,10000
10,250,0,400,800,1200,1600,2000,2400,2800,3200,3600,2,0,1,0,0,0,0,0,0,0,0,0,0,-0.5,-0.5,-0.5,-0.5,-0.5,-0.5,-0.5,-0.5,-0.5,-0.5,-0.5,linear,100,0.025,0,0.5,TRUE,2,sepmodel,0.0248,-4.925453650461322e-4,0.008005857863505108,0,10000
10,250,0,400,800,1200,1600,2000,2400,2800,3200,3600,2,0,1,0,0,0,0,0,0,0,0,0,0,-0.5,-0.5,-0.5,-0.5,-0.5,-0.5,-0.5,-0.5,-0.5,-0.5,-0.5,linear,100,0.025,0,0.5,TRUE,3,fixmodel,0.0219,-0.0012315992899399801,0.0074425022598194595,0,10000
10,250,0,400,800,1200,1600,2000,2400,2800,3200,3600,2,0,1,0,0,0,0,0,0,0,0,0,0,-0.5,-0.5,-0.5,-0.5,-0.5,-0.5,-0.5,-0.5,-0.5,-0.5,-0.5,linear,100,0.025,0,0.5,TRUE,3,poolmodel,0.0028,-0.05318955060579669,0.008325152352597615,0,10000
10,250,0,400,800,1200,1600,2000,2400,2800,3200,3600,2,0,1,0,0,0,0,0,0,0,0,0,0,-0.5,-0.5,-0.5,-0.5,-0.5,-0.5,-0.5,-0.5,-0.5,-0.5,-0.5,linear,100,0.025,0,0.5,TRUE,3,sepmodel,0.0241,-0.0014795513705073069,0.007958760806288892,0,10000
10,250,0,400,800,1200,1600,2000,2400,2800,3200,3600,2,0,1,0,0,0,0,0,0,0,0,0,0,-0.5,-0.5,-0.5,-0.5,-0.5,-0.5,-0.5,-0.5,-0.5,-0.5,-0.5,linear,100,0.025,0,0.5,TRUE,4,fixmodel,0.025,1.163235254461278e-4,0.00741907803203817,0,10000
10,250,0,400,800,1200,1600,2000,2400,2800,3200,3600,2,0,1,0,0,0,0,0,0,0,0,0,0,-0.5,-0.5,-0.5,-0.5,-0.5,-0.5,-0.5,-0.5,-0.5,-0.5,-0.5,linear,100,0.025,0,0.5,TRUE,4,poolmodel,0.0011,-0.07795666035624435,0.011285253741836513,0,10000
10,250,0,400,800,1200,1600,2000,2400,2800,3200,3600,2,0,1,0,0,0,0,0,0,0,0,0,0,-0.5,-0.5,-0.5,-0.5,-0.5,-0.5,-0.5,-0.5,-0.5,-0.5,-0.5,linear,100,0.025,0,0.5,TRUE,4,sepmodel,0.0236,6.443874292929375e-5,0.007994758569134041,0,10000
10,250,0,400,800,1200,1600,2000,2400,2800,3200,3600,2,0,1,0,0,0,0,0,0,0,0,0,0,-0.5,-0.5,-0.5,-0.5,-0.5,-0.5,-0.5,-0.5,-0.5,-0.5,-0.5,linear,100,0.025,0,0.5,TRUE,5,fixmodel,0.0249,8.369484295778294e-4,0.007492035645481041,0,10000
10,250,0,400,800,1200,1600,2000,2400,2800,3200,3600,2,0,1,0,0,0,0,0,0,0,0,0,0,-0.5,-0.5,-0.5,-0.5,-0.5,-0.5,-0.5,-0.5,-0.5,-0.5,-0.5,linear,100,0.025,0,0.5,TRUE,5,poolmodel,2e-4,-0.10266000722377444,0.015564791415620595,0,10000
10,250,0,400,800,1200,1600,2000,2400,2800,3200,3600,2,0,1,0,0,0,0,0,0,0,0,0,0,-0.5,-0.5,-0.5,-0.5,-0.5,-0.5,-0.5,-0.5,-0.5,-0.5,-0.5,linear,100,0.025,0,0.5,TRUE,5,sepmodel,0.0256,5.825115647500771e-4,0.008032886617939557,0,10000
